%
(*************************************)
(* Generated by wtopace for EntityX  *)
(* Date: 12/1/2015                   *)
(*************************************)
(MICH_DRILL)
(T1  D=0.0039 CR=0. TAPER=118DEG - ZMIN=-0.0162 - DRILL)
N10 G90 G54 G64 G50 G17 G40 G80 G94 G91.1 G49
N20 G20 (Inch)
N30 G30

(DRILL1)
N50 G30
N60 T1 G43 H1 M6
N70 S10000 M3 M9
N80 G54
N90 G0 X2.8427 Y-8.892
N100 G0 Z0.45
N120 G0 Z0.05
N130 G98 G81 X2.8427 Y-8.892 Z-0.0162 R0.05 F4.
N140 X2.8317
N150 X2.8207
N160 X2.8091 Y-8.8921
N170 X2.7979 Y-8.892
N180 X2.7871
N190 X2.7765
N200 X2.7656 Y-8.8921
N210 X2.7545 Y-8.892
N220 X2.7433 Y-8.8921
N230 X2.7324
N240 X2.7207 Y-8.892
N250 X2.7105
N260 X2.6992
N270 X2.6885
N280 X2.6772 Y-8.8919
N290 X2.6546 Y-8.8921
N300 X2.6658
N310 X2.6628 Y-8.8842
N320 X2.6733 Y-8.8803
N330 X2.6838 Y-8.8764
N340 X2.6941 Y-8.8732
N350 X2.7046 Y-8.8691
N360 X2.7149 Y-8.8648
N370 X2.725 Y-8.861
N380 X2.7352 Y-8.8572
N390 X2.7452 Y-8.8537
N400 X2.756 Y-8.8497
N410 X2.7669 Y-8.8461
N420 X2.7765 Y-8.8421
N430 X2.786 Y-8.8371
N440 X2.7769 Y-8.8314
N450 X2.7675 Y-8.8276
N460 X2.757 Y-8.8237
N470 X2.746 Y-8.8204
N480 X2.7357 Y-8.8165
N490 X2.7255 Y-8.8128
N500 X2.7152 Y-8.8087
N510 X2.7047 Y-8.805
N520 X2.6948 Y-8.8015
N530 X2.6845 Y-8.7981
N540 X2.6739 Y-8.7941
N550 X2.6633 Y-8.79
N560 X2.6666 Y-8.7824
N570 X2.6554
N580 X2.6781 Y-8.7823
N590 X2.6892 Y-8.7824
N600 X2.7007
N610 X2.7113 Y-8.7827
N620 X2.7219 Y-8.7824
N630 X2.7324 Y-8.7827
N640 X2.7439 Y-8.7826
N650 X2.7561 Y-8.7824
N660 X2.7669 Y-8.7818
N670 X2.7775 Y-8.7821
N680 X2.7883 Y-8.7823
N690 X2.7989 Y-8.7824
N700 X2.8104 Y-8.7823
N710 X2.8218 Y-8.7821
N720 X2.833 Y-8.7818
N730 X2.8438
N740 X2.8427 Y-8.7132
N750 X2.8322 Y-8.7137
N760 X2.8211
N770 X2.81
N780 X2.7989
N790 X2.7877
N800 X2.7766
N810 X2.7655
N820 X2.7544
N830 X2.7433
N840 X2.7321
N850 X2.721
N860 X2.7099
N870 X2.6988
N880 X2.6877
N890 X2.6766
N900 X2.6654
N910 X2.6543
N920 X2.8381 Y-8.5636
N930 X2.8432 Y-8.5715
N940 X2.8449 Y-8.5822
N950 X2.8447 Y-8.593
N960 X2.8424 Y-8.6033
N970 X2.8373 Y-8.6131
N980 X2.8309 Y-8.6212
N990 X2.8219 Y-8.6273
N1000 X2.8117 Y-8.6325
N1010 X2.8011 Y-8.6374
N1020 X2.7895 Y-8.6412
N1030 X2.7795 Y-8.6431
N1040 X2.7693 Y-8.645
N1050 X2.7568 Y-8.6456
N1060 X2.7465 Y-8.6457
N1070 X2.735 Y-8.6452
N1080 X2.725 Y-8.6444
N1090 X2.7141 Y-8.6427
N1100 X2.7024 Y-8.6412
N1110 X2.6922 Y-8.6378
N1120 X2.6822 Y-8.6341
N1130 X2.6728 Y-8.6275
N1140 X2.6637 Y-8.6218
N1150 X2.6562 Y-8.6135
N1160 X2.6517 Y-8.6031
N1170 X2.6498 Y-8.593
N1180 X2.6492 Y-8.5822
N1190 X2.6515 Y-8.572
N1200 X2.6564 Y-8.5636
N1210 X2.6568 Y-8.4963
N1220 X2.6678 Y-8.4957
N1230 X2.6789
N1240 X2.69
N1250 X2.7011
N1260 X2.7122
N1270 X2.7233
N1280 X2.7344
N1290 X2.7455
N1300 X2.7565
N1310 X2.7676
N1320 X2.7787
N1330 X2.7898
N1340 X2.8009
N1350 X2.812
N1360 X2.8231
N1370 X2.8342
N1380 X2.8453
N1390 X2.8449 Y-8.4092
N1400 X2.834
N1410 X2.823
N1420 X2.8121
N1430 X2.8012
N1440 X2.7903
N1450 X2.7793
N1460 X2.7684
N1470 X2.7575
N1480 X2.7458 Y-8.409
N1490 X2.7345 Y-8.4095
N1500 X2.7234
N1510 X2.7123
N1520 X2.7012
N1530 X2.6902
N1540 X2.6791
N1550 X2.668
N1560 X2.657
N1570 X2.7458 Y-8.4198
N1580 Y-8.4307
N1590 Y-8.4415
N1600 Y-8.4524
N1610 Y-8.4632
N1620 Y-8.474
N1630 Y-8.4849
N1640 X2.8427 Y-6.457
N1650 X2.8317
N1660 X2.8207
N1670 X2.8091 Y-6.4571
N1680 X2.7979 Y-6.457
N1690 X2.7871
N1700 X2.7765
N1710 X2.7656 Y-6.4571
N1720 X2.7545 Y-6.457
N1730 X2.7433 Y-6.4571
N1740 X2.7324
N1750 X2.7207 Y-6.457
N1760 X2.7105
N1770 X2.6992
N1780 X2.6885
N1790 X2.6772 Y-6.4569
N1800 X2.6546 Y-6.4571
N1810 X2.6658
N1820 X2.6628 Y-6.4492
N1830 X2.6733 Y-6.4453
N1840 X2.6838 Y-6.4414
N1850 X2.6941 Y-6.4382
N1860 X2.7046 Y-6.4341
N1870 X2.7149 Y-6.4298
N1880 X2.725 Y-6.426
N1890 X2.7352 Y-6.4222
N1900 X2.7452 Y-6.4187
N1910 X2.756 Y-6.4147
N1920 X2.7669 Y-6.4111
N1930 X2.7765 Y-6.4071
N1940 X2.786 Y-6.4021
N1950 X2.7769 Y-6.3964
N1960 X2.7675 Y-6.3926
N1970 X2.757 Y-6.3887
N1980 X2.746 Y-6.3854
N1990 X2.7357 Y-6.3815
N2000 X2.7255 Y-6.3778
N2010 X2.7152 Y-6.3737
N2020 X2.7047 Y-6.37
N2030 X2.6948 Y-6.3665
N2040 X2.6845 Y-6.3631
N2050 X2.6739 Y-6.3591
N2060 X2.6633 Y-6.355
N2070 X2.6666 Y-6.3474
N2080 X2.6554
N2090 X2.6781 Y-6.3473
N2100 X2.6892 Y-6.3474
N2110 X2.7007
N2120 X2.7113 Y-6.3477
N2130 X2.7219 Y-6.3474
N2140 X2.7324 Y-6.3477
N2150 X2.7439 Y-6.3476
N2160 X2.7561 Y-6.3474
N2170 X2.7669 Y-6.3468
N2180 X2.7775 Y-6.3471
N2190 X2.7883 Y-6.3473
N2200 X2.7989 Y-6.3474
N2210 X2.8104 Y-6.3473
N2220 X2.8218 Y-6.3471
N2230 X2.833 Y-6.3468
N2240 X2.8438
N2250 X2.8427 Y-6.2782
N2260 X2.8322 Y-6.2787
N2270 X2.8211
N2280 X2.81
N2290 X2.7989
N2300 X2.7877
N2310 X2.7766
N2320 X2.7655
N2330 X2.7544
N2340 X2.7433
N2350 X2.7321
N2360 X2.721
N2370 X2.7099
N2380 X2.6988
N2390 X2.6877
N2400 X2.6766
N2410 X2.6654
N2420 X2.6543
N2430 X2.8381 Y-6.1286
N2440 X2.8432 Y-6.1365
N2450 X2.8449 Y-6.1472
N2460 X2.8447 Y-6.158
N2470 X2.8424 Y-6.1683
N2480 X2.8373 Y-6.1781
N2490 X2.8309 Y-6.1862
N2500 X2.8219 Y-6.1923
N2510 X2.8117 Y-6.1975
N2520 X2.8011 Y-6.2024
N2530 X2.7895 Y-6.2062
N2540 X2.7795 Y-6.2081
N2550 X2.7693 Y-6.21
N2560 X2.7568 Y-6.2106
N2570 X2.7465 Y-6.2107
N2580 X2.735 Y-6.2102
N2590 X2.725 Y-6.2094
N2600 X2.7141 Y-6.2077
N2610 X2.7024 Y-6.2062
N2620 X2.6922 Y-6.2028
N2630 X2.6822 Y-6.1991
N2640 X2.6728 Y-6.1925
N2650 X2.6637 Y-6.1868
N2660 X2.6562 Y-6.1785
N2670 X2.6517 Y-6.1681
N2680 X2.6498 Y-6.158
N2690 X2.6492 Y-6.1472
N2700 X2.6515 Y-6.137
N2710 X2.6564 Y-6.1286
N2720 X2.6568 Y-6.0613
N2730 X2.6678 Y-6.0607
N2740 X2.6789
N2750 X2.69
N2760 X2.7011
N2770 X2.7122
N2780 X2.7233
N2790 X2.7344
N2800 X2.7455
N2810 X2.7565
N2820 X2.7676
N2830 X2.7787
N2840 X2.7898
N2850 X2.8009
N2860 X2.812
N2870 X2.8231
N2880 X2.8342
N2890 X2.8453
N2900 X2.8449 Y-5.9742
N2910 X2.834
N2920 X2.823
N2930 X2.8121
N2940 X2.8012
N2950 X2.7903
N2960 X2.7793
N2970 X2.7684
N2980 X2.7575
N2990 X2.7458 Y-5.974
N3000 X2.7345 Y-5.9745
N3010 X2.7234
N3020 X2.7123
N3030 X2.7012
N3040 X2.6902
N3050 X2.6791
N3060 X2.668
N3070 X2.657
N3080 X2.7458 Y-5.9848
N3090 Y-5.9957
N3100 Y-6.0065
N3110 Y-6.0174
N3120 Y-6.0282
N3130 Y-6.039
N3140 Y-6.0499
N3150 X2.8427 Y-4.022
N3160 X2.8317
N3170 X2.8207
N3180 X2.8091 Y-4.0221
N3190 X2.7979 Y-4.022
N3200 X2.7871
N3210 X2.7765
N3220 X2.7656 Y-4.0221
N3230 X2.7545 Y-4.022
N3240 X2.7433 Y-4.0221
N3250 X2.7324
N3260 X2.7207 Y-4.022
N3270 X2.7105
N3280 X2.6992
N3290 X2.6885
N3300 X2.6772 Y-4.0219
N3310 X2.6546 Y-4.0221
N3320 X2.6658
N3330 X2.6628 Y-4.0142
N3340 X2.6733 Y-4.0103
N3350 X2.6838 Y-4.0064
N3360 X2.6941 Y-4.0032
N3370 X2.7046 Y-3.9991
N3380 X2.7149 Y-3.9948
N3390 X2.725 Y-3.991
N3400 X2.7352 Y-3.9872
N3410 X2.7452 Y-3.9837
N3420 X2.756 Y-3.9797
N3430 X2.7669 Y-3.9761
N3440 X2.7765 Y-3.9721
N3450 X2.786 Y-3.9671
N3460 X2.7769 Y-3.9614
N3470 X2.7675 Y-3.9576
N3480 X2.757 Y-3.9537
N3490 X2.746 Y-3.9504
N3500 X2.7357 Y-3.9465
N3510 X2.7255 Y-3.9428
N3520 X2.7152 Y-3.9387
N3530 X2.7047 Y-3.935
N3540 X2.6948 Y-3.9315
N3550 X2.6845 Y-3.9281
N3560 X2.6739 Y-3.9241
N3570 X2.6633 Y-3.92
N3580 X2.6666 Y-3.9124
N3590 X2.6554
N3600 X2.6781 Y-3.9123
N3610 X2.6892 Y-3.9124
N3620 X2.7007
N3630 X2.7113 Y-3.9127
N3640 X2.7219 Y-3.9124
N3650 X2.7324 Y-3.9127
N3660 X2.7439 Y-3.9126
N3670 X2.7561 Y-3.9124
N3680 X2.7669 Y-3.9118
N3690 X2.7775 Y-3.9121
N3700 X2.7883 Y-3.9123
N3710 X2.7989 Y-3.9124
N3720 X2.8104 Y-3.9123
N3730 X2.8218 Y-3.9121
N3740 X2.833 Y-3.9118
N3750 X2.8438
N3760 X2.8427 Y-3.8432
N3770 X2.8322 Y-3.8437
N3780 X2.8211
N3790 X2.81
N3800 X2.7989
N3810 X2.7877
N3820 X2.7766
N3830 X2.7655
N3840 X2.7544
N3850 X2.7433
N3860 X2.7321
N3870 X2.721
N3880 X2.7099
N3890 X2.6988
N3900 X2.6877
N3910 X2.6766
N3920 X2.6654
N3930 X2.6543
N3940 X2.8381 Y-3.6936
N3950 X2.8432 Y-3.7015
N3960 X2.8449 Y-3.7122
N3970 X2.8447 Y-3.723
N3980 X2.8424 Y-3.7333
N3990 X2.8373 Y-3.7431
N4000 X2.8309 Y-3.7512
N4010 X2.8219 Y-3.7573
N4020 X2.8117 Y-3.7625
N4030 X2.8011 Y-3.7674
N4040 X2.7895 Y-3.7712
N4050 X2.7795 Y-3.7731
N4060 X2.7693 Y-3.775
N4070 X2.7568 Y-3.7756
N4080 X2.7465 Y-3.7757
N4090 X2.735 Y-3.7752
N4100 X2.725 Y-3.7744
N4110 X2.7141 Y-3.7727
N4120 X2.7024 Y-3.7712
N4130 X2.6922 Y-3.7678
N4140 X2.6822 Y-3.7641
N4150 X2.6728 Y-3.7575
N4160 X2.6637 Y-3.7518
N4170 X2.6562 Y-3.7435
N4180 X2.6517 Y-3.7331
N4190 X2.6498 Y-3.723
N4200 X2.6492 Y-3.7122
N4210 X2.6515 Y-3.702
N4220 X2.6564 Y-3.6936
N4230 X2.6568 Y-3.6263
N4240 X2.6678 Y-3.6257
N4250 X2.6789
N4260 X2.69
N4270 X2.7011
N4280 X2.7122
N4290 X2.7233
N4300 X2.7344
N4310 X2.7455
N4320 X2.7565
N4330 X2.7676
N4340 X2.7787
N4350 X2.7898
N4360 X2.8009
N4370 X2.812
N4380 X2.8231
N4390 X2.8342
N4400 X2.8453
N4410 X2.8449 Y-3.5392
N4420 X2.834
N4430 X2.823
N4440 X2.8121
N4450 X2.8012
N4460 X2.7903
N4470 X2.7793
N4480 X2.7684
N4490 X2.7575
N4500 X2.7458 Y-3.539
N4510 X2.7345 Y-3.5395
N4520 X2.7234
N4530 X2.7123
N4540 X2.7012
N4550 X2.6902
N4560 X2.6791
N4570 X2.668
N4580 X2.657
N4590 X2.7458 Y-3.5498
N4600 Y-3.5607
N4610 Y-3.5715
N4620 Y-3.5824
N4630 Y-3.5932
N4640 Y-3.604
N4650 Y-3.6149
N4660 X2.8427 Y-1.587
N4670 X2.8317
N4680 X2.8207
N4690 X2.8091 Y-1.5871
N4700 X2.7979 Y-1.587
N4710 X2.7871
N4720 X2.7765
N4730 X2.7656 Y-1.5871
N4740 X2.7545 Y-1.587
N4750 X2.7433 Y-1.5871
N4760 X2.7324
N4770 X2.7207 Y-1.587
N4780 X2.7105
N4790 X2.6992
N4800 X2.6885
N4810 X2.6772 Y-1.5869
N4820 X2.6546 Y-1.5871
N4830 X2.6658
N4840 X2.6628 Y-1.5792
N4850 X2.6733 Y-1.5753
N4860 X2.6838 Y-1.5714
N4870 X2.6941 Y-1.5682
N4880 X2.7046 Y-1.5641
N4890 X2.7149 Y-1.5598
N4900 X2.725 Y-1.556
N4910 X2.7352 Y-1.5522
N4920 X2.7452 Y-1.5487
N4930 X2.756 Y-1.5447
N4940 X2.7669 Y-1.5411
N4950 X2.7765 Y-1.5371
N4960 X2.786 Y-1.5321
N4970 X2.7769 Y-1.5264
N4980 X2.7675 Y-1.5226
N4990 X2.757 Y-1.5187
N5000 X2.746 Y-1.5154
N5010 X2.7357 Y-1.5115
N5020 X2.7255 Y-1.5078
N5030 X2.7152 Y-1.5037
N5040 X2.7047 Y-1.5
N5050 X2.6948 Y-1.4965
N5060 X2.6845 Y-1.4931
N5070 X2.6739 Y-1.4891
N5080 X2.6633 Y-1.485
N5090 X2.6666 Y-1.4774
N5100 X2.6554
N5110 X2.6781 Y-1.4773
N5120 X2.6892 Y-1.4774
N5130 X2.7007
N5140 X2.7113 Y-1.4777
N5150 X2.7219 Y-1.4774
N5160 X2.7324 Y-1.4777
N5170 X2.7439 Y-1.4776
N5180 X2.7561 Y-1.4774
N5190 X2.7669 Y-1.4768
N5200 X2.7775 Y-1.4771
N5210 X2.7883 Y-1.4773
N5220 X2.7989 Y-1.4774
N5230 X2.8104 Y-1.4773
N5240 X2.8218 Y-1.4771
N5250 X2.833 Y-1.4768
N5260 X2.8438
N5270 X2.8427 Y-1.4082
N5280 X2.8322 Y-1.4087
N5290 X2.8211
N5300 X2.81
N5310 X2.7989
N5320 X2.7877
N5330 X2.7766
N5340 X2.7655
N5350 X2.7544
N5360 X2.7433
N5370 X2.7321
N5380 X2.721
N5390 X2.7099
N5400 X2.6988
N5410 X2.6877
N5420 X2.6766
N5430 X2.6654
N5440 X2.6543
N5450 X2.8381 Y-1.2586
N5460 X2.8432 Y-1.2665
N5470 X2.8449 Y-1.2772
N5480 X2.8447 Y-1.288
N5490 X2.8424 Y-1.2983
N5500 X2.8373 Y-1.3081
N5510 X2.8309 Y-1.3162
N5520 X2.8219 Y-1.3223
N5530 X2.8117 Y-1.3275
N5540 X2.8011 Y-1.3324
N5550 X2.7895 Y-1.3362
N5560 X2.7795 Y-1.3381
N5570 X2.7693 Y-1.34
N5580 X2.7568 Y-1.3406
N5590 X2.7465 Y-1.3407
N5600 X2.735 Y-1.3402
N5610 X2.725 Y-1.3394
N5620 X2.7141 Y-1.3377
N5630 X2.7024 Y-1.3362
N5640 X2.6922 Y-1.3328
N5650 X2.6822 Y-1.3291
N5660 X2.6728 Y-1.3225
N5670 X2.6637 Y-1.3168
N5680 X2.6562 Y-1.3085
N5690 X2.6517 Y-1.2981
N5700 X2.6498 Y-1.288
N5710 X2.6492 Y-1.2772
N5720 X2.6515 Y-1.267
N5730 X2.6564 Y-1.2586
N5740 X2.6568 Y-1.1913
N5750 X2.6678 Y-1.1907
N5760 X2.6789
N5770 X2.69
N5780 X2.7011
N5790 X2.7122
N5800 X2.7233
N5810 X2.7344
N5820 X2.7455
N5830 X2.7565
N5840 X2.7676
N5850 X2.7787
N5860 X2.7898
N5870 X2.8009
N5880 X2.812
N5890 X2.8231
N5900 X2.8342
N5910 X2.8453
N5920 X2.8449 Y-1.1042
N5930 X2.834
N5940 X2.823
N5950 X2.8121
N5960 X2.8012
N5970 X2.7903
N5980 X2.7793
N5990 X2.7684
N6000 X2.7575
N6010 X2.7458 Y-1.104
N6020 X2.7345 Y-1.1045
N6030 X2.7234
N6040 X2.7123
N6050 X2.7012
N6060 X2.6902
N6070 X2.6791
N6080 X2.668
N6090 X2.657
N6100 X2.7458 Y-1.1148
N6110 Y-1.1257
N6120 Y-1.1365
N6130 Y-1.1474
N6140 Y-1.1582
N6150 Y-1.169
N6160 Y-1.1799
N6170 X6.4153
N6180 Y-1.169
N6190 Y-1.1582
N6200 Y-1.1474
N6210 Y-1.1365
N6220 Y-1.1257
N6230 Y-1.1148
N6240 X6.3265 Y-1.1045
N6250 X6.3375
N6260 X6.3486
N6270 X6.3597
N6280 X6.3707
N6290 X6.3818
N6300 X6.3929
N6310 X6.404
N6320 X6.4153 Y-1.104
N6330 X6.427 Y-1.1042
N6340 X6.4379
N6350 X6.4488
N6360 X6.4598
N6370 X6.4707
N6380 X6.4816
N6390 X6.4925
N6400 X6.5035
N6410 X6.5144
N6420 X6.5148 Y-1.1907
N6430 X6.5037
N6440 X6.4926
N6450 X6.4815
N6460 X6.4704
N6470 X6.4593
N6480 X6.4482
N6490 X6.4371
N6500 X6.426
N6510 X6.415
N6520 X6.4039
N6530 X6.3928
N6540 X6.3817
N6550 X6.3706
N6560 X6.3595
N6570 X6.3484
N6580 X6.3373
N6590 X6.3263 Y-1.1913
N6600 X6.3259 Y-1.2586
N6610 X6.321 Y-1.267
N6620 X6.3187 Y-1.2772
N6630 X6.3193 Y-1.288
N6640 X6.3212 Y-1.2981
N6650 X6.3257 Y-1.3085
N6660 X6.3332 Y-1.3168
N6670 X6.3423 Y-1.3225
N6680 X6.3517 Y-1.3291
N6690 X6.3617 Y-1.3328
N6700 X6.3719 Y-1.3362
N6710 X6.3836 Y-1.3377
N6720 X6.3945 Y-1.3394
N6730 X6.4045 Y-1.3402
N6740 X6.416 Y-1.3407
N6750 X6.4263 Y-1.3406
N6760 X6.4388 Y-1.34
N6770 X6.449 Y-1.3381
N6780 X6.459 Y-1.3362
N6790 X6.4706 Y-1.3324
N6800 X6.4812 Y-1.3275
N6810 X6.4914 Y-1.3223
N6820 X6.5004 Y-1.3162
N6830 X6.5068 Y-1.3081
N6840 X6.5119 Y-1.2983
N6850 X6.5142 Y-1.288
N6860 X6.5144 Y-1.2772
N6870 X6.5127 Y-1.2665
N6880 X6.5076 Y-1.2586
N6890 X6.3238 Y-1.4087
N6900 X6.3349
N6910 X6.3461
N6920 X6.3572
N6930 X6.3683
N6940 X6.3794
N6950 X6.3905
N6960 X6.4016
N6970 X6.4128
N6980 X6.4239
N6990 X6.435
N7000 X6.4461
N7010 X6.4572
N7020 X6.4684
N7030 X6.4795
N7040 X6.4906
N7050 X6.5017
N7060 X6.5122 Y-1.4082
N7070 X6.5133 Y-1.4768
N7080 X6.5025
N7090 X6.4913 Y-1.4771
N7100 X6.4799 Y-1.4773
N7110 X6.4684 Y-1.4774
N7120 X6.4578 Y-1.4773
N7130 X6.447 Y-1.4771
N7140 X6.4364 Y-1.4768
N7150 X6.4256 Y-1.4774
N7160 X6.4134 Y-1.4776
N7170 X6.4019 Y-1.4777
N7180 X6.3914 Y-1.4774
N7190 X6.3808 Y-1.4777
N7200 X6.3702 Y-1.4774
N7210 X6.3587
N7220 X6.3476 Y-1.4773
N7230 X6.3249 Y-1.4774
N7240 X6.3361
N7250 X6.3328 Y-1.485
N7260 X6.3434 Y-1.4891
N7270 X6.354 Y-1.4931
N7280 X6.3643 Y-1.4965
N7290 X6.3742 Y-1.5
N7300 X6.3847 Y-1.5037
N7310 X6.395 Y-1.5078
N7320 X6.4052 Y-1.5115
N7330 X6.4155 Y-1.5154
N7340 X6.4265 Y-1.5187
N7350 X6.437 Y-1.5226
N7360 X6.4464 Y-1.5264
N7370 X6.4555 Y-1.5321
N7380 X6.446 Y-1.5371
N7390 X6.4364 Y-1.5411
N7400 X6.4255 Y-1.5447
N7410 X6.4147 Y-1.5487
N7420 X6.4047 Y-1.5522
N7430 X6.3945 Y-1.556
N7440 X6.3844 Y-1.5598
N7450 X6.3741 Y-1.5641
N7460 X6.3636 Y-1.5682
N7470 X6.3533 Y-1.5714
N7480 X6.3428 Y-1.5753
N7490 X6.3323 Y-1.5792
N7500 X6.3353 Y-1.5871
N7510 X6.3241
N7520 X6.3467 Y-1.5869
N7530 X6.358 Y-1.587
N7540 X6.3687
N7550 X6.38
N7560 X6.3902
N7570 X6.4019 Y-1.5871
N7580 X6.4128
N7590 X6.424 Y-1.587
N7600 X6.4351 Y-1.5871
N7610 X6.446 Y-1.587
N7620 X6.4566
N7630 X6.4674
N7640 X6.4786 Y-1.5871
N7650 X6.4902 Y-1.587
N7660 X6.5012
N7670 X6.5122
N7680 X6.4153 Y-3.6149
N7690 Y-3.604
N7700 Y-3.5932
N7710 Y-3.5824
N7720 Y-3.5715
N7730 Y-3.5607
N7740 Y-3.5498
N7750 X6.3265 Y-3.5395
N7760 X6.3375
N7770 X6.3486
N7780 X6.3597
N7790 X6.3707
N7800 X6.3818
N7810 X6.3929
N7820 X6.404
N7830 X6.4153 Y-3.539
N7840 X6.427 Y-3.5392
N7850 X6.4379
N7860 X6.4488
N7870 X6.4598
N7880 X6.4707
N7890 X6.4816
N7900 X6.4925
N7910 X6.5035
N7920 X6.5144
N7930 X6.5148 Y-3.6257
N7940 X6.5037
N7950 X6.4926
N7960 X6.4815
N7970 X6.4704
N7980 X6.4593
N7990 X6.4482
N8000 X6.4371
N8010 X6.426
N8020 X6.415
N8030 X6.4039
N8040 X6.3928
N8050 X6.3817
N8060 X6.3706
N8070 X6.3595
N8080 X6.3484
N8090 X6.3373
N8100 X6.3263 Y-3.6263
N8110 X6.3259 Y-3.6936
N8120 X6.321 Y-3.702
N8130 X6.3187 Y-3.7122
N8140 X6.3193 Y-3.723
N8150 X6.3212 Y-3.7331
N8160 X6.3257 Y-3.7435
N8170 X6.3332 Y-3.7518
N8180 X6.3423 Y-3.7575
N8190 X6.3517 Y-3.7641
N8200 X6.3617 Y-3.7678
N8210 X6.3719 Y-3.7712
N8220 X6.3836 Y-3.7727
N8230 X6.3945 Y-3.7744
N8240 X6.4045 Y-3.7752
N8250 X6.416 Y-3.7757
N8260 X6.4263 Y-3.7756
N8270 X6.4388 Y-3.775
N8280 X6.449 Y-3.7731
N8290 X6.459 Y-3.7712
N8300 X6.4706 Y-3.7674
N8310 X6.4812 Y-3.7625
N8320 X6.4914 Y-3.7573
N8330 X6.5004 Y-3.7512
N8340 X6.5068 Y-3.7431
N8350 X6.5119 Y-3.7333
N8360 X6.5142 Y-3.723
N8370 X6.5144 Y-3.7122
N8380 X6.5127 Y-3.7015
N8390 X6.5076 Y-3.6936
N8400 X6.3238 Y-3.8437
N8410 X6.3349
N8420 X6.3461
N8430 X6.3572
N8440 X6.3683
N8450 X6.3794
N8460 X6.3905
N8470 X6.4016
N8480 X6.4128
N8490 X6.4239
N8500 X6.435
N8510 X6.4461
N8520 X6.4572
N8530 X6.4684
N8540 X6.4795
N8550 X6.4906
N8560 X6.5017
N8570 X6.5122 Y-3.8432
N8580 X6.5133 Y-3.9118
N8590 X6.5025
N8600 X6.4913 Y-3.9121
N8610 X6.4799 Y-3.9123
N8620 X6.4684 Y-3.9124
N8630 X6.4578 Y-3.9123
N8640 X6.447 Y-3.9121
N8650 X6.4364 Y-3.9118
N8660 X6.4256 Y-3.9124
N8670 X6.4134 Y-3.9126
N8680 X6.4019 Y-3.9127
N8690 X6.3914 Y-3.9124
N8700 X6.3808 Y-3.9127
N8710 X6.3702 Y-3.9124
N8720 X6.3587
N8730 X6.3476 Y-3.9123
N8740 X6.3249 Y-3.9124
N8750 X6.3361
N8760 X6.3328 Y-3.92
N8770 X6.3434 Y-3.9241
N8780 X6.354 Y-3.9281
N8790 X6.3643 Y-3.9315
N8800 X6.3742 Y-3.935
N8810 X6.3847 Y-3.9387
N8820 X6.395 Y-3.9428
N8830 X6.4052 Y-3.9465
N8840 X6.4155 Y-3.9504
N8850 X6.4265 Y-3.9537
N8860 X6.437 Y-3.9576
N8870 X6.4464 Y-3.9614
N8880 X6.4555 Y-3.9671
N8890 X6.446 Y-3.9721
N8900 X6.4364 Y-3.9761
N8910 X6.4255 Y-3.9797
N8920 X6.4147 Y-3.9837
N8930 X6.4047 Y-3.9872
N8940 X6.3945 Y-3.991
N8950 X6.3844 Y-3.9948
N8960 X6.3741 Y-3.9991
N8970 X6.3636 Y-4.0032
N8980 X6.3533 Y-4.0064
N8990 X6.3428 Y-4.0103
N9000 X6.3323 Y-4.0142
N9010 X6.3353 Y-4.0221
N9020 X6.3241
N9030 X6.3467 Y-4.0219
N9040 X6.358 Y-4.022
N9050 X6.3687
N9060 X6.38
N9070 X6.3902
N9080 X6.4019 Y-4.0221
N9090 X6.4128
N9100 X6.424 Y-4.022
N9110 X6.4351 Y-4.0221
N9120 X6.446 Y-4.022
N9130 X6.4566
N9140 X6.4674
N9150 X6.4786 Y-4.0221
N9160 X6.4902 Y-4.022
N9170 X6.5012
N9180 X6.5122
N9190 X6.4153 Y-6.0499
N9200 Y-6.039
N9210 Y-6.0282
N9220 Y-6.0174
N9230 Y-6.0065
N9240 Y-5.9957
N9250 Y-5.9848
N9260 X6.3265 Y-5.9745
N9270 X6.3375
N9280 X6.3486
N9290 X6.3597
N9300 X6.3707
N9310 X6.3818
N9320 X6.3929
N9330 X6.404
N9340 X6.4153 Y-5.974
N9350 X6.427 Y-5.9742
N9360 X6.4379
N9370 X6.4488
N9380 X6.4598
N9390 X6.4707
N9400 X6.4816
N9410 X6.4925
N9420 X6.5035
N9430 X6.5144
N9440 X6.5148 Y-6.0607
N9450 X6.5037
N9460 X6.4926
N9470 X6.4815
N9480 X6.4704
N9490 X6.4593
N9500 X6.4482
N9510 X6.4371
N9520 X6.426
N9530 X6.415
N9540 X6.4039
N9550 X6.3928
N9560 X6.3817
N9570 X6.3706
N9580 X6.3595
N9590 X6.3484
N9600 X6.3373
N9610 X6.3263 Y-6.0613
N9620 X6.3259 Y-6.1286
N9630 X6.321 Y-6.137
N9640 X6.3187 Y-6.1472
N9650 X6.3193 Y-6.158
N9660 X6.3212 Y-6.1681
N9670 X6.3257 Y-6.1785
N9680 X6.3332 Y-6.1868
N9690 X6.3423 Y-6.1925
N9700 X6.3517 Y-6.1991
N9710 X6.3617 Y-6.2028
N9720 X6.3719 Y-6.2062
N9730 X6.3836 Y-6.2077
N9740 X6.3945 Y-6.2094
N9750 X6.4045 Y-6.2102
N9760 X6.416 Y-6.2107
N9770 X6.4263 Y-6.2106
N9780 X6.4388 Y-6.21
N9790 X6.449 Y-6.2081
N9800 X6.459 Y-6.2062
N9810 X6.4706 Y-6.2024
N9820 X6.4812 Y-6.1975
N9830 X6.4914 Y-6.1923
N9840 X6.5004 Y-6.1862
N9850 X6.5068 Y-6.1781
N9860 X6.5119 Y-6.1683
N9870 X6.5142 Y-6.158
N9880 X6.5144 Y-6.1472
N9890 X6.5127 Y-6.1365
N9900 X6.5076 Y-6.1286
N9910 X6.3238 Y-6.2787
N9920 X6.3349
N9930 X6.3461
N9940 X6.3572
N9950 X6.3683
N9960 X6.3794
N9970 X6.3905
N9980 X6.4016
N9990 X6.4128
N10000 X6.4239
N10010 X6.435
N10020 X6.4461
N10030 X6.4572
N10040 X6.4684
N10050 X6.4795
N10060 X6.4906
N10070 X6.5017
N10080 X6.5122 Y-6.2782
N10090 X6.5133 Y-6.3468
N10100 X6.5025
N10110 X6.4913 Y-6.3471
N10120 X6.4799 Y-6.3473
N10130 X6.4684 Y-6.3474
N10140 X6.4578 Y-6.3473
N10150 X6.447 Y-6.3471
N10160 X6.4364 Y-6.3468
N10170 X6.4256 Y-6.3474
N10180 X6.4134 Y-6.3476
N10190 X6.4019 Y-6.3477
N10200 X6.3914 Y-6.3474
N10210 X6.3808 Y-6.3477
N10220 X6.3702 Y-6.3474
N10230 X6.3587
N10240 X6.3476 Y-6.3473
N10250 X6.3249 Y-6.3474
N10260 X6.3361
N10270 X6.3328 Y-6.355
N10280 X6.3434 Y-6.3591
N10290 X6.354 Y-6.3631
N10300 X6.3643 Y-6.3665
N10310 X6.3742 Y-6.37
N10320 X6.3847 Y-6.3737
N10330 X6.395 Y-6.3778
N10340 X6.4052 Y-6.3815
N10350 X6.4155 Y-6.3854
N10360 X6.4265 Y-6.3887
N10370 X6.437 Y-6.3926
N10380 X6.4464 Y-6.3964
N10390 X6.4555 Y-6.4021
N10400 X6.446 Y-6.4071
N10410 X6.4364 Y-6.4111
N10420 X6.4255 Y-6.4147
N10430 X6.4147 Y-6.4187
N10440 X6.4047 Y-6.4222
N10450 X6.3945 Y-6.426
N10460 X6.3844 Y-6.4298
N10470 X6.3741 Y-6.4341
N10480 X6.3636 Y-6.4382
N10490 X6.3533 Y-6.4414
N10500 X6.3428 Y-6.4453
N10510 X6.3323 Y-6.4492
N10520 X6.3353 Y-6.4571
N10530 X6.3241
N10540 X6.3467 Y-6.4569
N10550 X6.358 Y-6.457
N10560 X6.3687
N10570 X6.38
N10580 X6.3902
N10590 X6.4019 Y-6.4571
N10600 X6.4128
N10610 X6.424 Y-6.457
N10620 X6.4351 Y-6.4571
N10630 X6.446 Y-6.457
N10640 X6.4566
N10650 X6.4674
N10660 X6.4786 Y-6.4571
N10670 X6.4902 Y-6.457
N10680 X6.5012
N10690 X6.5122
N10700 X6.4153 Y-8.4849
N10710 Y-8.474
N10720 Y-8.4632
N10730 Y-8.4524
N10740 Y-8.4415
N10750 Y-8.4307
N10760 Y-8.4198
N10770 X6.3265 Y-8.4095
N10780 X6.3375
N10790 X6.3486
N10800 X6.3597
N10810 X6.3707
N10820 X6.3818
N10830 X6.3929
N10840 X6.404
N10850 X6.4153 Y-8.409
N10860 X6.427 Y-8.4092
N10870 X6.4379
N10880 X6.4488
N10890 X6.4598
N10900 X6.4707
N10910 X6.4816
N10920 X6.4925
N10930 X6.5035
N10940 X6.5144
N10950 X6.5148 Y-8.4957
N10960 X6.5037
N10970 X6.4926
N10980 X6.4815
N10990 X6.4704
N11000 X6.4593
N11010 X6.4482
N11020 X6.4371
N11030 X6.426
N11040 X6.415
N11050 X6.4039
N11060 X6.3928
N11070 X6.3817
N11080 X6.3706
N11090 X6.3595
N11100 X6.3484
N11110 X6.3373
N11120 X6.3263 Y-8.4963
N11130 X6.3259 Y-8.5636
N11140 X6.321 Y-8.572
N11150 X6.3187 Y-8.5822
N11160 X6.3193 Y-8.593
N11170 X6.3212 Y-8.6031
N11180 X6.3257 Y-8.6135
N11190 X6.3332 Y-8.6218
N11200 X6.3423 Y-8.6275
N11210 X6.3517 Y-8.6341
N11220 X6.3617 Y-8.6378
N11230 X6.3719 Y-8.6412
N11240 X6.3836 Y-8.6427
N11250 X6.3945 Y-8.6444
N11260 X6.4045 Y-8.6452
N11270 X6.416 Y-8.6457
N11280 X6.4263 Y-8.6456
N11290 X6.4388 Y-8.645
N11300 X6.449 Y-8.6431
N11310 X6.459 Y-8.6412
N11320 X6.4706 Y-8.6374
N11330 X6.4812 Y-8.6325
N11340 X6.4914 Y-8.6273
N11350 X6.5004 Y-8.6212
N11360 X6.5068 Y-8.6131
N11370 X6.5119 Y-8.6033
N11380 X6.5142 Y-8.593
N11390 X6.5144 Y-8.5822
N11400 X6.5127 Y-8.5715
N11410 X6.5076 Y-8.5636
N11420 X6.3238 Y-8.7137
N11430 X6.3349
N11440 X6.3461
N11450 X6.3572
N11460 X6.3683
N11470 X6.3794
N11480 X6.3905
N11490 X6.4016
N11500 X6.4128
N11510 X6.4239
N11520 X6.435
N11530 X6.4461
N11540 X6.4572
N11550 X6.4684
N11560 X6.4795
N11570 X6.4906
N11580 X6.5017
N11590 X6.5122 Y-8.7132
N11600 X6.5133 Y-8.7818
N11610 X6.5025
N11620 X6.4913 Y-8.7821
N11630 X6.4799 Y-8.7823
N11640 X6.4684 Y-8.7824
N11650 X6.4578 Y-8.7823
N11660 X6.447 Y-8.7821
N11670 X6.4364 Y-8.7818
N11680 X6.4256 Y-8.7824
N11690 X6.4134 Y-8.7826
N11700 X6.4019 Y-8.7827
N11710 X6.3914 Y-8.7824
N11720 X6.3808 Y-8.7827
N11730 X6.3702 Y-8.7824
N11740 X6.3587
N11750 X6.3476 Y-8.7823
N11760 X6.3249 Y-8.7824
N11770 X6.3361
N11780 X6.3328 Y-8.79
N11790 X6.3434 Y-8.7941
N11800 X6.354 Y-8.7981
N11810 X6.3643 Y-8.8015
N11820 X6.3742 Y-8.805
N11830 X6.3847 Y-8.8087
N11840 X6.395 Y-8.8128
N11850 X6.4052 Y-8.8165
N11860 X6.4155 Y-8.8204
N11870 X6.4265 Y-8.8237
N11880 X6.437 Y-8.8276
N11890 X6.4464 Y-8.8314
N11900 X6.4555 Y-8.8371
N11910 X6.446 Y-8.8421
N11920 X6.4364 Y-8.8461
N11930 X6.4255 Y-8.8497
N11940 X6.4147 Y-8.8537
N11950 X6.4047 Y-8.8572
N11960 X6.3945 Y-8.861
N11970 X6.3844 Y-8.8648
N11980 X6.3741 Y-8.8691
N11990 X6.3636 Y-8.8732
N12000 X6.3533 Y-8.8764
N12010 X6.3428 Y-8.8803
N12020 X6.3323 Y-8.8842
N12030 X6.3353 Y-8.8921
N12040 X6.3241
N12050 X6.3467 Y-8.8919
N12060 X6.358 Y-8.892
N12070 X6.3687
N12080 X6.38
N12090 X6.3902
N12100 X6.4019 Y-8.8921
N12110 X6.4128
N12120 X6.424 Y-8.892
N12130 X6.4351 Y-8.8921
N12140 X6.446 Y-8.892
N12150 X6.4566
N12160 X6.4674
N12170 X6.4786 Y-8.8921
N12180 X6.4902 Y-8.892
N12190 X6.5012
N12200 X6.5122
N12210 G80
N12220 G0 Z0.45
N12240 M5 M9

N12250 G30
N12260 M30
%
