%
(*************************************)
(* Generated by wtopace for EntityX  *)
(* Date: 3/28/2016                   *)
(*************************************)
(1001)
(PROJECT4-UT)
(T1  D=0.0039 CR=0. TAPER=118DEG - ZMIN=-0.01 - DRILL)
N10 G90 G54 G64 G50 G17 G40 G80 G94 G91.1 G49
N20 G20 (Inch)
N30 G30

(DRILL1)
N50 G30
N60 T1 G43 H1 M6
N70 S10000 M3 M8
N80 G54
N90 G0 X0.9848 Y-1.9012
N100 G0 Z0.5006
N120 G0 Z0.1006
N130 G98 G81 X0.9848 Y-1.9012 Z-0.01 R0.1 F4.
N140 X0.9823 Y-1.8919
N150 X0.9774 Y-1.8826
N160 X0.9715 Y-1.8764
N170 X0.9628 Y-1.8699
N180 X0.9536 Y-1.8634
N190 X0.9439 Y-1.8589
N200 X0.9355 Y-1.8548
N210 X0.926 Y-1.8524
N220 X0.9163 Y-1.8496
N230 X0.9053 Y-1.8482
N240 X0.8947 Y-1.8478
N250 X0.8845
N260 X0.8739 Y-1.8487
N270 X0.8629 Y-1.8519
N280 X0.8532 Y-1.8541
N290 X0.8438 Y-1.8575
N300 X0.8349 Y-1.8622
N310 X0.8265 Y-1.8689
N320 X0.8193 Y-1.8742
N330 X0.8131 Y-1.8813
N340 X0.8086 Y-1.8915
N350 X0.8061 Y-1.9008
N360 X0.8042 Y-1.9106
N370 X0.8041 Y-1.9205
N380 X0.8038 Y-1.9302
N390 X0.8039 Y-1.9398
N400 X0.8041 Y-1.9486
N410 Y-1.9561
N420 X0.8132 Y-1.9557
N430 X0.8224 Y-1.9555
N440 X0.8319 Y-1.9558
N450 X0.8417 Y-1.9555
N460 X0.8536 Y-1.9556
N470 X0.8647 Y-1.9555
N480 X0.8753 Y-1.9557
N490 X0.886 Y-1.9558
N500 X0.8956 Y-1.9555
N510 X0.9048 Y-1.9557
N520 X0.9147
N530 X0.9245 Y-1.9558
N540 X0.9353 Y-1.9556
N550 X0.9467 Y-1.9559
N560 X0.9574 Y-1.9556
N570 X0.9671
N580 X0.9761
N590 X0.9862 Y-1.9559
N600 X0.9864 Y-1.9473
N610 X0.9867 Y-1.9365
N620 X0.9868 Y-1.9249
N630 X0.9862 Y-1.9135
N640 X0.8047 Y-2.0168
N650 X0.8049 Y-2.0264
N660 Y-2.0366
N670 X0.8048 Y-2.0464
N680 X0.8049 Y-2.0573
N690 Y-2.0692
N700 Y-2.0808
N710 Y-2.09
N720 Y-2.0997
N730 X0.805 Y-2.1095
N740 X0.8039 Y-2.1185
N750 X0.8133 Y-2.1186
N760 X0.8224
N770 X0.8322
N780 X0.8418 Y-2.1184
N790 X0.8537 Y-2.1186
N800 X0.8645 Y-2.1188
N810 X0.8753 Y-2.1185
N820 X0.8862 Y-2.1184
N830 X0.8956 Y-2.1187
N840 X0.905 Y-2.1186
N850 X0.9146
N860 X0.9246 Y-2.1187
N870 X0.9352 Y-2.1185
N880 X0.9466 Y-2.1187
N890 X0.9577 Y-2.1186
N900 X0.9668 Y-2.1188
N910 X0.976
N920 X0.986 Y-2.1187
N930 X0.9846 Y-2.2342
N940 X0.9816 Y-2.2247
N950 X0.9772 Y-2.2159
N960 X0.9715 Y-2.2087
N970 X0.9629 Y-2.2029
N980 X0.954 Y-2.1964
N990 X0.9439 Y-2.1918
N1000 X0.9356 Y-2.1876
N1010 X0.926 Y-2.1856
N1020 X0.9165 Y-2.1824
N1030 X0.9056 Y-2.1812
N1040 X0.8951 Y-2.1804
N1050 X0.884 Y-2.1806
N1060 X0.8741 Y-2.1816
N1070 X0.8628 Y-2.1846
N1080 X0.8533 Y-2.1871
N1090 X0.8439 Y-2.1905
N1100 X0.8349 Y-2.1953
N1110 X0.8265 Y-2.2022
N1120 X0.8193 Y-2.2077
N1130 X0.8132 Y-2.2142
N1140 X0.8091 Y-2.2246
N1150 X0.8061 Y-2.2339
N1160 X0.8045 Y-2.2437
N1170 X0.8042 Y-2.2536
N1180 X0.8039 Y-2.2629
N1190 X0.8036 Y-2.2732
N1200 X0.8042 Y-2.2812
N1210 Y-2.289
N1220 X0.813 Y-2.2889
N1230 X0.8227
N1240 X0.8318
N1250 X0.8415 Y-2.289
N1260 X0.8536 Y-2.2888
N1270 X0.8646
N1280 X0.8751 Y-2.2889
N1290 X0.886 Y-2.289
N1300 X0.8957 Y-2.2888
N1310 X0.905 Y-2.289
N1320 X0.9145 Y-2.2889
N1330 X0.9245
N1340 X0.935 Y-2.2887
N1350 X0.9466 Y-2.2889
N1360 X0.9576
N1370 X0.9668
N1380 X0.9762
N1390 X0.9861
N1400 X0.9864 Y-2.2803
N1410 X0.9869 Y-2.2695
N1420 Y-2.2578
N1430 X0.9862 Y-2.2467
N1440 G80
N1450 G0 Z0.5006
N1470 M5 M9

(DRILL1)
N1480 S10000 M3 M8
N1490 G0 X4.7595 Y-1.8995
N1500 G0 Z0.5006
N1520 G0 Z0.1006
N1530 G98 G81 X4.7595 Y-1.8995 Z-0.01 R0.1 F4.
N1540 X4.757 Y-1.8902
N1550 X4.7521 Y-1.8809
N1560 X4.7462 Y-1.8747
N1570 X4.7375 Y-1.8682
N1580 X4.7283 Y-1.8617
N1590 X4.7186 Y-1.8572
N1600 X4.7102 Y-1.8531
N1610 X4.7007 Y-1.8507
N1620 X4.6909 Y-1.8479
N1630 X4.6799 Y-1.8465
N1640 X4.6693 Y-1.8461
N1650 X4.6592
N1660 X4.6486 Y-1.847
N1670 X4.6375 Y-1.8502
N1680 X4.6279 Y-1.8524
N1690 X4.6185 Y-1.8557
N1700 X4.6096 Y-1.8605
N1710 X4.6012 Y-1.8672
N1720 X4.594 Y-1.8725
N1730 X4.5878 Y-1.8796
N1740 X4.5832 Y-1.8898
N1750 X4.5808 Y-1.8991
N1760 X4.5789 Y-1.9089
N1770 X4.5788 Y-1.9188
N1780 X4.5785 Y-1.9285
N1790 X4.5786 Y-1.9381
N1800 X4.5788 Y-1.9469
N1810 X4.5787 Y-1.9544
N1820 X4.5878 Y-1.954
N1830 X4.597 Y-1.9538
N1840 X4.6066 Y-1.9541
N1850 X4.6164 Y-1.9538
N1860 X4.6283 Y-1.9539
N1870 X4.6394 Y-1.9538
N1880 X4.65 Y-1.954
N1890 X4.6607 Y-1.9541
N1900 X4.6703 Y-1.9538
N1910 X4.6795 Y-1.954
N1920 X4.6893
N1930 X4.6991 Y-1.9541
N1940 X4.71 Y-1.9539
N1950 X4.7213 Y-1.9541
N1960 X4.7321 Y-1.9539
N1970 X4.7417
N1980 X4.7508
N1990 X4.7609 Y-1.9541
N2000 X4.7611 Y-1.9456
N2010 X4.7614 Y-1.9348
N2020 X4.7615 Y-1.9232
N2030 X4.7609 Y-1.9118
N2040 X4.5794 Y-2.0151
N2050 X4.5795 Y-2.0247
N2060 Y-2.0349
N2070 Y-2.0447
N2080 Y-2.0556
N2090 X4.5796 Y-2.0675
N2100 X4.5795 Y-2.0791
N2110 Y-2.0883
N2120 Y-2.098
N2130 X4.5797 Y-2.1078
N2140 X4.5786 Y-2.1168
N2150 X4.588 Y-2.1169
N2160 X4.597
N2170 X4.6068
N2180 X4.6165 Y-2.1167
N2190 X4.6283 Y-2.1169
N2200 X4.6392 Y-2.1171
N2210 X4.65 Y-2.1168
N2220 X4.6608 Y-2.1167
N2230 X4.6703 Y-2.117
N2240 X4.6797 Y-2.1169
N2250 X4.6893
N2260 X4.6993 Y-2.117
N2270 X4.7099 Y-2.1168
N2280 X4.7213 Y-2.117
N2290 X4.7324 Y-2.1169
N2300 X4.7415 Y-2.1171
N2310 X4.7507
N2320 X4.7607 Y-2.117
N2330 X4.7593 Y-2.2325
N2340 X4.7563 Y-2.223
N2350 X4.7519 Y-2.2141
N2360 X4.7462 Y-2.207
N2370 X4.7376 Y-2.2012
N2380 X4.7287 Y-2.1947
N2390 X4.7186 Y-2.1901
N2400 X4.7103 Y-2.1859
N2410 X4.7007 Y-2.1839
N2420 X4.6912 Y-2.1807
N2430 X4.6802 Y-2.1795
N2440 X4.6698 Y-2.1787
N2450 X4.6586 Y-2.1789
N2460 X4.6488 Y-2.1799
N2470 X4.6374 Y-2.1829
N2480 X4.628 Y-2.1854
N2490 X4.6186 Y-2.1888
N2500 X4.6096 Y-2.1936
N2510 X4.6012 Y-2.2005
N2520 X4.594 Y-2.206
N2530 X4.5879 Y-2.2125
N2540 X4.5837 Y-2.2229
N2550 X4.5808 Y-2.2322
N2560 X4.5792 Y-2.242
N2570 X4.5788 Y-2.2519
N2580 X4.5786 Y-2.2612
N2590 X4.5783 Y-2.2715
N2600 X4.5788 Y-2.2795
N2610 Y-2.2873
N2620 X4.5877 Y-2.2872
N2630 X4.5974
N2640 X4.6064
N2650 X4.6162 Y-2.2873
N2660 X4.6283 Y-2.2871
N2670 X4.6393
N2680 X4.6498 Y-2.2872
N2690 X4.6607 Y-2.2873
N2700 X4.6704 Y-2.2871
N2710 X4.6797 Y-2.2873
N2720 X4.6892 Y-2.2872
N2730 X4.6991
N2740 X4.7097 Y-2.287
N2750 X4.7213 Y-2.2872
N2760 X4.7323
N2770 X4.7415
N2780 X4.7509
N2790 X4.7607
N2800 X4.7611 Y-2.2786
N2810 X4.7616 Y-2.2677
N2820 Y-2.2561
N2830 X4.7609 Y-2.245
N2840 G80
N2850 G0 Z0.5006
N2870 M5 M9

(DRILL1)
N2880 S10000 M3 M8
N2890 G0 X0.9839 Y-4.4043
N2900 G0 Z0.5006
N2920 G0 Z0.1006
N2930 G98 G81 X0.9839 Y-4.4043 Z-0.01 R0.1 F4.
N2940 X0.9815 Y-4.395
N2950 X0.9765 Y-4.3857
N2960 X0.9707 Y-4.3795
N2970 X0.9619 Y-4.373
N2980 X0.9527 Y-4.3665
N2990 X0.943 Y-4.362
N3000 X0.9346 Y-4.3579
N3010 X0.9251 Y-4.3555
N3020 X0.9154 Y-4.3527
N3030 X0.9044 Y-4.3513
N3040 X0.8938 Y-4.3509
N3050 X0.8837
N3060 X0.8731 Y-4.3518
N3070 X0.862 Y-4.355
N3080 X0.8524 Y-4.3573
N3090 X0.8429 Y-4.3606
N3100 X0.834 Y-4.3654
N3110 X0.8256 Y-4.3721
N3120 X0.8185 Y-4.3773
N3130 X0.8122 Y-4.3844
N3140 X0.8077 Y-4.3946
N3150 X0.8052 Y-4.4039
N3160 X0.8034 Y-4.4138
N3170 X0.8032 Y-4.4236
N3180 X0.803 Y-4.4333
N3190 Y-4.4429
N3200 X0.8032 Y-4.4517
N3210 Y-4.4592
N3220 X0.8123 Y-4.4588
N3230 X0.8215 Y-4.4586
N3240 X0.831 Y-4.4589
N3250 X0.8408 Y-4.4586
N3260 X0.8527 Y-4.4587
N3270 X0.8639 Y-4.4586
N3280 X0.8744 Y-4.4588
N3290 X0.8851 Y-4.4589
N3300 X0.8947 Y-4.4586
N3310 X0.9039 Y-4.4588
N3320 X0.9138
N3330 X0.9236 Y-4.4589
N3340 X0.9345 Y-4.4587
N3350 X0.9458 Y-4.459
N3360 X0.9565 Y-4.4587
N3370 X0.9662
N3380 X0.9752
N3390 X0.9853 Y-4.459
N3400 X0.9855 Y-4.4504
N3410 X0.9859 Y-4.4396
N3420 Y-4.428
N3430 X0.9853 Y-4.4166
N3440 X0.8039 Y-4.5199
N3450 X0.804 Y-4.5296
N3460 Y-4.5397
N3470 X0.8039 Y-4.5495
N3480 X0.804 Y-4.5604
N3490 Y-4.5723
N3500 Y-4.5839
N3510 Y-4.5931
N3520 Y-4.6028
N3530 X0.8042 Y-4.6126
N3540 X0.8031 Y-4.6217
N3550 X0.8124
N3560 X0.8215
N3570 X0.8313
N3580 X0.841 Y-4.6216
N3590 X0.8528 Y-4.6217
N3600 X0.8637 Y-4.6219
N3610 X0.8744 Y-4.6217
N3620 X0.8853 Y-4.6216
N3630 X0.8947 Y-4.6218
N3640 X0.9041 Y-4.6217
N3650 X0.9137
N3660 X0.9237 Y-4.6218
N3670 X0.9343 Y-4.6217
N3680 X0.9457 Y-4.6218
N3690 X0.9568 Y-4.6217
N3700 X0.9659 Y-4.6219
N3710 X0.9751
N3720 X0.9851 Y-4.6218
N3730 X0.9837 Y-4.7373
N3740 X0.9807 Y-4.7278
N3750 X0.9763 Y-4.719
N3760 X0.9706 Y-4.7118
N3770 X0.962 Y-4.706
N3780 X0.9531 Y-4.6995
N3790 X0.943 Y-4.6949
N3800 X0.9347 Y-4.6907
N3810 X0.9251 Y-4.6887
N3820 X0.9156 Y-4.6856
N3830 X0.9047 Y-4.6844
N3840 X0.8942 Y-4.6835
N3850 X0.8831 Y-4.6837
N3860 X0.8732 Y-4.6847
N3870 X0.8619 Y-4.6877
N3880 X0.8524 Y-4.6903
N3890 X0.843 Y-4.6936
N3900 X0.8341 Y-4.6984
N3910 X0.8257 Y-4.7053
N3920 X0.8184 Y-4.7108
N3930 X0.8123 Y-4.7173
N3940 X0.8082 Y-4.7277
N3950 X0.8052 Y-4.737
N3960 X0.8036 Y-4.7468
N3970 X0.8033 Y-4.7567
N3980 X0.8031 Y-4.766
N3990 X0.8027 Y-4.7763
N4000 X0.8033 Y-4.7844
N4010 Y-4.7921
N4020 X0.8121 Y-4.792
N4030 X0.8218
N4040 X0.8309
N4050 X0.8406 Y-4.7921
N4060 X0.8527 Y-4.7919
N4070 X0.8638
N4080 X0.8742 Y-4.792
N4090 X0.8851 Y-4.7921
N4100 X0.8949 Y-4.7919
N4110 X0.9041 Y-4.7921
N4120 X0.9136 Y-4.792
N4130 X0.9236
N4140 X0.9342 Y-4.7918
N4150 X0.9457 Y-4.792
N4160 X0.9568
N4170 X0.9659
N4180 X0.9753
N4190 X0.9852
N4200 X0.9856 Y-4.7834
N4210 X0.986 Y-4.7726
N4220 Y-4.7609
N4230 X0.9854 Y-4.7499
N4240 G80
N4250 G0 Z0.5006
N4270 M5 M9

(DRILL1)
N4280 S10000 M3 M8
N4290 G0 X4.7602 Y-4.4018
N4300 G0 Z0.5006
N4320 G0 Z0.1006
N4330 G98 G81 X4.7602 Y-4.4018 Z-0.01 R0.1 F4.
N4340 X4.7577 Y-4.3926
N4350 X4.7528 Y-4.3832
N4360 X4.7469 Y-4.377
N4370 X4.7382 Y-4.3705
N4380 X4.729 Y-4.3641
N4390 X4.7193 Y-4.3595
N4400 X4.7109 Y-4.3555
N4410 X4.7014 Y-4.353
N4420 X4.6917 Y-4.3502
N4430 X4.6807 Y-4.3489
N4440 X4.6701 Y-4.3484
N4450 X4.6599
N4460 X4.6493 Y-4.3493
N4470 X4.6383 Y-4.3526
N4480 X4.6286 Y-4.3548
N4490 X4.6192 Y-4.3581
N4500 X4.6103 Y-4.3629
N4510 X4.6019 Y-4.3696
N4520 X4.5947 Y-4.3749
N4530 X4.5885 Y-4.382
N4540 X4.584 Y-4.3922
N4550 X4.5815 Y-4.4015
N4560 X4.5796 Y-4.4113
N4570 X4.5795 Y-4.4211
N4580 X4.5792 Y-4.4309
N4590 X4.5793 Y-4.4404
N4600 X4.5795 Y-4.4493
N4610 Y-4.4567
N4620 X4.5886 Y-4.4564
N4630 X4.5978 Y-4.4562
N4640 X4.6073 Y-4.4564
N4650 X4.6171 Y-4.4562
N4660 X4.629 Y-4.4563
N4670 X4.6401 Y-4.4562
N4680 X4.6507 Y-4.4564
N4690 X4.6614 Y-4.4565
N4700 X4.671 Y-4.4562
N4710 X4.6802 Y-4.4563
N4720 X4.6901
N4730 X4.6999 Y-4.4565
N4740 X4.7107 Y-4.4562
N4750 X4.7221 Y-4.4565
N4760 X4.7328 Y-4.4562
N4770 X4.7425 Y-4.4563
N4780 X4.7515 Y-4.4562
N4790 X4.7616 Y-4.4565
N4800 X4.7618 Y-4.4479
N4810 X4.7621 Y-4.4371
N4820 X4.7622 Y-4.4256
N4830 X4.7616 Y-4.4141
N4840 X4.5801 Y-4.5175
N4850 X4.5803 Y-4.5271
N4860 Y-4.5372
N4870 X4.5802 Y-4.5471
N4880 X4.5803 Y-4.558
N4890 Y-4.5699
N4900 Y-4.5814
N4910 Y-4.5907
N4920 Y-4.6003
N4930 X4.5804 Y-4.6101
N4940 X4.5793 Y-4.6192
N4950 X4.5887
N4960 X4.5978
N4970 X4.6076
N4980 X4.6172 Y-4.6191
N4990 X4.6291 Y-4.6192
N5000 X4.6399 Y-4.6195
N5010 X4.6507 Y-4.6192
N5020 X4.6616 Y-4.6191
N5030 X4.671 Y-4.6193
N5040 X4.6804 Y-4.6192
N5050 X4.69
N5060 X4.7 Y-4.6193
N5070 X4.7106 Y-4.6192
N5080 X4.722 Y-4.6193
N5090 X4.7331 Y-4.6192
N5100 X4.7422 Y-4.6195
N5110 X4.7514
N5120 X4.7614 Y-4.6193
N5130 X4.76 Y-4.7348
N5140 X4.757 Y-4.7254
N5150 X4.7526 Y-4.7165
N5160 X4.7469 Y-4.7093
N5170 X4.7383 Y-4.7035
N5180 X4.7294 Y-4.697
N5190 X4.7193 Y-4.6925
N5200 X4.711 Y-4.6882
N5210 X4.7014 Y-4.6863
N5220 X4.6919 Y-4.6831
N5230 X4.681 Y-4.6819
N5240 X4.6705 Y-4.681
N5250 X4.6594 Y-4.6812
N5260 X4.6495 Y-4.6822
N5270 X4.6382 Y-4.6853
N5280 X4.6287 Y-4.6878
N5290 X4.6193 Y-4.6912
N5300 X4.6103 Y-4.696
N5310 X4.6019 Y-4.7029
N5320 X4.5947 Y-4.7083
N5330 X4.5886 Y-4.7149
N5340 X4.5845 Y-4.7252
N5350 X4.5815 Y-4.7345
N5360 X4.5799 Y-4.7443
N5370 X4.5796 Y-4.7543
N5380 X4.5793 Y-4.7636
N5390 X4.579 Y-4.7738
N5400 X4.5796 Y-4.7819
N5410 Y-4.7897
N5420 X4.5884 Y-4.7895
N5430 X4.5981
N5440 X4.6072
N5450 X4.6169 Y-4.7897
N5460 X4.629 Y-4.7894
N5470 X4.64
N5480 X4.6505 Y-4.7895
N5490 X4.6614 Y-4.7897
N5500 X4.6711 Y-4.7894
N5510 X4.6804 Y-4.7897
N5520 X4.6899 Y-4.7895
N5530 X4.6999
N5540 X4.7104 Y-4.7893
N5550 X4.722 Y-4.7895
N5560 X4.733
N5570 X4.7422
N5580 X4.7516
N5590 X4.7615
N5600 X4.7618 Y-4.781
N5610 X4.7623 Y-4.7701
N5620 Y-4.7584
N5630 X4.7616 Y-4.7474
N5640 G80
N5650 G0 Z0.5006
N5670 M5 M9

(DRILL1)
N5680 S10000 M3 M8
N5690 G0 X0.9847 Y-6.8961
N5700 G0 Z0.5006
N5720 G0 Z0.1006
N5730 G98 G81 X0.9847 Y-6.8961 Z-0.01 R0.1 F4.
N5740 X0.9823 Y-6.8868
N5750 X0.9773 Y-6.8775
N5760 X0.9715 Y-6.8713
N5770 X0.9628 Y-6.8648
N5780 X0.9536 Y-6.8583
N5790 X0.9438 Y-6.8538
N5800 X0.9355 Y-6.8497
N5810 X0.9259 Y-6.8473
N5820 X0.9162 Y-6.8445
N5830 X0.9052 Y-6.8431
N5840 X0.8946 Y-6.8427
N5850 X0.8845
N5860 X0.8739 Y-6.8436
N5870 X0.8628 Y-6.8468
N5880 X0.8532 Y-6.849
N5890 X0.8437 Y-6.8523
N5900 X0.8348 Y-6.8571
N5910 X0.8265 Y-6.8638
N5920 X0.8193 Y-6.8691
N5930 X0.8131 Y-6.8762
N5940 X0.8085 Y-6.8864
N5950 X0.8061 Y-6.8957
N5960 X0.8042 Y-6.9055
N5970 X0.804 Y-6.9154
N5980 X0.8038 Y-6.9251
N5990 Y-6.9347
N6000 X0.804 Y-6.9435
N6010 Y-6.951
N6020 X0.8131 Y-6.9506
N6030 X0.8223 Y-6.9504
N6040 X0.8318 Y-6.9507
N6050 X0.8417 Y-6.9504
N6060 X0.8536 Y-6.9505
N6070 X0.8647 Y-6.9504
N6080 X0.8753 Y-6.9506
N6090 X0.8859 Y-6.9507
N6100 X0.8955 Y-6.9504
N6110 X0.9048 Y-6.9506
N6120 X0.9146
N6130 X0.9244 Y-6.9507
N6140 X0.9353 Y-6.9505
N6150 X0.9466 Y-6.9507
N6160 X0.9573 Y-6.9505
N6170 X0.967
N6180 X0.9761
N6190 X0.9862 Y-6.9507
N6200 X0.9863 Y-6.9422
N6210 X0.9867 Y-6.9314
N6220 X0.9868 Y-6.9198
N6230 X0.9862 Y-6.9084
N6240 X0.8047 Y-7.0117
N6250 X0.8048 Y-7.0213
N6260 Y-7.0315
N6270 X0.8047 Y-7.0413
N6280 X0.8048 Y-7.0522
N6290 X0.8049 Y-7.0641
N6300 X0.8048 Y-7.0757
N6310 Y-7.0849
N6320 Y-7.0946
N6330 X0.805 Y-7.1044
N6340 X0.8039 Y-7.1134
N6350 X0.8132 Y-7.1135
N6360 X0.8223
N6370 X0.8321
N6380 X0.8418 Y-7.1133
N6390 X0.8536 Y-7.1135
N6400 X0.8645 Y-7.1137
N6410 X0.8753 Y-7.1134
N6420 X0.8861 Y-7.1133
N6430 X0.8955 Y-7.1136
N6440 X0.905 Y-7.1135
N6450 X0.9145
N6460 X0.9246 Y-7.1136
N6470 X0.9351 Y-7.1134
N6480 X0.9465 Y-7.1136
N6490 X0.9577 Y-7.1135
N6500 X0.9667 Y-7.1137
N6510 X0.9759
N6520 X0.986 Y-7.1136
N6530 X0.9845 Y-7.2291
N6540 X0.9815 Y-7.2196
N6550 X0.9771 Y-7.2107
N6560 X0.9715 Y-7.2036
N6570 X0.9628 Y-7.1978
N6580 X0.9539 Y-7.1913
N6590 X0.9438 Y-7.1867
N6600 X0.9355 Y-7.1825
N6610 X0.9259 Y-7.1805
N6620 X0.9164 Y-7.1773
N6630 X0.9055 Y-7.1761
N6640 X0.895 Y-7.1753
N6650 X0.8839 Y-7.1755
N6660 X0.8741 Y-7.1765
N6670 X0.8627 Y-7.1795
N6680 X0.8532 Y-7.182
N6690 X0.8438 Y-7.1854
N6700 X0.8349 Y-7.1902
N6710 X0.8265 Y-7.1971
N6720 X0.8193 Y-7.2026
N6730 X0.8132 Y-7.2091
N6740 X0.809 Y-7.2195
N6750 X0.8061 Y-7.2288
N6760 X0.8044 Y-7.2386
N6770 X0.8041 Y-7.2485
N6780 X0.8039 Y-7.2578
N6790 X0.8036 Y-7.2681
N6800 X0.8041 Y-7.2761
N6810 Y-7.2839
N6820 X0.8129 Y-7.2838
N6830 X0.8226
N6840 X0.8317
N6850 X0.8414 Y-7.2839
N6860 X0.8536 Y-7.2837
N6870 X0.8646
N6880 X0.8751 Y-7.2838
N6890 X0.886 Y-7.2839
N6900 X0.8957 Y-7.2837
N6910 X0.905 Y-7.2839
N6920 X0.9145 Y-7.2838
N6930 X0.9244
N6940 X0.935 Y-7.2836
N6950 X0.9466 Y-7.2838
N6960 X0.9576
N6970 X0.9668
N6980 X0.9761
N6990 X0.986
N7000 X0.9864 Y-7.2752
N7010 X0.9868 Y-7.2643
N7020 Y-7.2527
N7030 X0.9862 Y-7.2416
N7040 G80
N7050 G0 Z0.5006
N7070 M5 M9

(DRILL1)
N7080 S10000 M3 M8
N7090 G0 X4.7603 Y-6.8934
N7100 G0 Z0.5006
N7120 G0 Z0.1006
N7130 G98 G81 X4.7603 Y-6.8934 Z-0.01 R0.1 F4.
N7140 X4.7579 Y-6.8841
N7150 X4.7529 Y-6.8748
N7160 X4.7471 Y-6.8686
N7170 X4.7384 Y-6.8621
N7180 X4.7292 Y-6.8556
N7190 X4.7194 Y-6.8511
N7200 X4.7111 Y-6.847
N7210 X4.7016 Y-6.8446
N7220 X4.6918 Y-6.8418
N7230 X4.6808 Y-6.8404
N7240 X4.6702 Y-6.84
N7250 X4.6601
N7260 X4.6495 Y-6.8409
N7270 X4.6384 Y-6.8441
N7280 X4.6288 Y-6.8463
N7290 X4.6194 Y-6.8497
N7300 X4.6105 Y-6.8545
N7310 X4.6021 Y-6.8612
N7320 X4.5949 Y-6.8664
N7330 X4.5887 Y-6.8735
N7340 X4.5841 Y-6.8837
N7350 X4.5817 Y-6.893
N7360 X4.5798 Y-6.9028
N7370 X4.5797 Y-6.9127
N7380 X4.5794 Y-6.9224
N7390 X4.5795 Y-6.932
N7400 X4.5797 Y-6.9408
N7410 X4.5796 Y-6.9483
N7420 X4.5887 Y-6.9479
N7430 X4.5979 Y-6.9477
N7440 X4.6075 Y-6.948
N7450 X4.6173 Y-6.9477
N7460 X4.6292 Y-6.9478
N7470 X4.6403 Y-6.9477
N7480 X4.6509 Y-6.9479
N7490 X4.6616 Y-6.948
N7500 X4.6712 Y-6.9477
N7510 X4.6804 Y-6.9479
N7520 X4.6902
N7530 X4.7 Y-6.948
N7540 X4.7109 Y-6.9478
N7550 X4.7222 Y-6.9481
N7560 X4.733 Y-6.9478
N7570 X4.7426
N7580 X4.7517
N7590 X4.7618 Y-6.9481
N7600 X4.762 Y-6.9395
N7610 X4.7623 Y-6.9287
N7620 X4.7624 Y-6.9171
N7630 X4.7618 Y-6.9057
N7640 X4.5803 Y-7.009
N7650 X4.5804 Y-7.0186
N7660 Y-7.0288
N7670 Y-7.0386
N7680 Y-7.0495
N7690 X4.5805 Y-7.0614
N7700 X4.5804 Y-7.073
N7710 Y-7.0822
N7720 Y-7.0919
N7730 X4.5806 Y-7.1017
N7740 X4.5795 Y-7.1108
N7750 X4.5889
N7760 X4.5979
N7770 X4.6077
N7780 X4.6174 Y-7.1107
N7790 X4.6292 Y-7.1108
N7800 X4.6401 Y-7.111
N7810 X4.6509 Y-7.1108
N7820 X4.6617 Y-7.1107
N7830 X4.6712 Y-7.1109
N7840 X4.6806 Y-7.1108
N7850 X4.6902
N7860 X4.7002 Y-7.1109
N7870 X4.7108 Y-7.1108
N7880 X4.7222 Y-7.1109
N7890 X4.7333 Y-7.1108
N7900 X4.7424 Y-7.111
N7910 X4.7516
N7920 X4.7616 Y-7.1109
N7930 X4.7602 Y-7.2264
N7940 X4.7572 Y-7.2169
N7950 X4.7527 Y-7.2081
N7960 X4.7471 Y-7.2009
N7970 X4.7384 Y-7.1951
N7980 X4.7296 Y-7.1886
N7990 X4.7195 Y-7.184
N8000 X4.7112 Y-7.1798
N8010 X4.7016 Y-7.1778
N8020 X4.6921 Y-7.1747
N8030 X4.6811 Y-7.1735
N8040 X4.6707 Y-7.1726
N8050 X4.6595 Y-7.1728
N8060 X4.6497 Y-7.1738
N8070 X4.6383 Y-7.1768
N8080 X4.6288 Y-7.1793
N8090 X4.6195 Y-7.1827
N8100 X4.6105 Y-7.1875
N8110 X4.6021 Y-7.1944
N8120 X4.5949 Y-7.1999
N8130 X4.5888 Y-7.2064
N8140 X4.5846 Y-7.2168
N8150 X4.5817 Y-7.2261
N8160 X4.58 Y-7.2359
N8170 X4.5797 Y-7.2458
N8180 X4.5795 Y-7.2551
N8190 X4.5792 Y-7.2654
N8200 X4.5797 Y-7.2734
N8210 Y-7.2812
N8220 X4.5886 Y-7.2811
N8230 X4.5983
N8240 X4.6073
N8250 X4.6171 Y-7.2812
N8260 X4.6292 Y-7.281
N8270 X4.6402
N8280 X4.6507 Y-7.2811
N8290 X4.6616 Y-7.2812
N8300 X4.6713 Y-7.281
N8310 X4.6806 Y-7.2812
N8320 X4.6901 Y-7.2811
N8330 X4.7
N8340 X4.7106 Y-7.2809
N8350 X4.7222 Y-7.2811
N8360 X4.7332
N8370 X4.7424
N8380 X4.7518
N8390 X4.7616
N8400 X4.762 Y-7.2725
N8410 X4.7625 Y-7.2617
N8420 Y-7.25
N8430 X4.7618 Y-7.239
N8440 G80
N8450 G0 Z0.5006
N8470 M5 M9

(DRILL1)
N8480 S10000 M3 M8
N8490 G0 X4.7594 Y-9.3949
N8500 G0 Z0.5006
N8520 G0 Z0.1006
N8530 G98 G81 X4.7594 Y-9.3949 Z-0.01 R0.1 F4.
N8540 X4.757 Y-9.3856
N8550 X4.752 Y-9.3763
N8560 X4.7462 Y-9.3701
N8570 X4.7375 Y-9.3636
N8580 X4.7283 Y-9.3571
N8590 X4.7185 Y-9.3526
N8600 X4.7102 Y-9.3485
N8610 X4.7006 Y-9.3461
N8620 X4.6909 Y-9.3433
N8630 X4.6799 Y-9.3419
N8640 X4.6693 Y-9.3415
N8650 X4.6592
N8660 X4.6486 Y-9.3424
N8670 X4.6375 Y-9.3456
N8680 X4.6279 Y-9.3478
N8690 X4.6184 Y-9.3512
N8700 X4.6096 Y-9.3559
N8710 X4.6012 Y-9.3626
N8720 X4.594 Y-9.3679
N8730 X4.5878 Y-9.375
N8740 X4.5832 Y-9.3852
N8750 X4.5808 Y-9.3945
N8760 X4.5789 Y-9.4043
N8770 X4.5788 Y-9.4142
N8780 X4.5785 Y-9.4239
N8790 Y-9.4335
N8800 X4.5788 Y-9.4423
N8810 X4.5787 Y-9.4498
N8820 X4.5878 Y-9.4494
N8830 X4.597 Y-9.4492
N8840 X4.6066 Y-9.4495
N8850 X4.6164 Y-9.4492
N8860 X4.6283 Y-9.4493
N8870 X4.6394 Y-9.4492
N8880 X4.65 Y-9.4494
N8890 X4.6607 Y-9.4495
N8900 X4.6703 Y-9.4492
N8910 X4.6795 Y-9.4494
N8920 X4.6893
N8930 X4.6991 Y-9.4495
N8940 X4.71 Y-9.4493
N8950 X4.7213 Y-9.4496
N8960 X4.732 Y-9.4493
N8970 X4.7417
N8980 X4.7508
N8990 X4.7609 Y-9.4496
N9000 X4.7611 Y-9.441
N9010 X4.7614 Y-9.4302
N9020 X4.7615 Y-9.4186
N9030 X4.7609 Y-9.4072
N9040 X4.5794 Y-9.5105
N9050 X4.5795 Y-9.5201
N9060 Y-9.5303
N9070 Y-9.5401
N9080 Y-9.551
N9090 X4.5796 Y-9.5629
N9100 X4.5795 Y-9.5745
N9110 Y-9.5837
N9120 Y-9.5934
N9130 X4.5797 Y-9.6032
N9140 X4.5786 Y-9.6122
N9150 X4.5879 Y-9.6123
N9160 X4.597
N9170 X4.6068
N9180 X4.6165 Y-9.6121
N9190 X4.6283 Y-9.6123
N9200 X4.6392 Y-9.6125
N9210 X4.65 Y-9.6122
N9220 X4.6608 Y-9.6121
N9230 X4.6703 Y-9.6124
N9240 X4.6797 Y-9.6123
N9250 X4.6892
N9260 X4.6993 Y-9.6124
N9270 X4.7099 Y-9.6122
N9280 X4.7213 Y-9.6124
N9290 X4.7324 Y-9.6123
N9300 X4.7415 Y-9.6125
N9310 X4.7507
N9320 X4.7607 Y-9.6124
N9330 X4.7593 Y-9.7279
N9340 X4.7563 Y-9.7184
N9350 X4.7518 Y-9.7096
N9360 X4.7462 Y-9.7024
N9370 X4.7375 Y-9.6966
N9380 X4.7287 Y-9.6901
N9390 X4.7185 Y-9.6855
N9400 X4.7103 Y-9.6813
N9410 X4.7006 Y-9.6793
N9420 X4.6911 Y-9.6761
N9430 X4.6802 Y-9.6749
N9440 X4.6698 Y-9.6741
N9450 X4.6586 Y-9.6743
N9460 X4.6488 Y-9.6753
N9470 X4.6374 Y-9.6783
N9480 X4.6279 Y-9.6808
N9490 X4.6186 Y-9.6842
N9500 X4.6096 Y-9.689
N9510 X4.6012 Y-9.6959
N9520 X4.594 Y-9.7014
N9530 X4.5879 Y-9.7079
N9540 X4.5837 Y-9.7183
N9550 X4.5808 Y-9.7276
N9560 X4.5791 Y-9.7374
N9570 X4.5788 Y-9.7473
N9580 X4.5786 Y-9.7566
N9590 X4.5783 Y-9.7669
N9600 X4.5788 Y-9.7749
N9610 Y-9.7827
N9620 X4.5877 Y-9.7826
N9630 X4.5974
N9640 X4.6064
N9650 X4.6162 Y-9.7827
N9660 X4.6283 Y-9.7825
N9670 X4.6393
N9680 X4.6498 Y-9.7826
N9690 X4.6607 Y-9.7827
N9700 X4.6704 Y-9.7825
N9710 X4.6797 Y-9.7827
N9720 X4.6892 Y-9.7826
N9730 X4.6991
N9740 X4.7097 Y-9.7824
N9750 X4.7213 Y-9.7826
N9760 X4.7323
N9770 X4.7415
N9780 X4.7509
N9790 X4.7607
N9800 X4.7611 Y-9.774
N9810 X4.7616 Y-9.7632
N9820 Y-9.7515
N9830 X4.7609 Y-9.7404
N9840 G80
N9850 G0 Z0.5006
N9870 M5 M9

(DRILL1)
N9880 S10000 M3 M8
N9890 G0 X0.9844 Y-9.3982
N9900 G0 Z0.5006
N9920 G0 Z0.1006
N9930 G98 G81 X0.9844 Y-9.3982 Z-0.01 R0.1 F4.
N9940 X0.982 Y-9.3889
N9950 X0.977 Y-9.3796
N9960 X0.9712 Y-9.3733
N9970 X0.9625 Y-9.3669
N9980 X0.9533 Y-9.3604
N9990 X0.9435 Y-9.3559
N10000 X0.9352 Y-9.3518
N10010 X0.9256 Y-9.3494
N10020 X0.9159 Y-9.3466
N10030 X0.9049 Y-9.3452
N10040 X0.8943 Y-9.3447
N10050 X0.8842
N10060 X0.8736 Y-9.3457
N10070 X0.8625 Y-9.3489
N10080 X0.8529 Y-9.3511
N10090 X0.8434 Y-9.3544
N10100 X0.8346 Y-9.3592
N10110 X0.8262 Y-9.3659
N10120 X0.819 Y-9.3712
N10130 X0.8128 Y-9.3783
N10140 X0.8082 Y-9.3885
N10150 X0.8058 Y-9.3978
N10160 X0.8039 Y-9.4076
N10170 X0.8038 Y-9.4175
N10180 X0.8035 Y-9.4272
N10190 Y-9.4368
N10200 X0.8038 Y-9.4456
N10210 X0.8037 Y-9.4531
N10220 X0.8128 Y-9.4527
N10230 X0.822 Y-9.4525
N10240 X0.8316 Y-9.4527
N10250 X0.8414 Y-9.4525
N10260 X0.8533 Y-9.4526
N10270 X0.8644 Y-9.4525
N10280 X0.875 Y-9.4527
N10290 X0.8857 Y-9.4528
N10300 X0.8953 Y-9.4525
N10310 X0.9045 Y-9.4527
N10320 X0.9143
N10330 X0.9241 Y-9.4528
N10340 X0.935 Y-9.4526
N10350 X0.9463 Y-9.4528
N10360 X0.957 Y-9.4526
N10370 X0.9667
N10380 X0.9758
N10390 X0.9859 Y-9.4528
N10400 X0.9861 Y-9.4443
N10410 X0.9864 Y-9.4335
N10420 X0.9865 Y-9.4219
N10430 X0.9859 Y-9.4105
N10440 X0.8044 Y-9.5138
N10450 X0.8045 Y-9.5234
N10460 Y-9.5336
N10470 Y-9.5434
N10480 Y-9.5543
N10490 X0.8046 Y-9.5662
N10500 X0.8045 Y-9.5778
N10510 Y-9.587
N10520 Y-9.5967
N10530 X0.8047 Y-9.6065
N10540 X0.8036 Y-9.6155
N10550 X0.8129 Y-9.6156
N10560 X0.822
N10570 X0.8318
N10580 X0.8415 Y-9.6154
N10590 X0.8533 Y-9.6156
N10600 X0.8642 Y-9.6158
N10610 X0.875 Y-9.6155
N10620 X0.8858 Y-9.6154
N10630 X0.8953 Y-9.6157
N10640 X0.9047 Y-9.6156
N10650 X0.9142
N10660 X0.9243 Y-9.6157
N10670 X0.9349 Y-9.6155
N10680 X0.9463 Y-9.6157
N10690 X0.9574 Y-9.6156
N10700 X0.9665 Y-9.6158
N10710 X0.9757
N10720 X0.9857 Y-9.6157
N10730 X0.9843 Y-9.7312
N10740 X0.9813 Y-9.7217
N10750 X0.9768 Y-9.7128
N10760 X0.9712 Y-9.7057
N10770 X0.9625 Y-9.6998
N10780 X0.9537 Y-9.6934
N10790 X0.9435 Y-9.6888
N10800 X0.9353 Y-9.6846
N10810 X0.9256 Y-9.6826
N10820 X0.9161 Y-9.6794
N10830 X0.9052 Y-9.6782
N10840 X0.8948 Y-9.6774
N10850 X0.8836 Y-9.6776
N10860 X0.8738 Y-9.6786
N10870 X0.8624 Y-9.6816
N10880 X0.8529 Y-9.6841
N10890 X0.8436 Y-9.6875
N10900 X0.8346 Y-9.6923
N10910 X0.8262 Y-9.6992
N10920 X0.819 Y-9.7047
N10930 X0.8129 Y-9.7112
N10940 X0.8087 Y-9.7216
N10950 X0.8058 Y-9.7309
N10960 X0.8041 Y-9.7407
N10970 X0.8038 Y-9.7506
N10980 X0.8036 Y-9.7599
N10990 X0.8033 Y-9.7701
N11000 X0.8038 Y-9.7782
N11010 Y-9.786
N11020 X0.8127 Y-9.7859
N11030 X0.8224
N11040 X0.8314
N11050 X0.8412 Y-9.786
N11060 X0.8533 Y-9.7858
N11070 X0.8643
N11080 X0.8748 Y-9.7859
N11090 X0.8857 Y-9.786
N11100 X0.8954 Y-9.7858
N11110 X0.9047 Y-9.786
N11120 X0.9142 Y-9.7859
N11130 X0.9241
N11140 X0.9347 Y-9.7857
N11150 X0.9463 Y-9.7859
N11160 X0.9573
N11170 X0.9665
N11180 X0.9759
N11190 X0.9857
N11200 X0.9861 Y-9.7773
N11210 X0.9866 Y-9.7664
N11220 Y-9.7548
N11230 X0.9859 Y-9.7437
N11240 G80
N11250 G0 Z0.5006
N11270 M5 M9

N11280 G30
N11290 M30
%
