%
(*************************************)
(* Generated by wtopace for EntityX  *)
(* Date: 3/19/2016                   *)
(*************************************)
(1001)
(PROJECT4-MICH)
(T1  D=0.0039 CR=0. TAPER=118DEG - ZMIN=-0.01 - DRILL)
N10 G90 G54 G64 G50 G17 G40 G80 G94 G91.1 G49
N20 G20 (Inch)
N30 G30

(DRILL2)
N50 G30
N60 T1 G43 H1 M6
N70 S10000 M3 M8
N80 G54
N90 G0 X1.7565 Y-1.751
N100 G0 Z0.1506
N120 G0 Z0.0506
N130 G98 G81 X1.7565 Y-1.751 Z-0.01 R0.05 F4.
N140 X1.7692
N150 X1.7815
N160 X1.7928 Y-1.7506
N170 X1.8052
N180 X1.8182
N190 X1.8295 Y-1.751
N200 X1.8419 Y-1.7516
N210 X1.8532 Y-1.751
N220 X1.8662 Y-1.7513
N230 X1.8792 Y-1.751
N240 X1.8919 Y-1.7513
N250 X1.9043
N260 X1.9153
N270 X1.928
N280 X1.94
N290 X1.9526
N300 X1.9653
N310 X1.8662 Y-1.764
N320 X1.8666 Y-1.7763
N330 Y-1.7883
N340 X1.8669 Y-1.8007
N350 X1.8672 Y-1.8147
N360 Y-1.8257
N370 X1.8669 Y-1.8374
N380 X1.9653 Y-1.8507
N390 X1.952 Y-1.8501
N400 X1.9403
N410 X1.928 Y-1.8494
N420 X1.9163 Y-1.8497
N430 X1.9036
N440 X1.8923 Y-1.8501
N450 X1.8796 Y-1.8497
N460 X1.8669
N470 X1.8549 Y-1.8501
N480 X1.8429
N490 X1.8309
N500 X1.8185 Y-1.8494
N510 X1.8065
N520 X1.7928 Y-1.8504
N530 X1.7698 Y-1.8494
N540 X1.7808 Y-1.8501
N550 X1.7568 Y-1.8497
N560 X1.7641 Y-1.9278
N570 X1.7595 Y-1.9368
N580 X1.7575 Y-1.9498
N590 Y-1.9615
N600 X1.7601 Y-1.9728
N610 X1.7651 Y-1.9842
N620 X1.7728 Y-1.9939
N630 X1.7818 Y-1.9999
N640 X1.7938 Y-2.0065
N650 X1.8055 Y-2.0129
N660 X1.8189 Y-2.0159
N670 X1.8292 Y-2.0192
N680 X1.8409 Y-2.0202
N690 X1.8539 Y-2.0209
N700 X1.8656 Y-2.0215
N710 X1.8779 Y-2.0212
N720 X1.8896 Y-2.0199
N730 X1.9016 Y-2.0182
N740 X1.9139 Y-2.0162
N750 X1.9263 Y-2.0122
N760 X1.9366 Y-2.0085
N770 X1.9473 Y-2.0012
N780 X1.9563 Y-1.9942
N790 X1.9657 Y-1.9848
N800 X1.9707 Y-1.9728
N810 X1.973 Y-1.9612
N820 X1.9727 Y-1.9488
N830 X1.9717 Y-1.9378
N840 X1.965 Y-1.9268
N850 X1.7591 Y-2.0986
N860 X1.7708 Y-2.0989
N870 X1.7838 Y-2.0993
N880 X1.7965 Y-2.0989
N890 X1.8085 Y-2.0996
N900 X1.8199
N910 X1.8332 Y-2.0999
N920 X1.8449 Y-2.1006
N930 X1.8559 Y-2.0999
N940 X1.8689
N950 X1.8816 Y-2.0996
N960 X1.8939 Y-2.1003
N970 X1.9063 Y-2.0996
N980 X1.9183 Y-2.0999
N990 X1.9293 Y-2.1006
N1000 X1.943 Y-2.1003
N1010 X1.9546 Y-2.0996
N1020 X1.967 Y-2.0999
N1030 X1.7581 Y-2.1777
N1040 X1.7702 Y-2.177
N1050 X1.7825
N1060 X1.7945 Y-2.1773
N1070 X1.8085 Y-2.178
N1080 X1.8199 Y-2.1773
N1090 X1.8309 Y-2.178
N1100 X1.8439 Y-2.1777
N1110 X1.8546
N1120 X1.8689
N1130 X1.8809 Y-2.1783
N1140 X1.8929 Y-2.1777
N1150 X1.9049 Y-2.178
N1160 X1.9163
N1170 X1.9286
N1180 X1.941 Y-2.1777
N1190 X1.954 Y-2.1783
N1200 X1.966 Y-2.1777
N1210 X1.9583 Y-2.187
N1220 X1.946 Y-2.1917
N1230 X1.9346 Y-2.1964
N1240 X1.923 Y-2.1997
N1250 X1.9116 Y-2.204
N1260 X1.9009 Y-2.2087
N1270 X1.8886 Y-2.2127
N1280 X1.8772 Y-2.2174
N1290 X1.8669 Y-2.2211
N1300 X1.8546 Y-2.2247
N1310 X1.8429 Y-2.2304
N1320 X1.8319 Y-2.2334
N1330 X1.8222 Y-2.2411
N1340 X1.8329 Y-2.2464
N1350 X1.8439 Y-2.2501
N1360 X1.8556 Y-2.2541
N1370 X1.8672 Y-2.2598
N1380 X1.8789 Y-2.2638
N1390 X1.8896 Y-2.2688
N1400 X1.9006 Y-2.2721
N1410 X1.9123 Y-2.2764
N1420 X1.9233 Y-2.2814
N1430 X1.9353 Y-2.2858
N1440 X1.9587 Y-2.2941
N1450 X1.947 Y-2.2901
N1460 X1.9677 Y-2.3038
N1470 X1.9546
N1480 X1.9416 Y-2.3031
N1490 X1.93 Y-2.3035
N1500 X1.9176 Y-2.3028
N1510 X1.9053 Y-2.3035
N1520 X1.8943 Y-2.3031
N1530 X1.8813 Y-2.3035
N1540 X1.8699 Y-2.3028
N1550 X1.8566 Y-2.3038
N1560 X1.8442 Y-2.3028
N1570 X1.8325 Y-2.3031
N1580 X1.8212
N1590 X1.8089 Y-2.3038
N1600 X1.7955 Y-2.3028
N1610 X1.7842
N1620 X1.7718 Y-2.3031
N1630 X1.7588 Y-2.3028
N1640 G80
N1650 G0 Z0.1506
N1670 M5 M9

(DRILL2)
N1680 S10000 M3 M8
N1690 G0 X5.5296 Y-1.7509
N1700 G0 Z0.1506
N1720 G0 Z0.0506
N1730 G98 G81 X5.5296 Y-1.7509 Z-0.01 R0.05 F4.
N1740 X5.5423
N1750 X5.5547
N1760 X5.566 Y-1.7505
N1770 X5.5784
N1780 X5.5914
N1790 X5.6027 Y-1.7509
N1800 X5.6151 Y-1.7515
N1810 X5.6264 Y-1.7509
N1820 X5.6394 Y-1.7512
N1830 X5.6524 Y-1.7509
N1840 X5.6651 Y-1.7512
N1850 X5.6774
N1860 X5.6884
N1870 X5.7011
N1880 X5.7131
N1890 X5.7258
N1900 X5.7385
N1910 X5.6394 Y-1.7639
N1920 X5.6397 Y-1.7762
N1930 Y-1.7882
N1940 X5.6401 Y-1.8006
N1950 X5.6404 Y-1.8146
N1960 Y-1.8256
N1970 X5.6401 Y-1.8373
N1980 X5.7385 Y-1.8506
N1990 X5.7251 Y-1.85
N2000 X5.7135
N2010 X5.7011 Y-1.8493
N2020 X5.6894 Y-1.8496
N2030 X5.6768
N2040 X5.6654 Y-1.85
N2050 X5.6528 Y-1.8496
N2060 X5.6401
N2070 X5.6281 Y-1.85
N2080 X5.6161
N2090 X5.604
N2100 X5.5917 Y-1.8493
N2110 X5.5797
N2120 X5.566 Y-1.8503
N2130 X5.543 Y-1.8493
N2140 X5.554 Y-1.85
N2150 X5.53 Y-1.8496
N2160 X5.5373 Y-1.9277
N2170 X5.5326 Y-1.9367
N2180 X5.5306 Y-1.9497
N2190 Y-1.9614
N2200 X5.5333 Y-1.9727
N2210 X5.5383 Y-1.9841
N2220 X5.546 Y-1.9937
N2230 X5.555 Y-1.9998
N2240 X5.567 Y-2.0064
N2250 X5.5787 Y-2.0128
N2260 X5.592 Y-2.0158
N2270 X5.6024 Y-2.0191
N2280 X5.614 Y-2.0201
N2290 X5.6271 Y-2.0208
N2300 X5.6387 Y-2.0214
N2310 X5.6511 Y-2.0211
N2320 X5.6628 Y-2.0198
N2330 X5.6748 Y-2.0181
N2340 X5.6871 Y-2.0161
N2350 X5.6995 Y-2.0121
N2360 X5.7098 Y-2.0084
N2370 X5.7205 Y-2.0011
N2380 X5.7295 Y-1.9941
N2390 X5.7388 Y-1.9847
N2400 X5.7438 Y-1.9727
N2410 X5.7462 Y-1.961
N2420 X5.7458 Y-1.9487
N2430 X5.7448 Y-1.9377
N2440 X5.7382 Y-1.9267
N2450 X5.5323 Y-2.0985
N2460 X5.544 Y-2.0988
N2470 X5.557 Y-2.0992
N2480 X5.5697 Y-2.0988
N2490 X5.5817 Y-2.0995
N2500 X5.593
N2510 X5.6064 Y-2.0998
N2520 X5.6181 Y-2.1005
N2530 X5.6291 Y-2.0998
N2540 X5.6421
N2550 X5.6548 Y-2.0995
N2560 X5.6671 Y-2.1002
N2570 X5.6794 Y-2.0995
N2580 X5.6915 Y-2.0998
N2590 X5.7025 Y-2.1005
N2600 X5.7161 Y-2.1002
N2610 X5.7278 Y-2.0995
N2620 X5.7402 Y-2.0998
N2630 X5.5313 Y-2.1776
N2640 X5.5433 Y-2.1769
N2650 X5.5557
N2660 X5.5677 Y-2.1772
N2670 X5.5817 Y-2.1779
N2680 X5.593 Y-2.1772
N2690 X5.604 Y-2.1779
N2700 X5.6171 Y-2.1776
N2710 X5.6277
N2720 X5.6421
N2730 X5.6541 Y-2.1782
N2740 X5.6661 Y-2.1776
N2750 X5.6781 Y-2.1779
N2760 X5.6894
N2770 X5.7018
N2780 X5.7141 Y-2.1776
N2790 X5.7271 Y-2.1782
N2800 X5.7392 Y-2.1776
N2810 X5.7315 Y-2.1869
N2820 X5.7191 Y-2.1916
N2830 X5.7078 Y-2.1963
N2840 X5.6961 Y-2.1996
N2850 X5.6848 Y-2.2039
N2860 X5.6741 Y-2.2086
N2870 X5.6618 Y-2.2126
N2880 X5.6504 Y-2.2173
N2890 X5.6401 Y-2.2209
N2900 X5.6277 Y-2.2246
N2910 X5.6161 Y-2.2303
N2920 X5.605 Y-2.2333
N2930 X5.5954 Y-2.241
N2940 X5.606 Y-2.2463
N2950 X5.6171 Y-2.25
N2960 X5.6287 Y-2.254
N2970 X5.6404 Y-2.2596
N2980 X5.6521 Y-2.2636
N2990 X5.6628 Y-2.2687
N3000 X5.6738 Y-2.272
N3010 X5.6854 Y-2.2763
N3020 X5.6965 Y-2.2813
N3030 X5.7085 Y-2.2857
N3040 X5.7318 Y-2.294
N3050 X5.7201 Y-2.29
N3060 X5.7408 Y-2.3037
N3070 X5.7278
N3080 X5.7148 Y-2.303
N3090 X5.7031 Y-2.3033
N3100 X5.6908 Y-2.3027
N3110 X5.6784 Y-2.3033
N3120 X5.6674 Y-2.303
N3130 X5.6544 Y-2.3033
N3140 X5.6431 Y-2.3027
N3150 X5.6297 Y-2.3037
N3160 X5.6174 Y-2.3027
N3170 X5.6057 Y-2.303
N3180 X5.5944
N3190 X5.582 Y-2.3037
N3200 X5.5687 Y-2.3027
N3210 X5.5573
N3220 X5.545 Y-2.303
N3230 X5.532 Y-2.3027
N3240 G80
N3250 G0 Z0.1506
N3270 M5 M9

(DRILL2)
N3280 S10000 M3 M8
N3290 G0 X5.5294 Y-4.2508
N3300 G0 Z0.1506
N3320 G0 Z0.0506
N3330 G98 G81 X5.5294 Y-4.2508 Z-0.01 R0.05 F4.
N3340 X5.5421
N3350 X5.5544
N3360 X5.5657 Y-4.2504
N3370 X5.5781
N3380 X5.5911
N3390 X5.6024 Y-4.2508
N3400 X5.6148 Y-4.2514
N3410 X5.6261 Y-4.2508
N3420 X5.6391 Y-4.2511
N3430 X5.6522 Y-4.2508
N3440 X5.6648 Y-4.2511
N3450 X5.6772
N3460 X5.6882
N3470 X5.7009
N3480 X5.7129
N3490 X5.7256
N3500 X5.7382
N3510 X5.6391 Y-4.2638
N3520 X5.6395 Y-4.2761
N3530 Y-4.2881
N3540 X5.6398 Y-4.3005
N3550 X5.6401 Y-4.3145
N3560 Y-4.3255
N3570 X5.6398 Y-4.3372
N3580 X5.7382 Y-4.3505
N3590 X5.7249 Y-4.3498
N3600 X5.7132
N3610 X5.7009 Y-4.3492
N3620 X5.6892 Y-4.3495
N3630 X5.6765
N3640 X5.6652 Y-4.3498
N3650 X5.6525 Y-4.3495
N3660 X5.6398
N3670 X5.6278 Y-4.3498
N3680 X5.6158
N3690 X5.6038
N3700 X5.5914 Y-4.3492
N3710 X5.5794
N3720 X5.5657 Y-4.3502
N3730 X5.5427 Y-4.3492
N3740 X5.5537 Y-4.3498
N3750 X5.5297 Y-4.3495
N3760 X5.5371 Y-4.4276
N3770 X5.5324 Y-4.4366
N3780 X5.5304 Y-4.4496
N3790 Y-4.4613
N3800 X5.5331 Y-4.4726
N3810 X5.5381 Y-4.484
N3820 X5.5457 Y-4.4936
N3830 X5.5547 Y-4.4996
N3840 X5.5667 Y-4.5063
N3850 X5.5784 Y-4.5126
N3860 X5.5918 Y-4.5157
N3870 X5.6021 Y-4.519
N3880 X5.6138 Y-4.52
N3890 X5.6268 Y-4.5207
N3900 X5.6385 Y-4.5213
N3910 X5.6508 Y-4.521
N3920 X5.6625 Y-4.5197
N3930 X5.6745 Y-4.518
N3940 X5.6869 Y-4.516
N3950 X5.6992 Y-4.512
N3960 X5.7095 Y-4.5083
N3970 X5.7202 Y-4.501
N3980 X5.7292 Y-4.494
N3990 X5.7386 Y-4.4846
N4000 X5.7436 Y-4.4726
N4010 X5.7459 Y-4.4609
N4020 X5.7456 Y-4.4486
N4030 X5.7446 Y-4.4376
N4040 X5.7379 Y-4.4266
N4050 X5.5321 Y-4.5984
N4060 X5.5437 Y-4.5987
N4070 X5.5567 Y-4.5991
N4080 X5.5694 Y-4.5987
N4090 X5.5814 Y-4.5994
N4100 X5.5928
N4110 X5.6061 Y-4.5997
N4120 X5.6178 Y-4.6004
N4130 X5.6288 Y-4.5997
N4140 X5.6418
N4150 X5.6545 Y-4.5994
N4160 X5.6668 Y-4.6001
N4170 X5.6792 Y-4.5994
N4180 X5.6912 Y-4.5997
N4190 X5.7022 Y-4.6004
N4200 X5.7159 Y-4.6001
N4210 X5.7276 Y-4.5994
N4220 X5.7399 Y-4.5997
N4230 X5.5311 Y-4.6775
N4240 X5.5431 Y-4.6768
N4250 X5.5554
N4260 X5.5674 Y-4.6771
N4270 X5.5814 Y-4.6778
N4280 X5.5928 Y-4.6771
N4290 X5.6038 Y-4.6778
N4300 X5.6168 Y-4.6775
N4310 X5.6275
N4320 X5.6418
N4330 X5.6538 Y-4.6781
N4340 X5.6658 Y-4.6775
N4350 X5.6778 Y-4.6778
N4360 X5.6892
N4370 X5.7015
N4380 X5.7139 Y-4.6775
N4390 X5.7269 Y-4.6781
N4400 X5.7389 Y-4.6775
N4410 X5.7312 Y-4.6868
N4420 X5.7189 Y-4.6915
N4430 X5.7075 Y-4.6961
N4440 X5.6959 Y-4.6995
N4450 X5.6845 Y-4.7038
N4460 X5.6738 Y-4.7085
N4470 X5.6615 Y-4.7125
N4480 X5.6502 Y-4.7172
N4490 X5.6398 Y-4.7208
N4500 X5.6275 Y-4.7245
N4510 X5.6158 Y-4.7302
N4520 X5.6048 Y-4.7332
N4530 X5.5951 Y-4.7408
N4540 X5.6058 Y-4.7462
N4550 X5.6168 Y-4.7499
N4560 X5.6285 Y-4.7539
N4570 X5.6401 Y-4.7595
N4580 X5.6518 Y-4.7635
N4590 X5.6625 Y-4.7685
N4600 X5.6735 Y-4.7719
N4610 X5.6852 Y-4.7762
N4620 X5.6962 Y-4.7812
N4630 X5.7082 Y-4.7856
N4640 X5.7316 Y-4.7939
N4650 X5.7199 Y-4.7899
N4660 X5.7406 Y-4.8036
N4670 X5.7276
N4680 X5.7145 Y-4.8029
N4690 X5.7029 Y-4.8032
N4700 X5.6905 Y-4.8026
N4710 X5.6782 Y-4.8032
N4720 X5.6672 Y-4.8029
N4730 X5.6542 Y-4.8032
N4740 X5.6428 Y-4.8026
N4750 X5.6295 Y-4.8036
N4760 X5.6171 Y-4.8026
N4770 X5.6054 Y-4.8029
N4780 X5.5941
N4790 X5.5818 Y-4.8036
N4800 X5.5684 Y-4.8026
N4810 X5.5571
N4820 X5.5447 Y-4.8029
N4830 X5.5317 Y-4.8026
N4840 G80
N4850 G0 Z0.1506
N4870 M5 M9

(DRILL2)
N4880 S10000 M3 M8
N4890 G0 X1.7572 Y-4.2508
N4900 G0 Z0.1506
N4920 G0 Z0.0506
N4930 G98 G81 X1.7572 Y-4.2508 Z-0.01 R0.05 F4.
N4940 X1.7699
N4950 X1.7822
N4960 X1.7936 Y-4.2504
N4970 X1.8059
N4980 X1.8189
N4990 X1.8303 Y-4.2508
N5000 X1.8426 Y-4.2514
N5010 X1.854 Y-4.2508
N5020 X1.867 Y-4.2511
N5030 X1.88 Y-4.2508
N5040 X1.8927 Y-4.2511
N5050 X1.905
N5060 X1.916
N5070 X1.9287
N5080 X1.9407
N5090 X1.9534
N5100 X1.9661
N5110 X1.867 Y-4.2638
N5120 X1.8673 Y-4.2761
N5130 Y-4.2881
N5140 X1.8677 Y-4.3005
N5150 X1.868 Y-4.3145
N5160 Y-4.3255
N5170 X1.8677 Y-4.3372
N5180 X1.9661 Y-4.3505
N5190 X1.9527 Y-4.3498
N5200 X1.941
N5210 X1.9287 Y-4.3492
N5220 X1.917 Y-4.3495
N5230 X1.9044
N5240 X1.893 Y-4.3498
N5250 X1.8803 Y-4.3495
N5260 X1.8677
N5270 X1.8556 Y-4.3498
N5280 X1.8436
N5290 X1.8316
N5300 X1.8193 Y-4.3492
N5310 X1.8073
N5320 X1.7936 Y-4.3502
N5330 X1.7706 Y-4.3492
N5340 X1.7816 Y-4.3498
N5350 X1.7576 Y-4.3495
N5360 X1.7649 Y-4.4276
N5370 X1.7602 Y-4.4366
N5380 X1.7582 Y-4.4496
N5390 Y-4.4613
N5400 X1.7609 Y-4.4726
N5410 X1.7659 Y-4.484
N5420 X1.7736 Y-4.4936
N5430 X1.7826 Y-4.4996
N5440 X1.7946 Y-4.5063
N5450 X1.8063 Y-4.5126
N5460 X1.8196 Y-4.5157
N5470 X1.83 Y-4.519
N5480 X1.8416 Y-4.52
N5490 X1.8546 Y-4.5207
N5500 X1.8663 Y-4.5213
N5510 X1.8787 Y-4.521
N5520 X1.8903 Y-4.5197
N5530 X1.9023 Y-4.518
N5540 X1.9147 Y-4.516
N5550 X1.927 Y-4.512
N5560 X1.9374 Y-4.5083
N5570 X1.9481 Y-4.501
N5580 X1.9571 Y-4.494
N5590 X1.9664 Y-4.4846
N5600 X1.9714 Y-4.4726
N5610 X1.9737 Y-4.4609
N5620 X1.9734 Y-4.4486
N5630 X1.9724 Y-4.4376
N5640 X1.9657 Y-4.4266
N5650 X1.7599 Y-4.5984
N5660 X1.7716 Y-4.5987
N5670 X1.7846 Y-4.5991
N5680 X1.7973 Y-4.5987
N5690 X1.8093 Y-4.5994
N5700 X1.8206
N5710 X1.834 Y-4.5997
N5720 X1.8456 Y-4.6004
N5730 X1.8566 Y-4.5997
N5740 X1.8697
N5750 X1.8823 Y-4.5994
N5760 X1.8947 Y-4.6001
N5770 X1.907 Y-4.5994
N5780 X1.919 Y-4.5997
N5790 X1.93 Y-4.6004
N5800 X1.9437 Y-4.6001
N5810 X1.9554 Y-4.5994
N5820 X1.9677 Y-4.5997
N5830 X1.7589 Y-4.6775
N5840 X1.7709 Y-4.6768
N5850 X1.7832
N5860 X1.7953 Y-4.6771
N5870 X1.8093 Y-4.6778
N5880 X1.8206 Y-4.6771
N5890 X1.8316 Y-4.6778
N5900 X1.8446 Y-4.6775
N5910 X1.8553
N5920 X1.8697
N5930 X1.8817 Y-4.6781
N5940 X1.8937 Y-4.6775
N5950 X1.9057 Y-4.6778
N5960 X1.917
N5970 X1.9294
N5980 X1.9417 Y-4.6775
N5990 X1.9547 Y-4.6781
N6000 X1.9667 Y-4.6775
N6010 X1.9591 Y-4.6868
N6020 X1.9467 Y-4.6915
N6030 X1.9354 Y-4.6961
N6040 X1.9237 Y-4.6995
N6050 X1.9124 Y-4.7038
N6060 X1.9017 Y-4.7085
N6070 X1.8893 Y-4.7125
N6080 X1.878 Y-4.7172
N6090 X1.8677 Y-4.7208
N6100 X1.8553 Y-4.7245
N6110 X1.8436 Y-4.7302
N6120 X1.8326 Y-4.7332
N6130 X1.8229 Y-4.7408
N6140 X1.8336 Y-4.7462
N6150 X1.8446 Y-4.7499
N6160 X1.8563 Y-4.7539
N6170 X1.868 Y-4.7595
N6180 X1.8797 Y-4.7635
N6190 X1.8903 Y-4.7685
N6200 X1.9013 Y-4.7719
N6210 X1.913 Y-4.7762
N6220 X1.924 Y-4.7812
N6230 X1.936 Y-4.7856
N6240 X1.9594 Y-4.7939
N6250 X1.9477 Y-4.7899
N6260 X1.9684 Y-4.8036
N6270 X1.9554
N6280 X1.9424 Y-4.8029
N6290 X1.9307 Y-4.8032
N6300 X1.9184 Y-4.8026
N6310 X1.906 Y-4.8032
N6320 X1.895 Y-4.8029
N6330 X1.882 Y-4.8032
N6340 X1.8707 Y-4.8026
N6350 X1.8573 Y-4.8036
N6360 X1.845 Y-4.8026
N6370 X1.8333 Y-4.8029
N6380 X1.8219
N6390 X1.8096 Y-4.8036
N6400 X1.7963 Y-4.8026
N6410 X1.7849
N6420 X1.7726 Y-4.8029
N6430 X1.7596 Y-4.8026
N6440 G80
N6450 G0 Z0.1506
N6470 M5 M9

(DRILL2)
N6480 S10000 M3 M8
N6490 G0 X1.7583 Y-6.7487
N6500 G0 Z0.1506
N6520 G0 Z0.0506
N6530 G98 G81 X1.7583 Y-6.7487 Z-0.01 R0.05 F4.
N6540 X1.7709
N6550 X1.7833
N6560 X1.7946 Y-6.7484
N6570 X1.807
N6580 X1.82
N6590 X1.8313 Y-6.7487
N6600 X1.8437 Y-6.7494
N6610 X1.855 Y-6.7487
N6620 X1.868 Y-6.7491
N6630 X1.881 Y-6.7487
N6640 X1.8937 Y-6.7491
N6650 X1.9061
N6660 X1.9171
N6670 X1.9297
N6680 X1.9418
N6690 X1.9544
N6700 X1.9671
N6710 X1.868 Y-6.7618
N6720 X1.8684 Y-6.7741
N6730 Y-6.7861
N6740 X1.8687 Y-6.7985
N6750 X1.869 Y-6.8125
N6760 Y-6.8235
N6770 X1.8687 Y-6.8352
N6780 X1.9671 Y-6.8485
N6790 X1.9538 Y-6.8478
N6800 X1.9421
N6810 X1.9297 Y-6.8472
N6820 X1.9181 Y-6.8475
N6830 X1.9054
N6840 X1.894 Y-6.8478
N6850 X1.8814 Y-6.8475
N6860 X1.8687
N6870 X1.8567 Y-6.8478
N6880 X1.8447
N6890 X1.8327
N6900 X1.8203 Y-6.8472
N6910 X1.8083
N6920 X1.7946 Y-6.8482
N6930 X1.7716 Y-6.8472
N6940 X1.7826 Y-6.8478
N6950 X1.7586 Y-6.8475
N6960 X1.7659 Y-6.9256
N6970 X1.7613 Y-6.9346
N6980 X1.7593 Y-6.9476
N6990 Y-6.9593
N7000 X1.7619 Y-6.9706
N7010 X1.7669 Y-6.982
N7020 X1.7746 Y-6.9916
N7030 X1.7836 Y-6.9976
N7040 X1.7956 Y-7.0043
N7050 X1.8073 Y-7.0106
N7060 X1.8206 Y-7.0136
N7070 X1.831 Y-7.017
N7080 X1.8427 Y-7.018
N7090 X1.8557 Y-7.0187
N7100 X1.8674 Y-7.0193
N7110 X1.8797 Y-7.019
N7120 X1.8914 Y-7.0177
N7130 X1.9034 Y-7.016
N7140 X1.9157 Y-7.014
N7150 X1.9281 Y-7.01
N7160 X1.9384 Y-7.0063
N7170 X1.9491 Y-6.999
N7180 X1.9581 Y-6.992
N7190 X1.9674 Y-6.9826
N7200 X1.9724 Y-6.9706
N7210 X1.9748 Y-6.9589
N7220 X1.9744 Y-6.9466
N7230 X1.9734 Y-6.9356
N7240 X1.9668 Y-6.9246
N7250 X1.7609 Y-7.0964
N7260 X1.7726 Y-7.0967
N7270 X1.7856 Y-7.0971
N7280 X1.7983 Y-7.0967
N7290 X1.8103 Y-7.0974
N7300 X1.8216
N7310 X1.835 Y-7.0977
N7320 X1.8467 Y-7.0984
N7330 X1.8577 Y-7.0977
N7340 X1.8707
N7350 X1.8834 Y-7.0974
N7360 X1.8957 Y-7.0981
N7370 X1.9081 Y-7.0974
N7380 X1.9201 Y-7.0977
N7390 X1.9311 Y-7.0984
N7400 X1.9448 Y-7.0981
N7410 X1.9564 Y-7.0974
N7420 X1.9688 Y-7.0977
N7430 X1.7599 Y-7.1755
N7440 X1.7719 Y-7.1748
N7450 X1.7843
N7460 X1.7963 Y-7.1751
N7470 X1.8103 Y-7.1758
N7480 X1.8216 Y-7.1751
N7490 X1.8327 Y-7.1758
N7500 X1.8457 Y-7.1755
N7510 X1.8563
N7520 X1.8707
N7530 X1.8827 Y-7.1761
N7540 X1.8947 Y-7.1755
N7550 X1.9067 Y-7.1758
N7560 X1.9181
N7570 X1.9304
N7580 X1.9428 Y-7.1755
N7590 X1.9558 Y-7.1761
N7600 X1.9678 Y-7.1755
N7610 X1.9601 Y-7.1848
N7620 X1.9478 Y-7.1895
N7630 X1.9364 Y-7.1941
N7640 X1.9247 Y-7.1975
N7650 X1.9134 Y-7.2018
N7660 X1.9027 Y-7.2065
N7670 X1.8904 Y-7.2105
N7680 X1.879 Y-7.2152
N7690 X1.8687 Y-7.2188
N7700 X1.8563 Y-7.2225
N7710 X1.8447 Y-7.2282
N7720 X1.8337 Y-7.2312
N7730 X1.824 Y-7.2388
N7740 X1.8347 Y-7.2442
N7750 X1.8457 Y-7.2479
N7760 X1.8573 Y-7.2519
N7770 X1.869 Y-7.2575
N7780 X1.8807 Y-7.2615
N7790 X1.8914 Y-7.2665
N7800 X1.9024 Y-7.2699
N7810 X1.9141 Y-7.2742
N7820 X1.9251 Y-7.2792
N7830 X1.9371 Y-7.2836
N7840 X1.9604 Y-7.2919
N7850 X1.9488 Y-7.2879
N7860 X1.9694 Y-7.3016
N7870 X1.9564
N7880 X1.9434 Y-7.3009
N7890 X1.9317 Y-7.3012
N7900 X1.9194 Y-7.3006
N7910 X1.9071 Y-7.3012
N7920 X1.896 Y-7.3009
N7930 X1.883 Y-7.3012
N7940 X1.8717 Y-7.3006
N7950 X1.8583 Y-7.3016
N7960 X1.846 Y-7.3006
N7970 X1.8343 Y-7.3009
N7980 X1.823
N7990 X1.8106 Y-7.3016
N8000 X1.7973 Y-7.3006
N8010 X1.7859
N8020 X1.7736 Y-7.3009
N8030 X1.7606 Y-7.3006
N8040 G80
N8050 G0 Z0.1506
N8070 M5 M9

(DRILL2)
N8080 S10000 M3 M8
N8090 G0 X5.5309 Y-6.7485
N8100 G0 Z0.1506
N8120 G0 Z0.0506
N8130 G98 G81 X5.5309 Y-6.7485 Z-0.01 R0.05 F4.
N8140 X5.5436
N8150 X5.5559
N8160 X5.5673 Y-6.7482
N8170 X5.5796
N8180 X5.5926
N8190 X5.604 Y-6.7485
N8200 X5.6163 Y-6.7492
N8210 X5.6276 Y-6.7485
N8220 X5.6407 Y-6.7489
N8230 X5.6537 Y-6.7485
N8240 X5.6663 Y-6.7489
N8250 X5.6787
N8260 X5.6897
N8270 X5.7024
N8280 X5.7144
N8290 X5.7271
N8300 X5.7397
N8310 X5.6407 Y-6.7615
N8320 X5.641 Y-6.7739
N8330 Y-6.7859
N8340 X5.6413 Y-6.7982
N8350 X5.6417 Y-6.8122
N8360 Y-6.8233
N8370 X5.6413 Y-6.8349
N8380 X5.7397 Y-6.8483
N8390 X5.7264 Y-6.8476
N8400 X5.7147
N8410 X5.7024 Y-6.8469
N8420 X5.6907 Y-6.8473
N8430 X5.678
N8440 X5.6667 Y-6.8476
N8450 X5.654 Y-6.8473
N8460 X5.6413
N8470 X5.6293 Y-6.8476
N8480 X5.6173
N8490 X5.6053
N8500 X5.5929 Y-6.8469
N8510 X5.5809
N8520 X5.5673 Y-6.8479
N8530 X5.5442 Y-6.8469
N8540 X5.5552 Y-6.8476
N8550 X5.5312 Y-6.8473
N8560 X5.5386 Y-6.9253
N8570 X5.5339 Y-6.9343
N8580 X5.5319 Y-6.9474
N8590 Y-6.959
N8600 X5.5346 Y-6.9704
N8610 X5.5396 Y-6.9817
N8620 X5.5472 Y-6.9914
N8630 X5.5562 Y-6.9974
N8640 X5.5683 Y-7.0041
N8650 X5.5799 Y-7.0104
N8660 X5.5933 Y-7.0134
N8670 X5.6036 Y-7.0168
N8680 X5.6153 Y-7.0178
N8690 X5.6283 Y-7.0184
N8700 X5.64 Y-7.0191
N8710 X5.6523 Y-7.0188
N8720 X5.664 Y-7.0174
N8730 X5.676 Y-7.0158
N8740 X5.6884 Y-7.0138
N8750 X5.7007 Y-7.0097
N8760 X5.711 Y-7.0061
N8770 X5.7217 Y-6.9987
N8780 X5.7307 Y-6.9917
N8790 X5.7401 Y-6.9824
N8800 X5.7451 Y-6.9704
N8810 X5.7474 Y-6.9587
N8820 X5.7471 Y-6.9464
N8830 X5.7461 Y-6.9354
N8840 X5.7394 Y-6.9243
N8850 X5.5336 Y-7.0962
N8860 X5.5452 Y-7.0965
N8870 X5.5582 Y-7.0968
N8880 X5.5709 Y-7.0965
N8890 X5.5829 Y-7.0972
N8900 X5.5943
N8910 X5.6076 Y-7.0975
N8920 X5.6193 Y-7.0982
N8930 X5.6303 Y-7.0975
N8940 X5.6433
N8950 X5.656 Y-7.0972
N8960 X5.6683 Y-7.0978
N8970 X5.6807 Y-7.0972
N8980 X5.6927 Y-7.0975
N8990 X5.7037 Y-7.0982
N9000 X5.7174 Y-7.0978
N9010 X5.7291 Y-7.0972
N9020 X5.7414 Y-7.0975
N9030 X5.5326 Y-7.1752
N9040 X5.5446 Y-7.1746
N9050 X5.5569
N9060 X5.5689 Y-7.1749
N9070 X5.5829 Y-7.1756
N9080 X5.5943 Y-7.1749
N9090 X5.6053 Y-7.1756
N9100 X5.6183 Y-7.1752
N9110 X5.629
N9120 X5.6433
N9130 X5.6553 Y-7.1759
N9140 X5.6673 Y-7.1752
N9150 X5.6794 Y-7.1756
N9160 X5.6907
N9170 X5.703
N9180 X5.7154 Y-7.1752
N9190 X5.7284 Y-7.1759
N9200 X5.7404 Y-7.1752
N9210 X5.7327 Y-7.1846
N9220 X5.7204 Y-7.1892
N9230 X5.709 Y-7.1939
N9240 X5.6974 Y-7.1972
N9250 X5.686 Y-7.2016
N9260 X5.6754 Y-7.2063
N9270 X5.663 Y-7.2103
N9280 X5.6517 Y-7.2149
N9290 X5.6413 Y-7.2186
N9300 X5.629 Y-7.2223
N9310 X5.6173 Y-7.2279
N9320 X5.6063 Y-7.2309
N9330 X5.5966 Y-7.2386
N9340 X5.6073 Y-7.244
N9350 X5.6183 Y-7.2476
N9360 X5.63 Y-7.2516
N9370 X5.6417 Y-7.2573
N9380 X5.6533 Y-7.2613
N9390 X5.664 Y-7.2663
N9400 X5.675 Y-7.2696
N9410 X5.6867 Y-7.274
N9420 X5.6977 Y-7.279
N9430 X5.7097 Y-7.2833
N9440 X5.7331 Y-7.2917
N9450 X5.7214 Y-7.2877
N9460 X5.7421 Y-7.3013
N9470 X5.7291
N9480 X5.7161 Y-7.3007
N9490 X5.7044 Y-7.301
N9500 X5.692 Y-7.3003
N9510 X5.6797 Y-7.301
N9520 X5.6687 Y-7.3007
N9530 X5.6557 Y-7.301
N9540 X5.6443 Y-7.3003
N9550 X5.631 Y-7.3013
N9560 X5.6186 Y-7.3003
N9570 X5.607 Y-7.3007
N9580 X5.5956
N9590 X5.5833 Y-7.3013
N9600 X5.5699 Y-7.3003
N9610 X5.5586
N9620 X5.5462 Y-7.3007
N9630 X5.5332 Y-7.3003
N9640 G80
N9650 G0 Z0.1506
N9670 M5 M9

(DRILL2)
N9680 S10000 M3 M8
N9690 G0 X5.5309 Y-9.2485
N9700 G0 Z0.1506
N9720 G0 Z0.0506
N9730 G98 G81 X5.5309 Y-9.2485 Z-0.01 R0.05 F4.
N9740 X5.5436
N9750 X5.556
N9760 X5.5673 Y-9.2481
N9770 X5.5796
N9780 X5.5927
N9790 X5.604 Y-9.2485
N9800 X5.6163 Y-9.2491
N9810 X5.6277 Y-9.2485
N9820 X5.6407 Y-9.2488
N9830 X5.6537 Y-9.2485
N9840 X5.6664 Y-9.2488
N9850 X5.6787
N9860 X5.6897
N9870 X5.7024
N9880 X5.7144
N9890 X5.7271
N9900 X5.7398
N9910 X5.6407 Y-9.2615
N9920 X5.641 Y-9.2738
N9930 Y-9.2858
N9940 X5.6414 Y-9.2982
N9950 X5.6417 Y-9.3122
N9960 Y-9.3232
N9970 X5.6414 Y-9.3349
N9980 X5.7398 Y-9.3482
N9990 X5.7264 Y-9.3475
N10000 X5.7148
N10010 X5.7024 Y-9.3469
N10020 X5.6907 Y-9.3472
N10030 X5.6781
N10040 X5.6667 Y-9.3475
N10050 X5.654 Y-9.3472
N10060 X5.6414
N10070 X5.6294 Y-9.3475
N10080 X5.6173
N10090 X5.6053
N10100 X5.593 Y-9.3469
N10110 X5.581
N10120 X5.5673 Y-9.3479
N10130 X5.5443 Y-9.3469
N10140 X5.5553 Y-9.3475
N10150 X5.5313 Y-9.3472
N10160 X5.5386 Y-9.4253
N10170 X5.5339 Y-9.4343
N10180 X5.5319 Y-9.4473
N10190 Y-9.459
N10200 X5.5346 Y-9.4703
N10210 X5.5396 Y-9.4817
N10220 X5.5473 Y-9.4913
N10230 X5.5563 Y-9.4973
N10240 X5.5683 Y-9.504
N10250 X5.58 Y-9.5104
N10260 X5.5933 Y-9.5134
N10270 X5.6037 Y-9.5167
N10280 X5.6153 Y-9.5177
N10290 X5.6284 Y-9.5184
N10300 X5.64 Y-9.519
N10310 X5.6524 Y-9.5187
N10320 X5.664 Y-9.5174
N10330 X5.6761 Y-9.5157
N10340 X5.6884 Y-9.5137
N10350 X5.7007 Y-9.5097
N10360 X5.7111 Y-9.506
N10370 X5.7218 Y-9.4987
N10380 X5.7308 Y-9.4917
N10390 X5.7401 Y-9.4823
N10400 X5.7451 Y-9.4703
N10410 X5.7475 Y-9.4586
N10420 X5.7471 Y-9.4463
N10430 X5.7461 Y-9.4353
N10440 X5.7394 Y-9.4243
N10450 X5.5336 Y-9.5961
N10460 X5.5453 Y-9.5964
N10470 X5.5583 Y-9.5968
N10480 X5.571 Y-9.5964
N10490 X5.583 Y-9.5971
N10500 X5.5943
N10510 X5.6077 Y-9.5974
N10520 X5.6193 Y-9.5981
N10530 X5.6304 Y-9.5974
N10540 X5.6434
N10550 X5.656 Y-9.5971
N10560 X5.6684 Y-9.5978
N10570 X5.6807 Y-9.5971
N10580 X5.6927 Y-9.5974
N10590 X5.7037 Y-9.5981
N10600 X5.7174 Y-9.5978
N10610 X5.7291 Y-9.5971
N10620 X5.7414 Y-9.5974
N10630 X5.5326 Y-9.6752
N10640 X5.5446 Y-9.6745
N10650 X5.557
N10660 X5.569 Y-9.6748
N10670 X5.583 Y-9.6755
N10680 X5.5943 Y-9.6748
N10690 X5.6053 Y-9.6755
N10700 X5.6183 Y-9.6752
N10710 X5.629
N10720 X5.6434
N10730 X5.6554 Y-9.6758
N10740 X5.6674 Y-9.6752
N10750 X5.6794 Y-9.6755
N10760 X5.6907
N10770 X5.7031
N10780 X5.7154 Y-9.6752
N10790 X5.7284 Y-9.6758
N10800 X5.7404 Y-9.6752
N10810 X5.7328 Y-9.6845
N10820 X5.7204 Y-9.6892
N10830 X5.7091 Y-9.6939
N10840 X5.6974 Y-9.6972
N10850 X5.6861 Y-9.7015
N10860 X5.6754 Y-9.7062
N10870 X5.663 Y-9.7102
N10880 X5.6517 Y-9.7149
N10890 X5.6414 Y-9.7185
N10900 X5.629 Y-9.7222
N10910 X5.6173 Y-9.7279
N10920 X5.6063 Y-9.7309
N10930 X5.5967 Y-9.7386
N10940 X5.6073 Y-9.7439
N10950 X5.6183 Y-9.7476
N10960 X5.63 Y-9.7516
N10970 X5.6417 Y-9.7572
N10980 X5.6534 Y-9.7612
N10990 X5.664 Y-9.7662
N11000 X5.6751 Y-9.7696
N11010 X5.6867 Y-9.7739
N11020 X5.6977 Y-9.7789
N11030 X5.7098 Y-9.7833
N11040 X5.7331 Y-9.7916
N11050 X5.7214 Y-9.7876
N11060 X5.7421 Y-9.8013
N11070 X5.7291
N11080 X5.7161 Y-9.8006
N11090 X5.7044 Y-9.8009
N11100 X5.6921 Y-9.8003
N11110 X5.6797 Y-9.8009
N11120 X5.6687 Y-9.8006
N11130 X5.6557 Y-9.8009
N11140 X5.6444 Y-9.8003
N11150 X5.631 Y-9.8013
N11160 X5.6187 Y-9.8003
N11170 X5.607 Y-9.8006
N11180 X5.5957
N11190 X5.5833 Y-9.8013
N11200 X5.57 Y-9.8003
N11210 X5.5586
N11220 X5.5463 Y-9.8006
N11230 X5.5333 Y-9.8003
N11240 G80
N11250 G0 Z0.1506
N11270 M5 M9

(DRILL2)
N11280 S10000 M3 M8
N11290 G0 X1.758 Y-9.2489
N11300 G0 Z0.1506
N11320 G0 Z0.0506
N11330 G98 G81 X1.758 Y-9.2489 Z-0.01 R0.05 F4.
N11340 X1.7707
N11350 X1.7831
N11360 X1.7944 Y-9.2486
N11370 X1.8068
N11380 X1.8198
N11390 X1.8311 Y-9.2489
N11400 X1.8435 Y-9.2496
N11410 X1.8548 Y-9.2489
N11420 X1.8678 Y-9.2492
N11430 X1.8808 Y-9.2489
N11440 X1.8935 Y-9.2492
N11450 X1.9058
N11460 X1.9169
N11470 X1.9295
N11480 X1.9415
N11490 X1.9542
N11500 X1.9669
N11510 X1.8678 Y-9.2619
N11520 X1.8681 Y-9.2742
N11530 Y-9.2863
N11540 X1.8685 Y-9.2986
N11550 X1.8688 Y-9.3126
N11560 Y-9.3236
N11570 X1.8685 Y-9.3353
N11580 X1.9669 Y-9.3486
N11590 X1.9535 Y-9.348
N11600 X1.9419
N11610 X1.9295 Y-9.3473
N11620 X1.9179 Y-9.3476
N11630 X1.9052
N11640 X1.8938 Y-9.348
N11650 X1.8812 Y-9.3476
N11660 X1.8685
N11670 X1.8565 Y-9.348
N11680 X1.8445
N11690 X1.8324
N11700 X1.8201 Y-9.3473
N11710 X1.8081
N11720 X1.7944 Y-9.3483
N11730 X1.7714 Y-9.3473
N11740 X1.7824 Y-9.348
N11750 X1.7584 Y-9.3476
N11760 X1.7657 Y-9.4257
N11770 X1.761 Y-9.4347
N11780 X1.759 Y-9.4477
N11790 Y-9.4594
N11800 X1.7617 Y-9.4707
N11810 X1.7667 Y-9.4821
N11820 X1.7744 Y-9.4918
N11830 X1.7834 Y-9.4978
N11840 X1.7954 Y-9.5044
N11850 X1.8071 Y-9.5108
N11860 X1.8204 Y-9.5138
N11870 X1.8308 Y-9.5171
N11880 X1.8425 Y-9.5181
N11890 X1.8555 Y-9.5188
N11900 X1.8671 Y-9.5195
N11910 X1.8795 Y-9.5191
N11920 X1.8912 Y-9.5178
N11930 X1.9032 Y-9.5161
N11940 X1.9155 Y-9.5141
N11950 X1.9279 Y-9.5101
N11960 X1.9382 Y-9.5064
N11970 X1.9489 Y-9.4991
N11980 X1.9579 Y-9.4921
N11990 X1.9672 Y-9.4828
N12000 X1.9722 Y-9.4707
N12010 X1.9746 Y-9.4591
N12020 X1.9742 Y-9.4467
N12030 X1.9732 Y-9.4357
N12040 X1.9666 Y-9.4247
N12050 X1.7607 Y-9.5965
N12060 X1.7724 Y-9.5969
N12070 X1.7854 Y-9.5972
N12080 X1.7981 Y-9.5969
N12090 X1.8101 Y-9.5975
N12100 X1.8214
N12110 X1.8348 Y-9.5979
N12120 X1.8465 Y-9.5985
N12130 X1.8575 Y-9.5979
N12140 X1.8705
N12150 X1.8832 Y-9.5975
N12160 X1.8955 Y-9.5982
N12170 X1.9078 Y-9.5975
N12180 X1.9199 Y-9.5979
N12190 X1.9309 Y-9.5985
N12200 X1.9445 Y-9.5982
N12210 X1.9562 Y-9.5975
N12220 X1.9686 Y-9.5979
N12230 X1.7597 Y-9.6756
N12240 X1.7717 Y-9.6749
N12250 X1.7841
N12260 X1.7961 Y-9.6753
N12270 X1.8101 Y-9.6759
N12280 X1.8214 Y-9.6753
N12290 X1.8324 Y-9.6759
N12300 X1.8455 Y-9.6756
N12310 X1.8561
N12320 X1.8705
N12330 X1.8825 Y-9.6763
N12340 X1.8945 Y-9.6756
N12350 X1.9065 Y-9.6759
N12360 X1.9179
N12370 X1.9302
N12380 X1.9425 Y-9.6756
N12390 X1.9556 Y-9.6763
N12400 X1.9676 Y-9.6756
N12410 X1.9599 Y-9.6849
N12420 X1.9475 Y-9.6896
N12430 X1.9362 Y-9.6943
N12440 X1.9245 Y-9.6976
N12450 X1.9132 Y-9.7019
N12460 X1.9025 Y-9.7066
N12470 X1.8902 Y-9.7106
N12480 X1.8788 Y-9.7153
N12490 X1.8685 Y-9.719
N12500 X1.8561 Y-9.7226
N12510 X1.8445 Y-9.7283
N12520 X1.8334 Y-9.7313
N12530 X1.8238 Y-9.739
N12540 X1.8344 Y-9.7443
N12550 X1.8455 Y-9.748
N12560 X1.8571 Y-9.752
N12570 X1.8688 Y-9.7577
N12580 X1.8805 Y-9.7617
N12590 X1.8912 Y-9.7667
N12600 X1.9022 Y-9.77
N12610 X1.9138 Y-9.7743
N12620 X1.9249 Y-9.7793
N12630 X1.9369 Y-9.7837
N12640 X1.9602 Y-9.792
N12650 X1.9485 Y-9.788
N12660 X1.9692 Y-9.8017
N12670 X1.9562
N12680 X1.9432 Y-9.801
N12690 X1.9315 Y-9.8014
N12700 X1.9192 Y-9.8007
N12710 X1.9068 Y-9.8014
N12720 X1.8958 Y-9.801
N12730 X1.8828 Y-9.8014
N12740 X1.8715 Y-9.8007
N12750 X1.8581 Y-9.8017
N12760 X1.8458 Y-9.8007
N12770 X1.8341 Y-9.801
N12780 X1.8228
N12790 X1.8104 Y-9.8017
N12800 X1.7971 Y-9.8007
N12810 X1.7857
N12820 X1.7734 Y-9.801
N12830 X1.7604 Y-9.8007
N12840 G80
N12850 G0 Z0.1506
N12870 M5 M9

N12880 G30
N12890 M30
%
