%
(*************************************)
(* Generated by wtopace for EntityX  *)
(* Date: 3/20/2016                   *)
(*************************************)
(1001)
(PROJECT4-MICH-REVERSED)
(T1  D=0.0039 CR=0. TAPER=118DEG - ZMIN=-0.01 - DRILL)
N10 G90 G54 G64 G50 G17 G40 G80 G94 G91.1 G49
N20 G20 (Inch)
N30 G30

(DRILL2 2)
N50 G30
N60 T1 G43 H1 M6
N70 S10000 M3 M8
N80 G54
N90 G0 X6.7438 Y-1.751
N100 G0 Z0.1506
N120 G0 Z0.0506
N130 G98 G81 X6.7438 Y-1.751 Z-0.01 R0.05 F4.
N140 X6.7311
N150 X6.7188
N160 X6.7075 Y-1.7506
N170 X6.6951
N180 X6.6821
N190 X6.6708 Y-1.751
N200 X6.6584 Y-1.7516
N210 X6.6471 Y-1.751
N220 X6.6341 Y-1.7513
N230 X6.621 Y-1.751
N240 X6.6084 Y-1.7513
N250 X6.596
N260 X6.585
N270 X6.5723
N280 X6.5603
N290 X6.5476
N300 X6.535
N310 X6.6341 Y-1.764
N320 X6.6337 Y-1.7763
N330 Y-1.7883
N340 X6.6334 Y-1.8007
N350 X6.6331 Y-1.8147
N360 Y-1.8257
N370 X6.6334 Y-1.8374
N380 X6.535 Y-1.8507
N390 X6.5483 Y-1.8501
N400 X6.56
N410 X6.5723 Y-1.8494
N420 X6.584 Y-1.8497
N430 X6.5967
N440 X6.608 Y-1.8501
N450 X6.6207 Y-1.8497
N460 X6.6334
N470 X6.6454 Y-1.8501
N480 X6.6574
N490 X6.6694
N500 X6.6818 Y-1.8494
N510 X6.6938
N520 X6.7075 Y-1.8504
N530 X6.7305 Y-1.8494
N540 X6.7195 Y-1.8501
N550 X6.7435 Y-1.8497
N560 X6.7361 Y-1.9278
N570 X6.7408 Y-1.9368
N580 X6.7428 Y-1.9498
N590 Y-1.9615
N600 X6.7401 Y-1.9728
N610 X6.7351 Y-1.9842
N620 X6.7275 Y-1.9939
N630 X6.7185 Y-1.9999
N640 X6.7064 Y-2.0065
N650 X6.6948 Y-2.0129
N660 X6.6814 Y-2.0159
N670 X6.6711 Y-2.0192
N680 X6.6594 Y-2.0202
N690 X6.6464 Y-2.0209
N700 X6.6347 Y-2.0215
N710 X6.6224 Y-2.0212
N720 X6.6107 Y-2.0199
N730 X6.5987 Y-2.0182
N740 X6.5863 Y-2.0162
N750 X6.574 Y-2.0122
N760 X6.5637 Y-2.0085
N770 X6.553 Y-2.0012
N780 X6.544 Y-1.9942
N790 X6.5346 Y-1.9848
N800 X6.5296 Y-1.9728
N810 X6.5273 Y-1.9612
N820 X6.5276 Y-1.9488
N830 X6.5286 Y-1.9378
N840 X6.5353 Y-1.9268
N850 X6.7411 Y-2.0986
N860 X6.7295 Y-2.0989
N870 X6.7165 Y-2.0993
N880 X6.7038 Y-2.0989
N890 X6.6918 Y-2.0996
N900 X6.6804
N910 X6.6671 Y-2.0999
N920 X6.6554 Y-2.1006
N930 X6.6444 Y-2.0999
N940 X6.6314
N950 X6.6187 Y-2.0996
N960 X6.6064 Y-2.1003
N970 X6.594 Y-2.0996
N980 X6.582 Y-2.0999
N990 X6.571 Y-2.1006
N1000 X6.5573 Y-2.1003
N1010 X6.5456 Y-2.0996
N1020 X6.5333 Y-2.0999
N1030 X6.7421 Y-2.1777
N1040 X6.7301 Y-2.177
N1050 X6.7178
N1060 X6.7058 Y-2.1773
N1070 X6.6918 Y-2.178
N1080 X6.6804 Y-2.1773
N1090 X6.6694 Y-2.178
N1100 X6.6564 Y-2.1777
N1110 X6.6457
N1120 X6.6314
N1130 X6.6194 Y-2.1783
N1140 X6.6074 Y-2.1777
N1150 X6.5954 Y-2.178
N1160 X6.584
N1170 X6.5717
N1180 X6.5593 Y-2.1777
N1190 X6.5463 Y-2.1783
N1200 X6.5343 Y-2.1777
N1210 X6.542 Y-2.187
N1220 X6.5543 Y-2.1917
N1230 X6.5657 Y-2.1964
N1240 X6.5773 Y-2.1997
N1250 X6.5887 Y-2.204
N1260 X6.5994 Y-2.2087
N1270 X6.6117 Y-2.2127
N1280 X6.623 Y-2.2174
N1290 X6.6334 Y-2.2211
N1300 X6.6457 Y-2.2247
N1310 X6.6574 Y-2.2304
N1320 X6.6684 Y-2.2334
N1330 X6.6781 Y-2.2411
N1340 X6.6674 Y-2.2464
N1350 X6.6564 Y-2.2501
N1360 X6.6447 Y-2.2541
N1370 X6.6331 Y-2.2598
N1380 X6.6214 Y-2.2638
N1390 X6.6107 Y-2.2688
N1400 X6.5997 Y-2.2721
N1410 X6.588 Y-2.2764
N1420 X6.577 Y-2.2814
N1430 X6.565 Y-2.2858
N1440 X6.5416 Y-2.2941
N1450 X6.5533 Y-2.2901
N1460 X6.5326 Y-2.3038
N1470 X6.5456
N1480 X6.5587 Y-2.3031
N1490 X6.5703 Y-2.3035
N1500 X6.5827 Y-2.3028
N1510 X6.595 Y-2.3035
N1520 X6.606 Y-2.3031
N1530 X6.619 Y-2.3035
N1540 X6.6304 Y-2.3028
N1550 X6.6437 Y-2.3038
N1560 X6.6561 Y-2.3028
N1570 X6.6677 Y-2.3031
N1580 X6.6791
N1590 X6.6914 Y-2.3038
N1600 X6.7048 Y-2.3028
N1610 X6.7161
N1620 X6.7285 Y-2.3031
N1630 X6.7415 Y-2.3028
N1640 G80
N1650 G0 Z0.1506
N1670 M5 M9

(DRILL2 2)
N1680 S10000 M3 M8
N1690 G0 X2.9706 Y-1.7509
N1700 G0 Z0.1506
N1720 G0 Z0.0506
N1730 G98 G81 X2.9706 Y-1.7509 Z-0.01 R0.05 F4.
N1740 X2.958
N1750 X2.9456
N1760 X2.9343 Y-1.7505
N1770 X2.9219
N1780 X2.9089
N1790 X2.8976 Y-1.7509
N1800 X2.8852 Y-1.7515
N1810 X2.8739 Y-1.7509
N1820 X2.8609 Y-1.7512
N1830 X2.8479 Y-1.7509
N1840 X2.8352 Y-1.7512
N1850 X2.8229
N1860 X2.8118
N1870 X2.7992
N1880 X2.7872
N1890 X2.7745
N1900 X2.7618
N1910 X2.8609 Y-1.7639
N1920 X2.8606 Y-1.7762
N1930 Y-1.7882
N1940 X2.8602 Y-1.8006
N1950 X2.8599 Y-1.8146
N1960 Y-1.8256
N1970 X2.8602 Y-1.8373
N1980 X2.7618 Y-1.8506
N1990 X2.7751 Y-1.85
N2000 X2.7868
N2010 X2.7992 Y-1.8493
N2020 X2.8108 Y-1.8496
N2030 X2.8235
N2040 X2.8349 Y-1.85
N2050 X2.8475 Y-1.8496
N2060 X2.8602
N2070 X2.8722 Y-1.85
N2080 X2.8842
N2090 X2.8962
N2100 X2.9086 Y-1.8493
N2110 X2.9206
N2120 X2.9343 Y-1.8503
N2130 X2.9573 Y-1.8493
N2140 X2.9463 Y-1.85
N2150 X2.9703 Y-1.8496
N2160 X2.963 Y-1.9277
N2170 X2.9676 Y-1.9367
N2180 X2.9696 Y-1.9497
N2190 Y-1.9614
N2200 X2.967 Y-1.9727
N2210 X2.962 Y-1.9841
N2220 X2.9543 Y-1.9937
N2230 X2.9453 Y-1.9998
N2240 X2.9333 Y-2.0064
N2250 X2.9216 Y-2.0128
N2260 X2.9083 Y-2.0158
N2270 X2.8979 Y-2.0191
N2280 X2.8862 Y-2.0201
N2290 X2.8732 Y-2.0208
N2300 X2.8616 Y-2.0214
N2310 X2.8492 Y-2.0211
N2320 X2.8375 Y-2.0198
N2330 X2.8255 Y-2.0181
N2340 X2.8132 Y-2.0161
N2350 X2.8008 Y-2.0121
N2360 X2.7905 Y-2.0084
N2370 X2.7798 Y-2.0011
N2380 X2.7708 Y-1.9941
N2390 X2.7615 Y-1.9847
N2400 X2.7565 Y-1.9727
N2410 X2.7541 Y-1.961
N2420 X2.7545 Y-1.9487
N2430 X2.7555 Y-1.9377
N2440 X2.7621 Y-1.9267
N2450 X2.968 Y-2.0985
N2460 X2.9563 Y-2.0988
N2470 X2.9433 Y-2.0992
N2480 X2.9306 Y-2.0988
N2490 X2.9186 Y-2.0995
N2500 X2.9073
N2510 X2.8939 Y-2.0998
N2520 X2.8822 Y-2.1005
N2530 X2.8712 Y-2.0998
N2540 X2.8582
N2550 X2.8455 Y-2.0995
N2560 X2.8332 Y-2.1002
N2570 X2.8208 Y-2.0995
N2580 X2.8088 Y-2.0998
N2590 X2.7978 Y-2.1005
N2600 X2.7841 Y-2.1002
N2610 X2.7725 Y-2.0995
N2620 X2.7601 Y-2.0998
N2630 X2.969 Y-2.1776
N2640 X2.957 Y-2.1769
N2650 X2.9446
N2660 X2.9326 Y-2.1772
N2670 X2.9186 Y-2.1779
N2680 X2.9073 Y-2.1772
N2690 X2.8962 Y-2.1779
N2700 X2.8832 Y-2.1776
N2710 X2.8726
N2720 X2.8582
N2730 X2.8462 Y-2.1782
N2740 X2.8342 Y-2.1776
N2750 X2.8222 Y-2.1779
N2760 X2.8108
N2770 X2.7985
N2780 X2.7862 Y-2.1776
N2790 X2.7731 Y-2.1782
N2800 X2.7611 Y-2.1776
N2810 X2.7688 Y-2.1869
N2820 X2.7811 Y-2.1916
N2830 X2.7925 Y-2.1963
N2840 X2.8042 Y-2.1996
N2850 X2.8155 Y-2.2039
N2860 X2.8262 Y-2.2086
N2870 X2.8385 Y-2.2126
N2880 X2.8499 Y-2.2173
N2890 X2.8602 Y-2.2209
N2900 X2.8726 Y-2.2246
N2910 X2.8842 Y-2.2303
N2920 X2.8952 Y-2.2333
N2930 X2.9049 Y-2.241
N2940 X2.8942 Y-2.2463
N2950 X2.8832 Y-2.25
N2960 X2.8716 Y-2.254
N2970 X2.8599 Y-2.2596
N2980 X2.8482 Y-2.2636
N2990 X2.8375 Y-2.2687
N3000 X2.8265 Y-2.272
N3010 X2.8148 Y-2.2763
N3020 X2.8038 Y-2.2813
N3030 X2.7918 Y-2.2857
N3040 X2.7685 Y-2.294
N3050 X2.7801 Y-2.29
N3060 X2.7595 Y-2.3037
N3070 X2.7725
N3080 X2.7855 Y-2.303
N3090 X2.7972 Y-2.3033
N3100 X2.8095 Y-2.3027
N3110 X2.8218 Y-2.3033
N3120 X2.8329 Y-2.303
N3130 X2.8459 Y-2.3033
N3140 X2.8572 Y-2.3027
N3150 X2.8706 Y-2.3037
N3160 X2.8829 Y-2.3027
N3170 X2.8946 Y-2.303
N3180 X2.9059
N3190 X2.9183 Y-2.3037
N3200 X2.9316 Y-2.3027
N3210 X2.943
N3220 X2.9553 Y-2.303
N3230 X2.9683 Y-2.3027
N3240 G80
N3250 G0 Z0.1506
N3270 M5 M9

(DRILL2 2)
N3280 S10000 M3 M8
N3290 G0 X2.9709 Y-4.2508
N3300 G0 Z0.1506
N3320 G0 Z0.0506
N3330 G98 G81 X2.9709 Y-4.2508 Z-0.01 R0.05 F4.
N3340 X2.9582
N3350 X2.9459
N3360 X2.9345 Y-4.2504
N3370 X2.9222
N3380 X2.9092
N3390 X2.8978 Y-4.2508
N3400 X2.8855 Y-4.2514
N3410 X2.8742 Y-4.2508
N3420 X2.8611 Y-4.2511
N3430 X2.8481 Y-4.2508
N3440 X2.8355 Y-4.2511
N3450 X2.8231
N3460 X2.8121
N3470 X2.7994
N3480 X2.7874
N3490 X2.7747
N3500 X2.7621
N3510 X2.8611 Y-4.2638
N3520 X2.8608 Y-4.2761
N3530 Y-4.2881
N3540 X2.8605 Y-4.3005
N3550 X2.8601 Y-4.3145
N3560 Y-4.3255
N3570 X2.8605 Y-4.3372
N3580 X2.7621 Y-4.3505
N3590 X2.7754 Y-4.3498
N3600 X2.7871
N3610 X2.7994 Y-4.3492
N3620 X2.8111 Y-4.3495
N3630 X2.8238
N3640 X2.8351 Y-4.3498
N3650 X2.8478 Y-4.3495
N3660 X2.8605
N3670 X2.8725 Y-4.3498
N3680 X2.8845
N3690 X2.8965
N3700 X2.9089 Y-4.3492
N3710 X2.9209
N3720 X2.9345 Y-4.3502
N3730 X2.9576 Y-4.3492
N3740 X2.9466 Y-4.3498
N3750 X2.9706 Y-4.3495
N3760 X2.9632 Y-4.4276
N3770 X2.9679 Y-4.4366
N3780 X2.9699 Y-4.4496
N3790 Y-4.4613
N3800 X2.9672 Y-4.4726
N3810 X2.9622 Y-4.484
N3820 X2.9546 Y-4.4936
N3830 X2.9456 Y-4.4996
N3840 X2.9335 Y-4.5063
N3850 X2.9219 Y-4.5126
N3860 X2.9085 Y-4.5157
N3870 X2.8982 Y-4.519
N3880 X2.8865 Y-4.52
N3890 X2.8735 Y-4.5207
N3900 X2.8618 Y-4.5213
N3910 X2.8495 Y-4.521
N3920 X2.8378 Y-4.5197
N3930 X2.8258 Y-4.518
N3940 X2.8134 Y-4.516
N3950 X2.8011 Y-4.512
N3960 X2.7907 Y-4.5083
N3970 X2.7801 Y-4.501
N3980 X2.7711 Y-4.494
N3990 X2.7617 Y-4.4846
N4000 X2.7567 Y-4.4726
N4010 X2.7544 Y-4.4609
N4020 X2.7547 Y-4.4486
N4030 X2.7557 Y-4.4376
N4040 X2.7624 Y-4.4266
N4050 X2.9682 Y-4.5984
N4060 X2.9566 Y-4.5987
N4070 X2.9436 Y-4.5991
N4080 X2.9309 Y-4.5987
N4090 X2.9189 Y-4.5994
N4100 X2.9075
N4110 X2.8942 Y-4.5997
N4120 X2.8825 Y-4.6004
N4130 X2.8715 Y-4.5997
N4140 X2.8585
N4150 X2.8458 Y-4.5994
N4160 X2.8335 Y-4.6001
N4170 X2.8211 Y-4.5994
N4180 X2.8091 Y-4.5997
N4190 X2.7981 Y-4.6004
N4200 X2.7844 Y-4.6001
N4210 X2.7727 Y-4.5994
N4220 X2.7604 Y-4.5997
N4230 X2.9692 Y-4.6775
N4240 X2.9572 Y-4.6768
N4250 X2.9449
N4260 X2.9329 Y-4.6771
N4270 X2.9189 Y-4.6778
N4280 X2.9075 Y-4.6771
N4290 X2.8965 Y-4.6778
N4300 X2.8835 Y-4.6775
N4310 X2.8728
N4320 X2.8585
N4330 X2.8465 Y-4.6781
N4340 X2.8345 Y-4.6775
N4350 X2.8224 Y-4.6778
N4360 X2.8111
N4370 X2.7988
N4380 X2.7864 Y-4.6775
N4390 X2.7734 Y-4.6781
N4400 X2.7614 Y-4.6775
N4410 X2.7691 Y-4.6868
N4420 X2.7814 Y-4.6915
N4430 X2.7928 Y-4.6961
N4440 X2.8044 Y-4.6995
N4450 X2.8158 Y-4.7038
N4460 X2.8264 Y-4.7085
N4470 X2.8388 Y-4.7125
N4480 X2.8501 Y-4.7172
N4490 X2.8605 Y-4.7208
N4500 X2.8728 Y-4.7245
N4510 X2.8845 Y-4.7302
N4520 X2.8955 Y-4.7332
N4530 X2.9052 Y-4.7408
N4540 X2.8945 Y-4.7462
N4550 X2.8835 Y-4.7499
N4560 X2.8718 Y-4.7539
N4570 X2.8601 Y-4.7595
N4580 X2.8485 Y-4.7635
N4590 X2.8378 Y-4.7685
N4600 X2.8268 Y-4.7719
N4610 X2.8151 Y-4.7762
N4620 X2.8041 Y-4.7812
N4630 X2.7921 Y-4.7856
N4640 X2.7687 Y-4.7939
N4650 X2.7804 Y-4.7899
N4660 X2.7597 Y-4.8036
N4670 X2.7727
N4680 X2.7857 Y-4.8029
N4690 X2.7974 Y-4.8032
N4700 X2.8098 Y-4.8026
N4710 X2.8221 Y-4.8032
N4720 X2.8331 Y-4.8029
N4730 X2.8461 Y-4.8032
N4740 X2.8575 Y-4.8026
N4750 X2.8708 Y-4.8036
N4760 X2.8832 Y-4.8026
N4770 X2.8948 Y-4.8029
N4780 X2.9062
N4790 X2.9185 Y-4.8036
N4800 X2.9319 Y-4.8026
N4810 X2.9432
N4820 X2.9556 Y-4.8029
N4830 X2.9686 Y-4.8026
N4840 G80
N4850 G0 Z0.1506
N4870 M5 M9

(DRILL2 2)
N4880 S10000 M3 M8
N4890 G0 X6.7431 Y-4.2508
N4900 G0 Z0.1506
N4920 G0 Z0.0506
N4930 G98 G81 X6.7431 Y-4.2508 Z-0.01 R0.05 F4.
N4940 X6.7304
N4950 X6.718
N4960 X6.7067 Y-4.2504
N4970 X6.6944
N4980 X6.6813
N4990 X6.67 Y-4.2508
N5000 X6.6577 Y-4.2514
N5010 X6.6463 Y-4.2508
N5020 X6.6333 Y-4.2511
N5030 X6.6203 Y-4.2508
N5040 X6.6076 Y-4.2511
N5050 X6.5953
N5060 X6.5843
N5070 X6.5716
N5080 X6.5596
N5090 X6.5469
N5100 X6.5342
N5110 X6.6333 Y-4.2638
N5120 X6.633 Y-4.2761
N5130 Y-4.2881
N5140 X6.6326 Y-4.3005
N5150 X6.6323 Y-4.3145
N5160 Y-4.3255
N5170 X6.6326 Y-4.3372
N5180 X6.5342 Y-4.3505
N5190 X6.5476 Y-4.3498
N5200 X6.5592
N5210 X6.5716 Y-4.3492
N5220 X6.5833 Y-4.3495
N5230 X6.5959
N5240 X6.6073 Y-4.3498
N5250 X6.62 Y-4.3495
N5260 X6.6326
N5270 X6.6446 Y-4.3498
N5280 X6.6567
N5290 X6.6687
N5300 X6.681 Y-4.3492
N5310 X6.693
N5320 X6.7067 Y-4.3502
N5330 X6.7297 Y-4.3492
N5340 X6.7187 Y-4.3498
N5350 X6.7427 Y-4.3495
N5360 X6.7354 Y-4.4276
N5370 X6.7401 Y-4.4366
N5380 X6.7421 Y-4.4496
N5390 Y-4.4613
N5400 X6.7394 Y-4.4726
N5410 X6.7344 Y-4.484
N5420 X6.7267 Y-4.4936
N5430 X6.7177 Y-4.4996
N5440 X6.7057 Y-4.5063
N5450 X6.694 Y-4.5126
N5460 X6.6807 Y-4.5157
N5470 X6.6703 Y-4.519
N5480 X6.6587 Y-4.52
N5490 X6.6456 Y-4.5207
N5500 X6.634 Y-4.5213
N5510 X6.6216 Y-4.521
N5520 X6.61 Y-4.5197
N5530 X6.5979 Y-4.518
N5540 X6.5856 Y-4.516
N5550 X6.5733 Y-4.512
N5560 X6.5629 Y-4.5083
N5570 X6.5522 Y-4.501
N5580 X6.5432 Y-4.494
N5590 X6.5339 Y-4.4846
N5600 X6.5289 Y-4.4726
N5610 X6.5265 Y-4.4609
N5620 X6.5269 Y-4.4486
N5630 X6.5279 Y-4.4376
N5640 X6.5346 Y-4.4266
N5650 X6.7404 Y-4.5984
N5660 X6.7287 Y-4.5987
N5670 X6.7157 Y-4.5991
N5680 X6.703 Y-4.5987
N5690 X6.691 Y-4.5994
N5700 X6.6797
N5710 X6.6663 Y-4.5997
N5720 X6.6547 Y-4.6004
N5730 X6.6436 Y-4.5997
N5740 X6.6306
N5750 X6.618 Y-4.5994
N5760 X6.6056 Y-4.6001
N5770 X6.5933 Y-4.5994
N5780 X6.5813 Y-4.5997
N5790 X6.5703 Y-4.6004
N5800 X6.5566 Y-4.6001
N5810 X6.5449 Y-4.5994
N5820 X6.5326 Y-4.5997
N5830 X6.7414 Y-4.6775
N5840 X6.7294 Y-4.6768
N5850 X6.717
N5860 X6.705 Y-4.6771
N5870 X6.691 Y-4.6778
N5880 X6.6797 Y-4.6771
N5890 X6.6687 Y-4.6778
N5900 X6.6557 Y-4.6775
N5910 X6.645
N5920 X6.6306
N5930 X6.6186 Y-4.6781
N5940 X6.6066 Y-4.6775
N5950 X6.5946 Y-4.6778
N5960 X6.5833
N5970 X6.5709
N5980 X6.5586 Y-4.6775
N5990 X6.5456 Y-4.6781
N6000 X6.5336 Y-4.6775
N6010 X6.5412 Y-4.6868
N6020 X6.5536 Y-4.6915
N6030 X6.5649 Y-4.6961
N6040 X6.5766 Y-4.6995
N6050 X6.5879 Y-4.7038
N6060 X6.5986 Y-4.7085
N6070 X6.611 Y-4.7125
N6080 X6.6223 Y-4.7172
N6090 X6.6326 Y-4.7208
N6100 X6.645 Y-4.7245
N6110 X6.6567 Y-4.7302
N6120 X6.6677 Y-4.7332
N6130 X6.6773 Y-4.7408
N6140 X6.6667 Y-4.7462
N6150 X6.6557 Y-4.7499
N6160 X6.644 Y-4.7539
N6170 X6.6323 Y-4.7595
N6180 X6.6206 Y-4.7635
N6190 X6.61 Y-4.7685
N6200 X6.5989 Y-4.7719
N6210 X6.5873 Y-4.7762
N6220 X6.5763 Y-4.7812
N6230 X6.5642 Y-4.7856
N6240 X6.5409 Y-4.7939
N6250 X6.5526 Y-4.7899
N6260 X6.5319 Y-4.8036
N6270 X6.5449
N6280 X6.5579 Y-4.8029
N6290 X6.5696 Y-4.8032
N6300 X6.5819 Y-4.8026
N6310 X6.5943 Y-4.8032
N6320 X6.6053 Y-4.8029
N6330 X6.6183 Y-4.8032
N6340 X6.6296 Y-4.8026
N6350 X6.643 Y-4.8036
N6360 X6.6553 Y-4.8026
N6370 X6.667 Y-4.8029
N6380 X6.6783
N6390 X6.6907 Y-4.8036
N6400 X6.704 Y-4.8026
N6410 X6.7154
N6420 X6.7277 Y-4.8029
N6430 X6.7407 Y-4.8026
N6440 G80
N6450 G0 Z0.1506
N6470 M5 M9

(DRILL2 2)
N6480 S10000 M3 M8
N6490 G0 X6.742 Y-6.7487
N6500 G0 Z0.1506
N6520 G0 Z0.0506
N6530 G98 G81 X6.742 Y-6.7487 Z-0.01 R0.05 F4.
N6540 X6.7294
N6550 X6.717
N6560 X6.7057 Y-6.7484
N6570 X6.6933
N6580 X6.6803
N6590 X6.669 Y-6.7487
N6600 X6.6566 Y-6.7494
N6610 X6.6453 Y-6.7487
N6620 X6.6323 Y-6.7491
N6630 X6.6193 Y-6.7487
N6640 X6.6066 Y-6.7491
N6650 X6.5942
N6660 X6.5832
N6670 X6.5705
N6680 X6.5585
N6690 X6.5459
N6700 X6.5332
N6710 X6.6323 Y-6.7618
N6720 X6.6319 Y-6.7741
N6730 Y-6.7861
N6740 X6.6316 Y-6.7985
N6750 X6.6313 Y-6.8125
N6760 Y-6.8235
N6770 X6.6316 Y-6.8352
N6780 X6.5332 Y-6.8485
N6790 X6.5465 Y-6.8478
N6800 X6.5582
N6810 X6.5705 Y-6.8472
N6820 X6.5822 Y-6.8475
N6830 X6.5949
N6840 X6.6062 Y-6.8478
N6850 X6.6189 Y-6.8475
N6860 X6.6316
N6870 X6.6436 Y-6.8478
N6880 X6.6556
N6890 X6.6676
N6900 X6.68 Y-6.8472
N6910 X6.692
N6920 X6.7057 Y-6.8482
N6930 X6.7287 Y-6.8472
N6940 X6.7177 Y-6.8478
N6950 X6.7417 Y-6.8475
N6960 X6.7344 Y-6.9256
N6970 X6.739 Y-6.9346
N6980 X6.741 Y-6.9476
N6990 Y-6.9593
N7000 X6.7384 Y-6.9706
N7010 X6.7334 Y-6.982
N7020 X6.7257 Y-6.9916
N7030 X6.7167 Y-6.9976
N7040 X6.7047 Y-7.0043
N7050 X6.693 Y-7.0106
N7060 X6.6796 Y-7.0136
N7070 X6.6693 Y-7.017
N7080 X6.6576 Y-7.018
N7090 X6.6446 Y-7.0187
N7100 X6.6329 Y-7.0193
N7110 X6.6206 Y-7.019
N7120 X6.6089 Y-7.0177
N7130 X6.5969 Y-7.016
N7140 X6.5846 Y-7.014
N7150 X6.5722 Y-7.01
N7160 X6.5619 Y-7.0063
N7170 X6.5512 Y-6.999
N7180 X6.5422 Y-6.992
N7190 X6.5328 Y-6.9826
N7200 X6.5278 Y-6.9706
N7210 X6.5255 Y-6.9589
N7220 X6.5258 Y-6.9466
N7230 X6.5268 Y-6.9356
N7240 X6.5335 Y-6.9246
N7250 X6.7394 Y-7.0964
N7260 X6.7277 Y-7.0967
N7270 X6.7147 Y-7.0971
N7280 X6.702 Y-7.0967
N7290 X6.69 Y-7.0974
N7300 X6.6786
N7310 X6.6653 Y-7.0977
N7320 X6.6536 Y-7.0984
N7330 X6.6426 Y-7.0977
N7340 X6.6296
N7350 X6.6169 Y-7.0974
N7360 X6.6046 Y-7.0981
N7370 X6.5922 Y-7.0974
N7380 X6.5802 Y-7.0977
N7390 X6.5692 Y-7.0984
N7400 X6.5555 Y-7.0981
N7410 X6.5439 Y-7.0974
N7420 X6.5315 Y-7.0977
N7430 X6.7404 Y-7.1755
N7440 X6.7284 Y-7.1748
N7450 X6.716
N7460 X6.704 Y-7.1751
N7470 X6.69 Y-7.1758
N7480 X6.6786 Y-7.1751
N7490 X6.6676 Y-7.1758
N7500 X6.6546 Y-7.1755
N7510 X6.6439
N7520 X6.6296
N7530 X6.6176 Y-7.1761
N7540 X6.6056 Y-7.1755
N7550 X6.5936 Y-7.1758
N7560 X6.5822
N7570 X6.5699
N7580 X6.5575 Y-7.1755
N7590 X6.5445 Y-7.1761
N7600 X6.5325 Y-7.1755
N7610 X6.5402 Y-7.1848
N7620 X6.5525 Y-7.1895
N7630 X6.5639 Y-7.1941
N7640 X6.5756 Y-7.1975
N7650 X6.5869 Y-7.2018
N7660 X6.5976 Y-7.2065
N7670 X6.6099 Y-7.2105
N7680 X6.6213 Y-7.2152
N7690 X6.6316 Y-7.2188
N7700 X6.6439 Y-7.2225
N7710 X6.6556 Y-7.2282
N7720 X6.6666 Y-7.2312
N7730 X6.6763 Y-7.2388
N7740 X6.6656 Y-7.2442
N7750 X6.6546 Y-7.2479
N7760 X6.6429 Y-7.2519
N7770 X6.6313 Y-7.2575
N7780 X6.6196 Y-7.2615
N7790 X6.6089 Y-7.2665
N7800 X6.5979 Y-7.2699
N7810 X6.5862 Y-7.2742
N7820 X6.5752 Y-7.2792
N7830 X6.5632 Y-7.2836
N7840 X6.5399 Y-7.2919
N7850 X6.5515 Y-7.2879
N7860 X6.5308 Y-7.3016
N7870 X6.5439
N7880 X6.5569 Y-7.3009
N7890 X6.5685 Y-7.3012
N7900 X6.5809 Y-7.3006
N7910 X6.5932 Y-7.3012
N7920 X6.6042 Y-7.3009
N7930 X6.6173 Y-7.3012
N7940 X6.6286 Y-7.3006
N7950 X6.6419 Y-7.3016
N7960 X6.6543 Y-7.3006
N7970 X6.666 Y-7.3009
N7980 X6.6773
N7990 X6.6897 Y-7.3016
N8000 X6.703 Y-7.3006
N8010 X6.7143
N8020 X6.7267 Y-7.3009
N8030 X6.7397 Y-7.3006
N8040 G80
N8050 G0 Z0.1506
N8070 M5 M9

(DRILL2 2)
N8080 S10000 M3 M8
N8090 G0 X2.9694 Y-6.7485
N8100 G0 Z0.1506
N8120 G0 Z0.0506
N8130 G98 G81 X2.9694 Y-6.7485 Z-0.01 R0.05 F4.
N8140 X2.9567
N8150 X2.9444
N8160 X2.933 Y-6.7482
N8170 X2.9207
N8180 X2.9077
N8190 X2.8963 Y-6.7485
N8200 X2.884 Y-6.7492
N8210 X2.8726 Y-6.7485
N8220 X2.8596 Y-6.7489
N8230 X2.8466 Y-6.7485
N8240 X2.8339 Y-6.7489
N8250 X2.8216
N8260 X2.8106
N8270 X2.7979
N8280 X2.7859
N8290 X2.7732
N8300 X2.7605
N8310 X2.8596 Y-6.7615
N8320 X2.8593 Y-6.7739
N8330 Y-6.7859
N8340 X2.859 Y-6.7982
N8350 X2.8586 Y-6.8122
N8360 Y-6.8233
N8370 X2.859 Y-6.8349
N8380 X2.7605 Y-6.8483
N8390 X2.7739 Y-6.8476
N8400 X2.7856
N8410 X2.7979 Y-6.8469
N8420 X2.8096 Y-6.8473
N8430 X2.8223
N8440 X2.8336 Y-6.8476
N8450 X2.8463 Y-6.8473
N8460 X2.859
N8470 X2.871 Y-6.8476
N8480 X2.883
N8490 X2.895
N8500 X2.9073 Y-6.8469
N8510 X2.9194
N8520 X2.933 Y-6.8479
N8530 X2.9561 Y-6.8469
N8540 X2.945 Y-6.8476
N8550 X2.9691 Y-6.8473
N8560 X2.9617 Y-6.9253
N8570 X2.9664 Y-6.9343
N8580 X2.9684 Y-6.9474
N8590 Y-6.959
N8600 X2.9657 Y-6.9704
N8610 X2.9607 Y-6.9817
N8620 X2.9531 Y-6.9914
N8630 X2.944 Y-6.9974
N8640 X2.932 Y-7.0041
N8650 X2.9204 Y-7.0104
N8660 X2.907 Y-7.0134
N8670 X2.8967 Y-7.0168
N8680 X2.885 Y-7.0178
N8690 X2.872 Y-7.0184
N8700 X2.8603 Y-7.0191
N8710 X2.848 Y-7.0188
N8720 X2.8363 Y-7.0174
N8730 X2.8243 Y-7.0158
N8740 X2.8119 Y-7.0138
N8750 X2.7996 Y-7.0097
N8760 X2.7892 Y-7.0061
N8770 X2.7786 Y-6.9987
N8780 X2.7696 Y-6.9917
N8790 X2.7602 Y-6.9824
N8800 X2.7552 Y-6.9704
N8810 X2.7529 Y-6.9587
N8820 X2.7532 Y-6.9464
N8830 X2.7542 Y-6.9354
N8840 X2.7609 Y-6.9243
N8850 X2.9667 Y-7.0962
N8860 X2.9551 Y-7.0965
N8870 X2.942 Y-7.0968
N8880 X2.9294 Y-7.0965
N8890 X2.9174 Y-7.0972
N8900 X2.906
N8910 X2.8927 Y-7.0975
N8920 X2.881 Y-7.0982
N8930 X2.87 Y-7.0975
N8940 X2.857
N8950 X2.8443 Y-7.0972
N8960 X2.8319 Y-7.0978
N8970 X2.8196 Y-7.0972
N8980 X2.8076 Y-7.0975
N8990 X2.7966 Y-7.0982
N9000 X2.7829 Y-7.0978
N9010 X2.7712 Y-7.0972
N9020 X2.7589 Y-7.0975
N9030 X2.9677 Y-7.1752
N9040 X2.9557 Y-7.1746
N9050 X2.9434
N9060 X2.9314 Y-7.1749
N9070 X2.9174 Y-7.1756
N9080 X2.906 Y-7.1749
N9090 X2.895 Y-7.1756
N9100 X2.882 Y-7.1752
N9110 X2.8713
N9120 X2.857
N9130 X2.845 Y-7.1759
N9140 X2.8329 Y-7.1752
N9150 X2.8209 Y-7.1756
N9160 X2.8096
N9170 X2.7972
N9180 X2.7849 Y-7.1752
N9190 X2.7719 Y-7.1759
N9200 X2.7599 Y-7.1752
N9210 X2.7676 Y-7.1846
N9220 X2.7799 Y-7.1892
N9230 X2.7912 Y-7.1939
N9240 X2.8029 Y-7.1972
N9250 X2.8143 Y-7.2016
N9260 X2.8249 Y-7.2063
N9270 X2.8373 Y-7.2103
N9280 X2.8486 Y-7.2149
N9290 X2.859 Y-7.2186
N9300 X2.8713 Y-7.2223
N9310 X2.883 Y-7.2279
N9320 X2.894 Y-7.2309
N9330 X2.9037 Y-7.2386
N9340 X2.893 Y-7.244
N9350 X2.882 Y-7.2476
N9360 X2.8703 Y-7.2516
N9370 X2.8586 Y-7.2573
N9380 X2.847 Y-7.2613
N9390 X2.8363 Y-7.2663
N9400 X2.8253 Y-7.2696
N9410 X2.8136 Y-7.274
N9420 X2.8026 Y-7.279
N9430 X2.7906 Y-7.2833
N9440 X2.7672 Y-7.2917
N9450 X2.7789 Y-7.2877
N9460 X2.7582 Y-7.3013
N9470 X2.7712
N9480 X2.7842 Y-7.3007
N9490 X2.7959 Y-7.301
N9500 X2.8083 Y-7.3003
N9510 X2.8206 Y-7.301
N9520 X2.8316 Y-7.3007
N9530 X2.8446 Y-7.301
N9540 X2.856 Y-7.3003
N9550 X2.8693 Y-7.3013
N9560 X2.8817 Y-7.3003
N9570 X2.8933 Y-7.3007
N9580 X2.9047
N9590 X2.917 Y-7.3013
N9600 X2.9304 Y-7.3003
N9610 X2.9417
N9620 X2.9541 Y-7.3007
N9630 X2.9671 Y-7.3003
N9640 G80
N9650 G0 Z0.1506
N9670 M5 M9

(DRILL2 2)
N9680 S10000 M3 M8
N9690 G0 X2.9694 Y-9.2485
N9700 G0 Z0.1506
N9720 G0 Z0.0506
N9730 G98 G81 X2.9694 Y-9.2485 Z-0.01 R0.05 F4.
N9740 X2.9567
N9750 X2.9443
N9760 X2.933 Y-9.2481
N9770 X2.9206
N9780 X2.9076
N9790 X2.8963 Y-9.2485
N9800 X2.8839 Y-9.2491
N9810 X2.8726 Y-9.2485
N9820 X2.8596 Y-9.2488
N9830 X2.8466 Y-9.2485
N9840 X2.8339 Y-9.2488
N9850 X2.8216
N9860 X2.8106
N9870 X2.7979
N9880 X2.7859
N9890 X2.7732
N9900 X2.7605
N9910 X2.8596 Y-9.2615
N9920 X2.8593 Y-9.2738
N9930 Y-9.2858
N9940 X2.8589 Y-9.2982
N9950 X2.8586 Y-9.3122
N9960 Y-9.3232
N9970 X2.8589 Y-9.3349
N9980 X2.7605 Y-9.3482
N9990 X2.7739 Y-9.3475
N10000 X2.7855
N10010 X2.7979 Y-9.3469
N10020 X2.8096 Y-9.3472
N10030 X2.8222
N10040 X2.8336 Y-9.3475
N10050 X2.8463 Y-9.3472
N10060 X2.8589
N10070 X2.8709 Y-9.3475
N10080 X2.8829
N10090 X2.895
N10100 X2.9073 Y-9.3469
N10110 X2.9193
N10120 X2.933 Y-9.3479
N10130 X2.956 Y-9.3469
N10140 X2.945 Y-9.3475
N10150 X2.969 Y-9.3472
N10160 X2.9617 Y-9.4253
N10170 X2.9664 Y-9.4343
N10180 X2.9684 Y-9.4473
N10190 Y-9.459
N10200 X2.9657 Y-9.4703
N10210 X2.9607 Y-9.4817
N10220 X2.953 Y-9.4913
N10230 X2.944 Y-9.4973
N10240 X2.932 Y-9.504
N10250 X2.9203 Y-9.5104
N10260 X2.907 Y-9.5134
N10270 X2.8966 Y-9.5167
N10280 X2.885 Y-9.5177
N10290 X2.8719 Y-9.5184
N10300 X2.8603 Y-9.519
N10310 X2.8479 Y-9.5187
N10320 X2.8362 Y-9.5174
N10330 X2.8242 Y-9.5157
N10340 X2.8119 Y-9.5137
N10350 X2.7995 Y-9.5097
N10360 X2.7892 Y-9.506
N10370 X2.7785 Y-9.4987
N10380 X2.7695 Y-9.4917
N10390 X2.7602 Y-9.4823
N10400 X2.7552 Y-9.4703
N10410 X2.7528 Y-9.4586
N10420 X2.7532 Y-9.4463
N10430 X2.7542 Y-9.4353
N10440 X2.7608 Y-9.4243
N10450 X2.9667 Y-9.5961
N10460 X2.955 Y-9.5964
N10470 X2.942 Y-9.5968
N10480 X2.9293 Y-9.5964
N10490 X2.9173 Y-9.5971
N10500 X2.906
N10510 X2.8926 Y-9.5974
N10520 X2.8809 Y-9.5981
N10530 X2.8699 Y-9.5974
N10540 X2.8569
N10550 X2.8442 Y-9.5971
N10560 X2.8319 Y-9.5978
N10570 X2.8196 Y-9.5971
N10580 X2.8075 Y-9.5974
N10590 X2.7965 Y-9.5981
N10600 X2.7829 Y-9.5978
N10610 X2.7712 Y-9.5971
N10620 X2.7588 Y-9.5974
N10630 X2.9677 Y-9.6752
N10640 X2.9557 Y-9.6745
N10650 X2.9433
N10660 X2.9313 Y-9.6748
N10670 X2.9173 Y-9.6755
N10680 X2.906 Y-9.6748
N10690 X2.895 Y-9.6755
N10700 X2.8819 Y-9.6752
N10710 X2.8713
N10720 X2.8569
N10730 X2.8449 Y-9.6758
N10740 X2.8329 Y-9.6752
N10750 X2.8209 Y-9.6755
N10760 X2.8096
N10770 X2.7972
N10780 X2.7849 Y-9.6752
N10790 X2.7719 Y-9.6758
N10800 X2.7598 Y-9.6752
N10810 X2.7675 Y-9.6845
N10820 X2.7799 Y-9.6892
N10830 X2.7912 Y-9.6939
N10840 X2.8029 Y-9.6972
N10850 X2.8142 Y-9.7015
N10860 X2.8249 Y-9.7062
N10870 X2.8372 Y-9.7102
N10880 X2.8486 Y-9.7149
N10890 X2.8589 Y-9.7185
N10900 X2.8713 Y-9.7222
N10910 X2.8829 Y-9.7279
N10920 X2.894 Y-9.7309
N10930 X2.9036 Y-9.7386
N10940 X2.893 Y-9.7439
N10950 X2.8819 Y-9.7476
N10960 X2.8703 Y-9.7516
N10970 X2.8586 Y-9.7572
N10980 X2.8469 Y-9.7612
N10990 X2.8362 Y-9.7662
N11000 X2.8252 Y-9.7696
N11010 X2.8136 Y-9.7739
N11020 X2.8025 Y-9.7789
N11030 X2.7905 Y-9.7833
N11040 X2.7672 Y-9.7916
N11050 X2.7789 Y-9.7876
N11060 X2.7582 Y-9.8013
N11070 X2.7712
N11080 X2.7842 Y-9.8006
N11090 X2.7959 Y-9.8009
N11100 X2.8082 Y-9.8003
N11110 X2.8206 Y-9.8009
N11120 X2.8316 Y-9.8006
N11130 X2.8446 Y-9.8009
N11140 X2.8559 Y-9.8003
N11150 X2.8693 Y-9.8013
N11160 X2.8816 Y-9.8003
N11170 X2.8933 Y-9.8006
N11180 X2.9046
N11190 X2.917 Y-9.8013
N11200 X2.9303 Y-9.8003
N11210 X2.9417
N11220 X2.954 Y-9.8006
N11230 X2.967 Y-9.8003
N11240 G80
N11250 G0 Z0.1506
N11270 M5 M9

(DRILL2 2)
N11280 S10000 M3 M8
N11290 G0 X6.7422 Y-9.2489
N11300 G0 Z0.1506
N11320 G0 Z0.0506
N11330 G98 G81 X6.7422 Y-9.2489 Z-0.01 R0.05 F4.
N11340 X6.7296
N11350 X6.7172
N11360 X6.7059 Y-9.2486
N11370 X6.6935
N11380 X6.6805
N11390 X6.6692 Y-9.2489
N11400 X6.6568 Y-9.2496
N11410 X6.6455 Y-9.2489
N11420 X6.6325 Y-9.2492
N11430 X6.6195 Y-9.2489
N11440 X6.6068 Y-9.2492
N11450 X6.5944
N11460 X6.5834
N11470 X6.5708
N11480 X6.5588
N11490 X6.5461
N11500 X6.5334
N11510 X6.6325 Y-9.2619
N11520 X6.6321 Y-9.2742
N11530 Y-9.2863
N11540 X6.6318 Y-9.2986
N11550 X6.6315 Y-9.3126
N11560 Y-9.3236
N11570 X6.6318 Y-9.3353
N11580 X6.5334 Y-9.3486
N11590 X6.5467 Y-9.348
N11600 X6.5584
N11610 X6.5708 Y-9.3473
N11620 X6.5824 Y-9.3476
N11630 X6.5951
N11640 X6.6065 Y-9.348
N11650 X6.6191 Y-9.3476
N11660 X6.6318
N11670 X6.6438 Y-9.348
N11680 X6.6558
N11690 X6.6678
N11700 X6.6802 Y-9.3473
N11710 X6.6922
N11720 X6.7059 Y-9.3483
N11730 X6.7289 Y-9.3473
N11740 X6.7179 Y-9.348
N11750 X6.7419 Y-9.3476
N11760 X6.7346 Y-9.4257
N11770 X6.7392 Y-9.4347
N11780 X6.7412 Y-9.4477
N11790 Y-9.4594
N11800 X6.7386 Y-9.4707
N11810 X6.7336 Y-9.4821
N11820 X6.7259 Y-9.4918
N11830 X6.7169 Y-9.4978
N11840 X6.7049 Y-9.5044
N11850 X6.6932 Y-9.5108
N11860 X6.6799 Y-9.5138
N11870 X6.6695 Y-9.5171
N11880 X6.6578 Y-9.5181
N11890 X6.6448 Y-9.5188
N11900 X6.6331 Y-9.5195
N11910 X6.6208 Y-9.5191
N11920 X6.6091 Y-9.5178
N11930 X6.5971 Y-9.5161
N11940 X6.5848 Y-9.5141
N11950 X6.5724 Y-9.5101
N11960 X6.5621 Y-9.5064
N11970 X6.5514 Y-9.4991
N11980 X6.5424 Y-9.4921
N11990 X6.5331 Y-9.4828
N12000 X6.5281 Y-9.4707
N12010 X6.5257 Y-9.4591
N12020 X6.5261 Y-9.4467
N12030 X6.5271 Y-9.4357
N12040 X6.5337 Y-9.4247
N12050 X6.7396 Y-9.5965
N12060 X6.7279 Y-9.5969
N12070 X6.7149 Y-9.5972
N12080 X6.7022 Y-9.5969
N12090 X6.6902 Y-9.5975
N12100 X6.6789
N12110 X6.6655 Y-9.5979
N12120 X6.6538 Y-9.5985
N12130 X6.6428 Y-9.5979
N12140 X6.6298
N12150 X6.6171 Y-9.5975
N12160 X6.6048 Y-9.5982
N12170 X6.5924 Y-9.5975
N12180 X6.5804 Y-9.5979
N12190 X6.5694 Y-9.5985
N12200 X6.5557 Y-9.5982
N12210 X6.5441 Y-9.5975
N12220 X6.5317 Y-9.5979
N12230 X6.7406 Y-9.6756
N12240 X6.7286 Y-9.6749
N12250 X6.7162
N12260 X6.7042 Y-9.6753
N12270 X6.6902 Y-9.6759
N12280 X6.6789 Y-9.6753
N12290 X6.6678 Y-9.6759
N12300 X6.6548 Y-9.6756
N12310 X6.6442
N12320 X6.6298
N12330 X6.6178 Y-9.6763
N12340 X6.6058 Y-9.6756
N12350 X6.5938 Y-9.6759
N12360 X6.5824
N12370 X6.5701
N12380 X6.5578 Y-9.6756
N12390 X6.5447 Y-9.6763
N12400 X6.5327 Y-9.6756
N12410 X6.5404 Y-9.6849
N12420 X6.5527 Y-9.6896
N12430 X6.5641 Y-9.6943
N12440 X6.5758 Y-9.6976
N12450 X6.5871 Y-9.7019
N12460 X6.5978 Y-9.7066
N12470 X6.6101 Y-9.7106
N12480 X6.6215 Y-9.7153
N12490 X6.6318 Y-9.719
N12500 X6.6442 Y-9.7226
N12510 X6.6558 Y-9.7283
N12520 X6.6668 Y-9.7313
N12530 X6.6765 Y-9.739
N12540 X6.6658 Y-9.7443
N12550 X6.6548 Y-9.748
N12560 X6.6432 Y-9.752
N12570 X6.6315 Y-9.7577
N12580 X6.6198 Y-9.7617
N12590 X6.6091 Y-9.7667
N12600 X6.5981 Y-9.77
N12610 X6.5864 Y-9.7743
N12620 X6.5754 Y-9.7793
N12630 X6.5634 Y-9.7837
N12640 X6.5401 Y-9.792
N12650 X6.5517 Y-9.788
N12660 X6.5311 Y-9.8017
N12670 X6.5441
N12680 X6.5571 Y-9.801
N12690 X6.5688 Y-9.8014
N12700 X6.5811 Y-9.8007
N12710 X6.5934 Y-9.8014
N12720 X6.6045 Y-9.801
N12730 X6.6175 Y-9.8014
N12740 X6.6288 Y-9.8007
N12750 X6.6422 Y-9.8017
N12760 X6.6545 Y-9.8007
N12770 X6.6662 Y-9.801
N12780 X6.6775
N12790 X6.6899 Y-9.8017
N12800 X6.7032 Y-9.8007
N12810 X6.7146
N12820 X6.7269 Y-9.801
N12830 X6.7399 Y-9.8007
N12840 G80
N12850 G0 Z0.1506
N12870 M5 M9

N12880 G30
N12890 M30
%
