%
(*************************************)
(* Generated by wtopace for EntityX  *)
(* Date: 3/21/2016                   *)
(*************************************)
(1001)
(PROJECT4-UT-REVERSED)
(T1  D=0.0039 CR=0. TAPER=118DEG - ZMIN=-0.01 - DRILL)
N10 G90 G54 G64 G50 G17 G40 G80 G94 G91.1 G49
N20 G20 (Inch)
N30 G30

(DRILL1 2)
N50 G30
N60 T1 G43 H1 M6
N70 S10000 M3 M8
N80 G54
N90 G0 X7.5128 Y-2.2706
N100 G0 Z0.4506
N120 G0 Z0.0506
N130 G98 G81 X7.5128 Y-2.2706 Z-0.01 R0.05 F4.
N140 X7.5136 Y-2.2803
N150 X7.5139 Y-2.2889
N160 X7.5244 Y-2.2885
N170 X7.5329 Y-2.2881
N180 X7.5434 Y-2.2885
N190 X7.5535 Y-2.2893
N200 X7.5654 Y-2.2881
N210 X7.5755 Y-2.2893
N220 X7.5863 Y-2.2889
N230 X7.5941 Y-2.2885
N240 X7.6046
N250 X7.615 Y-2.2889
N260 X7.6255 Y-2.2885
N270 X7.6359
N280 X7.6463 Y-2.2881
N290 X7.6583 Y-2.2893
N300 X7.6695
N310 X7.6773 Y-2.2889
N320 X7.687
N330 X7.6963 Y-2.2896
N340 X7.6967 Y-2.2814
N350 X7.6963 Y-2.2721
N360 Y-2.262
N370 Y-2.2531
N380 Y-2.2445
N390 X7.6933 Y-2.2341
N400 X7.6922 Y-2.224
N410 X7.6863 Y-2.2143
N420 X7.6807 Y-2.2076
N430 X7.6736 Y-2.2023
N440 X7.6654 Y-2.1949
N450 X7.6564 Y-2.1904
N460 X7.6463 Y-2.1867
N470 X7.6374 Y-2.1837
N480 X7.6247 Y-2.1811
N490 X7.6169 Y-2.1803
N500 X7.6053 Y-2.18
N510 X7.5952 Y-2.1807
N520 X7.5826 Y-2.1818
N530 X7.5732 Y-2.1852
N540 X7.565 Y-2.1874
N550 X7.5568 Y-2.1908
N560 X7.546 Y-2.1964
N570 X7.5367 Y-2.2035
N580 X7.5285 Y-2.2087
N590 X7.5236 Y-2.215
N600 X7.5184 Y-2.2247
N610 X7.5154 Y-2.2344
N620 X7.5136 Y-2.2467
N630 X7.5128 Y-2.2572
N640 X7.5137 Y-2.119
N650 X7.5247
N660 X7.5335 Y-2.1181
N670 X7.5418 Y-2.1185
N680 X7.5533 Y-2.119
N690 X7.5648 Y-2.1185
N700 X7.5759 Y-2.119
N710 X7.586 Y-2.1185
N720 X7.5952 Y-2.1181
N730 X7.6044
N740 X7.6141 Y-2.119
N750 X7.6247 Y-2.1185
N760 X7.6357 Y-2.119
N770 X7.6463 Y-2.1181
N780 X7.6574 Y-2.1185
N790 X7.667
N800 X7.6772 Y-2.1176
N810 X7.6873 Y-2.1185
N820 X7.696
N830 X7.6942 Y-2.1089
N840 X7.6951 Y-2.0997
N850 Y-2.09
N860 Y-2.0808
N870 X7.6956 Y-2.0693
N880 X7.6951 Y-2.0573
N890 Y-2.0467
N900 Y-2.0366
N910 Y-2.0264
N920 X7.6956 Y-2.0168
N930 X7.5137 Y-1.9141
N940 X7.5128 Y-1.9251
N950 Y-1.9366
N960 X7.5137 Y-1.9472
N970 X7.5132 Y-1.9555
N980 X7.5238 Y-1.9551
N990 X7.533 Y-1.9564
N1000 X7.5427 Y-1.9551
N1010 X7.5542 Y-1.9555
N1020 X7.5643
N1030 X7.5754 Y-1.9551
N1040 X7.5846 Y-1.9555
N1050 X7.5952 Y-1.9551
N1060 X7.6044 Y-1.9555
N1070 X7.6141
N1080 X7.6247 Y-1.956
N1090 X7.6353 Y-1.9555
N1100 X7.6468
N1110 X7.6583
N1120 X7.6675
N1130 X7.6776
N1140 X7.6864 Y-1.9551
N1150 X7.6956 Y-1.9564
N1160 X7.696 Y-1.9482
N1170 Y-1.9403
N1180 X7.6965 Y-1.9302
N1190 X7.6956 Y-1.9205
N1200 X7.696 Y-1.9109
N1210 X7.6937 Y-1.9016
N1220 X7.6914 Y-1.8915
N1230 X7.6868 Y-1.8809
N1240 X7.6799 Y-1.874
N1250 X7.6735 Y-1.8689
N1260 X7.6647 Y-1.8616
N1270 X7.656 Y-1.8579
N1280 X7.6463 Y-1.8537
N1290 X7.6371 Y-1.8524
N1300 X7.6261 Y-1.8487
N1310 X7.6155 Y-1.8478
N1320 X7.6053
N1330 X7.5947 Y-1.8482
N1340 X7.5837 Y-1.8491
N1350 X7.574 Y-1.8524
N1360 X7.5653 Y-1.8547
N1370 X7.5561 Y-1.8584
N1380 X7.5464 Y-1.8634
N1390 X7.5376 Y-1.8699
N1400 X7.5289 Y-1.8759
N1410 X7.5224 Y-1.8832
N1420 X7.5183 Y-1.892
N1430 X7.5155 Y-1.9016
N1440 G80
N1450 G0 Z0.4506
N1470 M5 M9

(DRILL1 2)
N1480 S10000 M3 M8
N1490 G0 X3.7376 Y-2.2683
N1500 G0 Z0.4506
N1520 G0 Z0.0506
N1530 G98 G81 X3.7376 Y-2.2683 Z-0.01 R0.05 F4.
N1540 X3.7384 Y-2.278
N1550 X3.7388 Y-2.2865
N1560 X3.7492 Y-2.2862
N1570 X3.7578 Y-2.2858
N1580 X3.7682 Y-2.2862
N1590 X3.7783 Y-2.2869
N1600 X3.7902 Y-2.2858
N1610 X3.8003 Y-2.2869
N1620 X3.8111 Y-2.2865
N1630 X3.819 Y-2.2862
N1640 X3.8294
N1650 X3.8399 Y-2.2865
N1660 X3.8503 Y-2.2862
N1670 X3.8607
N1680 X3.8712 Y-2.2858
N1690 X3.8831 Y-2.2869
N1700 X3.8943
N1710 X3.9021 Y-2.2865
N1720 X3.9118
N1730 X3.9212 Y-2.2873
N1740 X3.9215 Y-2.2791
N1750 X3.9212 Y-2.2698
N1760 Y-2.2597
N1770 Y-2.2507
N1780 Y-2.2422
N1790 X3.9182 Y-2.2317
N1800 X3.9171 Y-2.2216
N1810 X3.9111 Y-2.2119
N1820 X3.9055 Y-2.2052
N1830 X3.8984 Y-2.2
N1840 X3.8902 Y-2.1925
N1850 X3.8813 Y-2.1881
N1860 X3.8712 Y-2.1843
N1870 X3.8622 Y-2.1813
N1880 X3.8495 Y-2.1787
N1890 X3.8417 Y-2.178
N1900 X3.8302 Y-2.1776
N1910 X3.8201 Y-2.1784
N1920 X3.8074 Y-2.1795
N1930 X3.7981 Y-2.1828
N1940 X3.7899 Y-2.1851
N1950 X3.7817 Y-2.1884
N1960 X3.7708 Y-2.194
N1970 X3.7615 Y-2.2011
N1980 X3.7533 Y-2.2063
N1990 X3.7485 Y-2.2127
N2000 X3.7432 Y-2.2224
N2010 X3.7403 Y-2.2321
N2020 X3.7384 Y-2.2444
N2030 X3.7376 Y-2.2548
N2040 X3.7385 Y-2.1167
N2050 X3.7496
N2060 X3.7583 Y-2.1157
N2070 X3.7666 Y-2.1162
N2080 X3.7781 Y-2.1167
N2090 X3.7896 Y-2.1162
N2100 X3.8007 Y-2.1167
N2110 X3.8108 Y-2.1162
N2120 X3.82 Y-2.1157
N2130 X3.8292
N2140 X3.8389 Y-2.1167
N2150 X3.8495 Y-2.1162
N2160 X3.8606 Y-2.1167
N2170 X3.8712 Y-2.1157
N2180 X3.8822 Y-2.1162
N2190 X3.8919
N2200 X3.902 Y-2.1153
N2210 X3.9121 Y-2.1162
N2220 X3.9209
N2230 X3.919 Y-2.1065
N2240 X3.92 Y-2.0973
N2250 Y-2.0876
N2260 Y-2.0784
N2270 X3.9204 Y-2.0669
N2280 X3.92 Y-2.0549
N2290 Y-2.0444
N2300 Y-2.0342
N2310 Y-2.0241
N2320 X3.9204 Y-2.0144
N2330 X3.7385 Y-1.9117
N2340 X3.7376 Y-1.9228
N2350 Y-1.9343
N2360 X3.7385 Y-1.9449
N2370 X3.7381 Y-1.9532
N2380 X3.7487 Y-1.9527
N2390 X3.7579 Y-1.9541
N2400 X3.7675 Y-1.9527
N2410 X3.779 Y-1.9532
N2420 X3.7892
N2430 X3.8002 Y-1.9527
N2440 X3.8094 Y-1.9532
N2450 X3.82 Y-1.9527
N2460 X3.8292 Y-1.9532
N2470 X3.8389
N2480 X3.8495 Y-1.9536
N2490 X3.8601 Y-1.9532
N2500 X3.8716
N2510 X3.8831
N2520 X3.8923
N2530 X3.9025
N2540 X3.9112 Y-1.9527
N2550 X3.9204 Y-1.9541
N2560 X3.9209 Y-1.9458
N2570 Y-1.938
N2580 X3.9213 Y-1.9278
N2590 X3.9204 Y-1.9182
N2600 X3.9209 Y-1.9085
N2610 X3.9186 Y-1.8993
N2620 X3.9163 Y-1.8892
N2630 X3.9117 Y-1.8786
N2640 X3.9048 Y-1.8717
N2650 X3.8983 Y-1.8666
N2660 X3.8896 Y-1.8592
N2670 X3.8808 Y-1.8555
N2680 X3.8712 Y-1.8514
N2690 X3.8619 Y-1.85
N2700 X3.8509 Y-1.8463
N2710 X3.8403 Y-1.8454
N2720 X3.8302
N2730 X3.8196 Y-1.8459
N2740 X3.8085 Y-1.8468
N2750 X3.7989 Y-1.85
N2760 X3.7901 Y-1.8523
N2770 X3.7809 Y-1.856
N2780 X3.7712 Y-1.8611
N2790 X3.7625 Y-1.8675
N2800 X3.7537 Y-1.8735
N2810 X3.7473 Y-1.8809
N2820 X3.7431 Y-1.8896
N2830 X3.7404 Y-1.8993
N2840 G80
N2850 G0 Z0.4506
N2870 M5 M9

(DRILL1 2)
N2880 S10000 M3 M8
N2890 G0 X7.5132 Y-4.7731
N2900 G0 Z0.4506
N2920 G0 Z0.0506
N2930 G98 G81 X7.5132 Y-4.7731 Z-0.01 R0.05 F4.
N2940 X7.5139 Y-4.7828
N2950 X7.5143 Y-4.7914
N2960 X7.5248 Y-4.791
N2970 X7.5333 Y-4.7906
N2980 X7.5438 Y-4.791
N2990 X7.5539 Y-4.7917
N3000 X7.5658 Y-4.7906
N3010 X7.5759 Y-4.7917
N3020 X7.5867 Y-4.7914
N3030 X7.5945 Y-4.791
N3040 X7.605
N3050 X7.6154 Y-4.7914
N3060 X7.6258 Y-4.791
N3070 X7.6363
N3080 X7.6467 Y-4.7906
N3090 X7.6587 Y-4.7917
N3100 X7.6699
N3110 X7.6777 Y-4.7914
N3120 X7.6874
N3130 X7.6967 Y-4.7921
N3140 X7.6971 Y-4.7839
N3150 X7.6967 Y-4.7746
N3160 Y-4.7645
N3170 Y-4.7556
N3180 Y-4.747
N3190 X7.6937 Y-4.7365
N3200 X7.6926 Y-4.7265
N3210 X7.6867 Y-4.7168
N3220 X7.6811 Y-4.71
N3230 X7.674 Y-4.7048
N3240 X7.6658 Y-4.6974
N3250 X7.6568 Y-4.6929
N3260 X7.6467 Y-4.6892
N3270 X7.6378 Y-4.6862
N3280 X7.6251 Y-4.6836
N3290 X7.6173 Y-4.6828
N3300 X7.6057 Y-4.6824
N3310 X7.5956 Y-4.6832
N3320 X7.583 Y-4.6843
N3330 X7.5736 Y-4.6877
N3340 X7.5654 Y-4.6899
N3350 X7.5572 Y-4.6933
N3360 X7.5464 Y-4.6989
N3370 X7.5371 Y-4.7059
N3380 X7.5289 Y-4.7112
N3390 X7.524 Y-4.7175
N3400 X7.5188 Y-4.7272
N3410 X7.5158 Y-4.7369
N3420 X7.5139 Y-4.7492
N3430 X7.5132 Y-4.7597
N3440 X7.5141 Y-4.6215
N3450 X7.5251
N3460 X7.5339 Y-4.6206
N3470 X7.5422 Y-4.621
N3480 X7.5537 Y-4.6215
N3490 X7.5652 Y-4.621
N3500 X7.5762 Y-4.6215
N3510 X7.5864 Y-4.621
N3520 X7.5956 Y-4.6206
N3530 X7.6048
N3540 X7.6145 Y-4.6215
N3550 X7.6251 Y-4.621
N3560 X7.6361 Y-4.6215
N3570 X7.6467 Y-4.6206
N3580 X7.6578 Y-4.621
N3590 X7.6674
N3600 X7.6776 Y-4.6201
N3610 X7.6877 Y-4.621
N3620 X7.6964
N3630 X7.6946 Y-4.6113
N3640 X7.6955 Y-4.6021
N3650 Y-4.5925
N3660 Y-4.5833
N3670 X7.696 Y-4.5717
N3680 X7.6955 Y-4.5598
N3690 Y-4.5492
N3700 Y-4.539
N3710 Y-4.5289
N3720 X7.696 Y-4.5192
N3730 X7.5141 Y-4.4165
N3740 X7.5132 Y-4.4276
N3750 Y-4.4391
N3760 X7.5141 Y-4.4497
N3770 X7.5136 Y-4.458
N3780 X7.5242 Y-4.4575
N3790 X7.5334 Y-4.4589
N3800 X7.5431 Y-4.4575
N3810 X7.5546 Y-4.458
N3820 X7.5647
N3830 X7.5758 Y-4.4575
N3840 X7.585 Y-4.458
N3850 X7.5956 Y-4.4575
N3860 X7.6048 Y-4.458
N3870 X7.6145
N3880 X7.6251 Y-4.4585
N3890 X7.6357 Y-4.458
N3900 X7.6472
N3910 X7.6587
N3920 X7.6679
N3930 X7.678
N3940 X7.6868 Y-4.4575
N3950 X7.696 Y-4.4589
N3960 X7.6964 Y-4.4506
N3970 Y-4.4428
N3980 X7.6969 Y-4.4327
N3990 X7.696 Y-4.423
N4000 X7.6964 Y-4.4133
N4010 X7.6941 Y-4.4041
N4020 X7.6918 Y-4.394
N4030 X7.6872 Y-4.3834
N4040 X7.6803 Y-4.3765
N4050 X7.6739 Y-4.3714
N4060 X7.6651 Y-4.364
N4070 X7.6564 Y-4.3604
N4080 X7.6467 Y-4.3562
N4090 X7.6375 Y-4.3548
N4100 X7.6264 Y-4.3512
N4110 X7.6159 Y-4.3502
N4120 X7.6057
N4130 X7.5951 Y-4.3507
N4140 X7.5841 Y-4.3516
N4150 X7.5744 Y-4.3548
N4160 X7.5657 Y-4.3571
N4170 X7.5564 Y-4.3608
N4180 X7.5468 Y-4.3659
N4190 X7.538 Y-4.3723
N4200 X7.5293 Y-4.3783
N4210 X7.5228 Y-4.3857
N4220 X7.5187 Y-4.3944
N4230 X7.5159 Y-4.4041
N4240 G80
N4250 G0 Z0.4506
N4270 M5 M9

(DRILL1 2)
N4280 S10000 M3 M8
N4290 G0 X3.7369 Y-4.7706
N4300 G0 Z0.4506
N4320 G0 Z0.0506
N4330 G98 G81 X3.7369 Y-4.7706 Z-0.01 R0.05 F4.
N4340 X3.7377 Y-4.7803
N4350 X3.738 Y-4.7889
N4360 X3.7485 Y-4.7885
N4370 X3.7571 Y-4.7882
N4380 X3.7675 Y-4.7885
N4390 X3.7776 Y-4.7893
N4400 X3.7895 Y-4.7882
N4410 X3.7996 Y-4.7893
N4420 X3.8104 Y-4.7889
N4430 X3.8182 Y-4.7885
N4440 X3.8287
N4450 X3.8391 Y-4.7889
N4460 X3.8496 Y-4.7885
N4470 X3.86
N4480 X3.8705 Y-4.7882
N4490 X3.8824 Y-4.7893
N4500 X3.8936
N4510 X3.9014 Y-4.7889
N4520 X3.9111
N4530 X3.9204 Y-4.7897
N4540 X3.9208 Y-4.7814
N4550 X3.9204 Y-4.7721
N4560 Y-4.762
N4570 Y-4.7531
N4580 Y-4.7445
N4590 X3.9175 Y-4.7341
N4600 X3.9163 Y-4.724
N4610 X3.9104 Y-4.7143
N4620 X3.9048 Y-4.7076
N4630 X3.8977 Y-4.7024
N4640 X3.8895 Y-4.6949
N4650 X3.8805 Y-4.6904
N4660 X3.8705 Y-4.6867
N4670 X3.8615 Y-4.6837
N4680 X3.8488 Y-4.6811
N4690 X3.841 Y-4.6804
N4700 X3.8294 Y-4.68
N4710 X3.8194 Y-4.6807
N4720 X3.8067 Y-4.6818
N4730 X3.7973 Y-4.6852
N4740 X3.7891 Y-4.6874
N4750 X3.7809 Y-4.6908
N4760 X3.7701 Y-4.6964
N4770 X3.7608 Y-4.7035
N4780 X3.7526 Y-4.7087
N4790 X3.7477 Y-4.715
N4800 X3.7425 Y-4.7247
N4810 X3.7395 Y-4.7344
N4820 X3.7377 Y-4.7468
N4830 X3.7369 Y-4.7572
N4840 X3.7378 Y-4.619
N4850 X3.7488
N4860 X3.7576 Y-4.6181
N4870 X3.7659 Y-4.6186
N4880 X3.7774 Y-4.619
N4890 X3.7889 Y-4.6186
N4900 X3.8 Y-4.619
N4910 X3.8101 Y-4.6186
N4920 X3.8193 Y-4.6181
N4930 X3.8285
N4940 X3.8382 Y-4.619
N4950 X3.8488 Y-4.6186
N4960 X3.8598 Y-4.619
N4970 X3.8704 Y-4.6181
N4980 X3.8815 Y-4.6186
N4990 X3.8911
N5000 X3.9013 Y-4.6176
N5010 X3.9114 Y-4.6186
N5020 X3.9202
N5030 X3.9183 Y-4.6089
N5040 X3.9192 Y-4.5997
N5050 Y-4.59
N5060 Y-4.5808
N5070 X3.9197 Y-4.5693
N5080 X3.9192 Y-4.5573
N5090 Y-4.5467
N5100 Y-4.5366
N5110 Y-4.5265
N5120 X3.9197 Y-4.5168
N5130 X3.7378 Y-4.4141
N5140 X3.7369 Y-4.4251
N5150 Y-4.4367
N5160 X3.7378 Y-4.4472
N5170 X3.7373 Y-4.4555
N5180 X3.7479 Y-4.4551
N5190 X3.7571 Y-4.4565
N5200 X3.7668 Y-4.4551
N5210 X3.7783 Y-4.4555
N5220 X3.7885
N5230 X3.7995 Y-4.4551
N5240 X3.8087 Y-4.4555
N5250 X3.8193 Y-4.4551
N5260 X3.8285 Y-4.4555
N5270 X3.8382
N5280 X3.8488 Y-4.456
N5290 X3.8594 Y-4.4555
N5300 X3.8709
N5310 X3.8824
N5320 X3.8916
N5330 X3.9017
N5340 X3.9105 Y-4.4551
N5350 X3.9197 Y-4.4565
N5360 X3.9202 Y-4.4482
N5370 Y-4.4403
N5380 X3.9206 Y-4.4302
N5390 X3.9197 Y-4.4205
N5400 X3.9202 Y-4.4109
N5410 X3.9179 Y-4.4017
N5420 X3.9156 Y-4.3915
N5430 X3.911 Y-4.3809
N5440 X3.904 Y-4.374
N5450 X3.8976 Y-4.369
N5460 X3.8888 Y-4.3616
N5470 X3.8801 Y-4.3579
N5480 X3.8704 Y-4.3538
N5490 X3.8612 Y-4.3524
N5500 X3.8502 Y-4.3487
N5510 X3.8396 Y-4.3478
N5520 X3.8294
N5530 X3.8188 Y-4.3482
N5540 X3.8078 Y-4.3492
N5550 X3.7981 Y-4.3524
N5560 X3.7894 Y-4.3547
N5570 X3.7802 Y-4.3584
N5580 X3.7705 Y-4.3634
N5590 X3.7617 Y-4.3699
N5600 X3.753 Y-4.3759
N5610 X3.7465 Y-4.3832
N5620 X3.7424 Y-4.392
N5630 X3.7396 Y-4.4017
N5640 G80
N5650 G0 Z0.4506
N5670 M5 M9

(DRILL1 2)
N5680 S10000 M3 M8
N5690 G0 X7.5124 Y-7.2649
N5700 G0 Z0.4506
N5720 G0 Z0.0506
N5730 G98 G81 X7.5124 Y-7.2649 Z-0.01 R0.05 F4.
N5740 X7.5131 Y-7.2746
N5750 X7.5135 Y-7.2831
N5760 X7.5239 Y-7.2828
N5770 X7.5325 Y-7.2824
N5780 X7.543 Y-7.2828
N5790 X7.553 Y-7.2835
N5800 X7.565 Y-7.2824
N5810 X7.575 Y-7.2835
N5820 X7.5859 Y-7.2831
N5830 X7.5937 Y-7.2828
N5840 X7.6041
N5850 X7.6146 Y-7.2831
N5860 X7.625 Y-7.2828
N5870 X7.6355
N5880 X7.6459 Y-7.2824
N5890 X7.6578 Y-7.2835
N5900 X7.669
N5910 X7.6769 Y-7.2831
N5920 X7.6866
N5930 X7.6959 Y-7.2839
N5940 X7.6963 Y-7.2757
N5950 X7.6959 Y-7.2664
N5960 Y-7.2563
N5970 Y-7.2473
N5980 Y-7.2388
N5990 X7.6929 Y-7.2283
N6000 X7.6918 Y-7.2182
N6010 X7.6858 Y-7.2085
N6020 X7.6802 Y-7.2018
N6030 X7.6731 Y-7.1966
N6040 X7.6649 Y-7.1891
N6050 X7.656 Y-7.1847
N6060 X7.6459 Y-7.1809
N6070 X7.637 Y-7.178
N6080 X7.6243 Y-7.1753
N6090 X7.6164 Y-7.1746
N6100 X7.6049 Y-7.1742
N6110 X7.5948 Y-7.175
N6120 X7.5821 Y-7.1761
N6130 X7.5728 Y-7.1794
N6140 X7.5646 Y-7.1817
N6150 X7.5564 Y-7.185
N6160 X7.5456 Y-7.1906
N6170 X7.5362 Y-7.1977
N6180 X7.528 Y-7.2029
N6190 X7.5232 Y-7.2093
N6200 X7.518 Y-7.219
N6210 X7.515 Y-7.2287
N6220 X7.5131 Y-7.241
N6230 X7.5124 Y-7.2514
N6240 X7.5133 Y-7.1133
N6250 X7.5243
N6260 X7.5331 Y-7.1123
N6270 X7.5413 Y-7.1128
N6280 X7.5529 Y-7.1133
N6290 X7.5644 Y-7.1128
N6300 X7.5754 Y-7.1133
N6310 X7.5856 Y-7.1128
N6320 X7.5948 Y-7.1123
N6330 X7.604
N6340 X7.6136 Y-7.1133
N6350 X7.6242 Y-7.1128
N6360 X7.6353 Y-7.1133
N6370 X7.6459 Y-7.1123
N6380 X7.6569 Y-7.1128
N6390 X7.6666
N6400 X7.6767 Y-7.1119
N6410 X7.6869 Y-7.1128
N6420 X7.6956
N6430 X7.6938 Y-7.1031
N6440 X7.6947 Y-7.0939
N6450 Y-7.0842
N6460 Y-7.075
N6470 X7.6952 Y-7.0635
N6480 X7.6947 Y-7.0516
N6490 Y-7.041
N6500 Y-7.0308
N6510 Y-7.0207
N6520 X7.6952 Y-7.011
N6530 X7.5133 Y-6.9083
N6540 X7.5123 Y-6.9194
N6550 Y-6.9309
N6560 X7.5133 Y-6.9415
N6570 X7.5128 Y-6.9498
N6580 X7.5234 Y-6.9493
N6590 X7.5326 Y-6.9507
N6600 X7.5423 Y-6.9493
N6610 X7.5538 Y-6.9498
N6620 X7.5639
N6630 X7.575 Y-6.9493
N6640 X7.5842 Y-6.9498
N6650 X7.5948 Y-6.9493
N6660 X7.604 Y-6.9498
N6670 X7.6136
N6680 X7.6242 Y-6.9502
N6690 X7.6348 Y-6.9498
N6700 X7.6463
N6710 X7.6579
N6720 X7.6671
N6730 X7.6772
N6740 X7.6859 Y-6.9493
N6750 X7.6952 Y-6.9507
N6760 X7.6956 Y-6.9424
N6770 Y-6.9346
N6780 X7.6961 Y-6.9244
N6790 X7.6952 Y-6.9148
N6800 X7.6956 Y-6.9051
N6810 X7.6933 Y-6.8959
N6820 X7.691 Y-6.8858
N6830 X7.6864 Y-6.8752
N6840 X7.6795 Y-6.8683
N6850 X7.6731 Y-6.8632
N6860 X7.6643 Y-6.8558
N6870 X7.6556 Y-6.8521
N6880 X7.6459 Y-6.848
N6890 X7.6367 Y-6.8466
N6900 X7.6256 Y-6.8429
N6910 X7.615 Y-6.842
N6920 X7.6049
N6930 X7.5943 Y-6.8425
N6940 X7.5833 Y-6.8434
N6950 X7.5736 Y-6.8466
N6960 X7.5648 Y-6.8489
N6970 X7.5556 Y-6.8526
N6980 X7.5459 Y-6.8577
N6990 X7.5372 Y-6.8641
N7000 X7.5284 Y-6.8701
N7010 X7.522 Y-6.8775
N7020 X7.5179 Y-6.8862
N7030 X7.5151 Y-6.8959
N7040 G80
N7050 G0 Z0.4506
N7070 M5 M9

(DRILL1 2)
N7080 S10000 M3 M8
N7090 G0 X3.7367 Y-7.2622
N7100 G0 Z0.4506
N7120 G0 Z0.0506
N7130 G98 G81 X3.7367 Y-7.2622 Z-0.01 R0.05 F4.
N7140 X3.7375 Y-7.2719
N7150 X3.7379 Y-7.2805
N7160 X3.7483 Y-7.2801
N7170 X3.7569 Y-7.2797
N7180 X3.7673 Y-7.2801
N7190 X3.7774 Y-7.2808
N7200 X3.7893 Y-7.2797
N7210 X3.7994 Y-7.2808
N7220 X3.8102 Y-7.2805
N7230 X3.8181 Y-7.2801
N7240 X3.8285
N7250 X3.839 Y-7.2805
N7260 X3.8494 Y-7.2801
N7270 X3.8598
N7280 X3.8703 Y-7.2797
N7290 X3.8822 Y-7.2808
N7300 X3.8934
N7310 X3.9013 Y-7.2805
N7320 X3.911
N7330 X3.9203 Y-7.2812
N7340 X3.9206 Y-7.273
N7350 X3.9203 Y-7.2637
N7360 Y-7.2536
N7370 Y-7.2446
N7380 Y-7.2361
N7390 X3.9173 Y-7.2256
N7400 X3.9162 Y-7.2155
N7410 X3.9102 Y-7.2058
N7420 X3.9046 Y-7.1991
N7430 X3.8975 Y-7.1939
N7440 X3.8893 Y-7.1865
N7450 X3.8804 Y-7.182
N7460 X3.8703 Y-7.1782
N7470 X3.8613 Y-7.1753
N7480 X3.8487 Y-7.1727
N7490 X3.8408 Y-7.1719
N7500 X3.8293 Y-7.1715
N7510 X3.8192 Y-7.1723
N7520 X3.8065 Y-7.1734
N7530 X3.7972 Y-7.1768
N7540 X3.789 Y-7.179
N7550 X3.7808 Y-7.1823
N7560 X3.7699 Y-7.1879
N7570 X3.7606 Y-7.195
N7580 X3.7524 Y-7.2003
N7590 X3.7476 Y-7.2066
N7600 X3.7423 Y-7.2163
N7610 X3.7394 Y-7.226
N7620 X3.7375 Y-7.2383
N7630 X3.7367 Y-7.2487
N7640 X3.7376 Y-7.1106
N7650 X3.7487
N7660 X3.7574 Y-7.1097
N7670 X3.7657 Y-7.1101
N7680 X3.7772 Y-7.1106
N7690 X3.7887 Y-7.1101
N7700 X3.7998 Y-7.1106
N7710 X3.8099 Y-7.1101
N7720 X3.8191 Y-7.1097
N7730 X3.8284
N7740 X3.838 Y-7.1106
N7750 X3.8486 Y-7.1101
N7760 X3.8597 Y-7.1106
N7770 X3.8703 Y-7.1097
N7780 X3.8813 Y-7.1101
N7790 X3.891
N7800 X3.9011 Y-7.1092
N7810 X3.9112 Y-7.1101
N7820 X3.92
N7830 X3.9182 Y-7.1004
N7840 X3.9191 Y-7.0912
N7850 Y-7.0816
N7860 Y-7.0723
N7870 X3.9195 Y-7.0608
N7880 X3.9191 Y-7.0489
N7890 Y-7.0383
N7900 Y-7.0281
N7910 Y-7.018
N7920 X3.9195 Y-7.0083
N7930 X3.7376 Y-6.9056
N7940 X3.7367 Y-6.9167
N7950 Y-6.9282
N7960 X3.7376 Y-6.9388
N7970 X3.7372 Y-6.9471
N7980 X3.7478 Y-6.9466
N7990 X3.757 Y-6.948
N8000 X3.7666 Y-6.9466
N8010 X3.7782 Y-6.9471
N8020 X3.7883
N8030 X3.7993 Y-6.9466
N8040 X3.8085 Y-6.9471
N8050 X3.8191 Y-6.9466
N8060 X3.8284 Y-6.9471
N8070 X3.838
N8080 X3.8486 Y-6.9475
N8090 X3.8592 Y-6.9471
N8100 X3.8707
N8110 X3.8822
N8120 X3.8914
N8130 X3.9016
N8140 X3.9103 Y-6.9466
N8150 X3.9195 Y-6.948
N8160 X3.92 Y-6.9397
N8170 Y-6.9319
N8180 X3.9205 Y-6.9218
N8190 X3.9195 Y-6.9121
N8200 X3.92 Y-6.9024
N8210 X3.9177 Y-6.8932
N8220 X3.9154 Y-6.8831
N8230 X3.9108 Y-6.8725
N8240 X3.9039 Y-6.8656
N8250 X3.8974 Y-6.8605
N8260 X3.8887 Y-6.8531
N8270 X3.8799 Y-6.8495
N8280 X3.8703 Y-6.8453
N8290 X3.861 Y-6.8439
N8300 X3.85 Y-6.8402
N8310 X3.8394 Y-6.8393
N8320 X3.8293
N8330 X3.8187 Y-6.8398
N8340 X3.8076 Y-6.8407
N8350 X3.798 Y-6.8439
N8360 X3.7892 Y-6.8462
N8370 X3.78 Y-6.8499
N8380 X3.7703 Y-6.855
N8390 X3.7616 Y-6.8614
N8400 X3.7528 Y-6.8674
N8410 X3.7464 Y-6.8748
N8420 X3.7422 Y-6.8835
N8430 X3.7395 Y-6.8932
N8440 G80
N8450 G0 Z0.4506
N8470 M5 M9

(DRILL1 2)
N8480 S10000 M3 M8
N8490 G0 X3.7377 Y-9.7637
N8500 G0 Z0.4506
N8520 G0 Z0.0506
N8530 G98 G81 X3.7377 Y-9.7637 Z-0.01 R0.05 F4.
N8540 X3.7384 Y-9.7734
N8550 X3.7388 Y-9.7819
N8560 X3.7492 Y-9.7816
N8570 X3.7578 Y-9.7812
N8580 X3.7682 Y-9.7816
N8590 X3.7783 Y-9.7823
N8600 X3.7903 Y-9.7812
N8610 X3.8003 Y-9.7823
N8620 X3.8111 Y-9.7819
N8630 X3.819 Y-9.7816
N8640 X3.8294
N8650 X3.8399 Y-9.7819
N8660 X3.8503 Y-9.7816
N8670 X3.8608
N8680 X3.8712 Y-9.7812
N8690 X3.8831 Y-9.7823
N8700 X3.8943
N8710 X3.9022 Y-9.7819
N8720 X3.9119
N8730 X3.9212 Y-9.7827
N8740 X3.9216 Y-9.7745
N8750 X3.9212 Y-9.7652
N8760 Y-9.7551
N8770 Y-9.7461
N8780 Y-9.7376
N8790 X3.9182 Y-9.7271
N8800 X3.9171 Y-9.717
N8810 X3.9111 Y-9.7073
N8820 X3.9055 Y-9.7006
N8830 X3.8984 Y-9.6954
N8840 X3.8902 Y-9.6879
N8850 X3.8813 Y-9.6835
N8860 X3.8712 Y-9.6797
N8870 X3.8622 Y-9.6768
N8880 X3.8496 Y-9.6741
N8890 X3.8417 Y-9.6734
N8900 X3.8302 Y-9.673
N8910 X3.8201 Y-9.6738
N8920 X3.8074 Y-9.6749
N8930 X3.7981 Y-9.6782
N8940 X3.7899 Y-9.6805
N8950 X3.7817 Y-9.6838
N8960 X3.7709 Y-9.6894
N8970 X3.7615 Y-9.6965
N8980 X3.7533 Y-9.7017
N8990 X3.7485 Y-9.7081
N9000 X3.7432 Y-9.7178
N9010 X3.7403 Y-9.7275
N9020 X3.7384 Y-9.7398
N9030 X3.7377 Y-9.7502
N9040 X3.7385 Y-9.6121
N9050 X3.7496
N9060 X3.7583 Y-9.6111
N9070 X3.7666 Y-9.6116
N9080 X3.7781 Y-9.6121
N9090 X3.7897 Y-9.6116
N9100 X3.8007 Y-9.6121
N9110 X3.8108 Y-9.6116
N9120 X3.82 Y-9.6111
N9130 X3.8293
N9140 X3.8389 Y-9.6121
N9150 X3.8495 Y-9.6116
N9160 X3.8606 Y-9.6121
N9170 X3.8712 Y-9.6111
N9180 X3.8822 Y-9.6116
N9190 X3.8919
N9200 X3.902 Y-9.6107
N9210 X3.9121 Y-9.6116
N9220 X3.9209
N9230 X3.9191 Y-9.6019
N9240 X3.92 Y-9.5927
N9250 Y-9.5831
N9260 Y-9.5738
N9270 X3.9204 Y-9.5623
N9280 X3.92 Y-9.5504
N9290 Y-9.5398
N9300 Y-9.5296
N9310 Y-9.5195
N9320 X3.9204 Y-9.5098
N9330 X3.7385 Y-9.4071
N9340 X3.7376 Y-9.4182
N9350 Y-9.4297
N9360 X3.7385 Y-9.4403
N9370 X3.7381 Y-9.4486
N9380 X3.7487 Y-9.4481
N9390 X3.7579 Y-9.4495
N9400 X3.7675 Y-9.4481
N9410 X3.7791 Y-9.4486
N9420 X3.7892
N9430 X3.8002 Y-9.4481
N9440 X3.8095 Y-9.4486
N9450 X3.82 Y-9.4481
N9460 X3.8293 Y-9.4486
N9470 X3.8389
N9480 X3.8495 Y-9.449
N9490 X3.8601 Y-9.4486
N9500 X3.8716
N9510 X3.8831
N9520 X3.8923
N9530 X3.9025
N9540 X3.9112 Y-9.4481
N9550 X3.9204 Y-9.4495
N9560 X3.9209 Y-9.4412
N9570 Y-9.4334
N9580 X3.9214 Y-9.4233
N9590 X3.9204 Y-9.4136
N9600 X3.9209 Y-9.4039
N9610 X3.9186 Y-9.3947
N9620 X3.9163 Y-9.3846
N9630 X3.9117 Y-9.374
N9640 X3.9048 Y-9.3671
N9650 X3.8983 Y-9.362
N9660 X3.8896 Y-9.3546
N9670 X3.8808 Y-9.351
N9680 X3.8712 Y-9.3468
N9690 X3.862 Y-9.3454
N9700 X3.8509 Y-9.3417
N9710 X3.8403 Y-9.3408
N9720 X3.8302
N9730 X3.8196 Y-9.3413
N9740 X3.8085 Y-9.3422
N9750 X3.7989 Y-9.3454
N9760 X3.7901 Y-9.3477
N9770 X3.7809 Y-9.3514
N9780 X3.7712 Y-9.3565
N9790 X3.7625 Y-9.3629
N9800 X3.7537 Y-9.3689
N9810 X3.7473 Y-9.3763
N9820 X3.7431 Y-9.385
N9830 X3.7404 Y-9.3947
N9840 G80
N9850 G0 Z0.4506
N9870 M5 M9

(DRILL1 2)
N9880 S10000 M3 M8
N9890 G0 X7.5127 Y-9.767
N9900 G0 Z0.4506
N9920 G0 Z0.0506
N9930 G98 G81 X7.5127 Y-9.767 Z-0.01 R0.05 F4.
N9940 X7.5134 Y-9.7767
N9950 X7.5138 Y-9.7852
N9960 X7.5242 Y-9.7849
N9970 X7.5328 Y-9.7845
N9980 X7.5432 Y-9.7849
N9990 X7.5533 Y-9.7856
N10000 X7.5652 Y-9.7845
N10010 X7.5753 Y-9.7856
N10020 X7.5861 Y-9.7852
N10030 X7.594 Y-9.7849
N10040 X7.6044
N10050 X7.6149 Y-9.7852
N10060 X7.6253 Y-9.7849
N10070 X7.6358
N10080 X7.6462 Y-9.7845
N10090 X7.6581 Y-9.7856
N10100 X7.6693
N10110 X7.6772 Y-9.7852
N10120 X7.6869
N10130 X7.6962 Y-9.786
N10140 X7.6966 Y-9.7778
N10150 X7.6962 Y-9.7684
N10160 Y-9.7584
N10170 Y-9.7494
N10180 Y-9.7408
N10190 X7.6932 Y-9.7304
N10200 X7.6921 Y-9.7203
N10210 X7.6861 Y-9.7106
N10220 X7.6805 Y-9.7039
N10230 X7.6734 Y-9.6987
N10240 X7.6652 Y-9.6912
N10250 X7.6563 Y-9.6868
N10260 X7.6462 Y-9.683
N10270 X7.6372 Y-9.68
N10280 X7.6246 Y-9.6774
N10290 X7.6167 Y-9.6767
N10300 X7.6052 Y-9.6763
N10310 X7.5951 Y-9.6771
N10320 X7.5824 Y-9.6782
N10330 X7.5731 Y-9.6815
N10340 X7.5649 Y-9.6838
N10350 X7.5567 Y-9.6871
N10360 X7.5459 Y-9.6927
N10370 X7.5365 Y-9.6998
N10380 X7.5283 Y-9.705
N10390 X7.5235 Y-9.7114
N10400 X7.5182 Y-9.7211
N10410 X7.5153 Y-9.7308
N10420 X7.5134 Y-9.7431
N10430 X7.5127 Y-9.7535
N10440 X7.5135 Y-9.6154
N10450 X7.5246
N10460 X7.5333 Y-9.6144
N10470 X7.5416 Y-9.6149
N10480 X7.5531 Y-9.6154
N10490 X7.5647 Y-9.6149
N10500 X7.5757 Y-9.6154
N10510 X7.5858 Y-9.6149
N10520 X7.595 Y-9.6144
N10530 X7.6043
N10540 X7.6139 Y-9.6154
N10550 X7.6245 Y-9.6149
N10560 X7.6356 Y-9.6154
N10570 X7.6462 Y-9.6144
N10580 X7.6572 Y-9.6149
N10590 X7.6669
N10600 X7.677 Y-9.614
N10610 X7.6871 Y-9.6149
N10620 X7.6959
N10630 X7.6941 Y-9.6052
N10640 X7.695 Y-9.596
N10650 Y-9.5863
N10660 Y-9.5771
N10670 X7.6954 Y-9.5656
N10680 X7.695 Y-9.5536
N10690 Y-9.543
N10700 Y-9.5329
N10710 Y-9.5228
N10720 X7.6954 Y-9.5131
N10730 X7.5135 Y-9.4104
N10740 X7.5126 Y-9.4215
N10750 Y-9.433
N10760 X7.5135 Y-9.4436
N10770 X7.5131 Y-9.4519
N10780 X7.5237 Y-9.4514
N10790 X7.5329 Y-9.4528
N10800 X7.5425 Y-9.4514
N10810 X7.5541 Y-9.4519
N10820 X7.5642
N10830 X7.5752 Y-9.4514
N10840 X7.5845 Y-9.4519
N10850 X7.595 Y-9.4514
N10860 X7.6043 Y-9.4519
N10870 X7.6139
N10880 X7.6245 Y-9.4523
N10890 X7.6351 Y-9.4519
N10900 X7.6466
N10910 X7.6581
N10920 X7.6673
N10930 X7.6775
N10940 X7.6862 Y-9.4514
N10950 X7.6954 Y-9.4528
N10960 X7.6959 Y-9.4445
N10970 Y-9.4367
N10980 X7.6964 Y-9.4265
N10990 X7.6954 Y-9.4169
N11000 X7.6959 Y-9.4072
N11010 X7.6936 Y-9.398
N11020 X7.6913 Y-9.3879
N11030 X7.6867 Y-9.3773
N11040 X7.6798 Y-9.3704
N11050 X7.6733 Y-9.3653
N11060 X7.6646 Y-9.3579
N11070 X7.6558 Y-9.3542
N11080 X7.6462 Y-9.3501
N11090 X7.637 Y-9.3487
N11100 X7.6259 Y-9.345
N11110 X7.6153 Y-9.3441
N11120 X7.6052
N11130 X7.5946 Y-9.3446
N11140 X7.5835 Y-9.3455
N11150 X7.5739 Y-9.3487
N11160 X7.5651 Y-9.351
N11170 X7.5559 Y-9.3547
N11180 X7.5462 Y-9.3598
N11190 X7.5375 Y-9.3662
N11200 X7.5287 Y-9.3722
N11210 X7.5223 Y-9.3796
N11220 X7.5181 Y-9.3883
N11230 X7.5154 Y-9.398
N11240 G80
N11250 G0 Z0.4506
N11270 M5 M9

N11280 G30
N11290 M30
%
