%
(*************************************)
(* Generated by wtopace for EntityX  *)
(* Date: 3/21/2016                   *)
(*************************************)
(1001)
(PROJECT4-UT)
(T1  D=0.0039 CR=0. TAPER=118DEG - ZMIN=-0.01 - DRILL)
N10 G90 G54 G64 G50 G17 G40 G80 G94 G91.1 G49
N20 G20 (Inch)
N30 G30

(DRILL1)
N50 G30
N60 T1 G43 H1 M6
N70 S10000 M3 M8
N80 G54
N90 G0 X0.9845 Y-1.9016
N100 G0 Z0.4506
N120 G0 Z0.0506
N130 G98 G81 X0.9845 Y-1.9016 Z-0.01 R0.05 F4.
N140 X0.9817 Y-1.892
N150 X0.9776 Y-1.8832
N160 X0.9711 Y-1.8759
N170 X0.9624 Y-1.8699
N180 X0.9536 Y-1.8634
N190 X0.9439 Y-1.8584
N200 X0.9347 Y-1.8547
N210 X0.926 Y-1.8524
N220 X0.9163 Y-1.8491
N230 X0.9053 Y-1.8482
N240 X0.8947 Y-1.8478
N250 X0.8845
N260 X0.8739 Y-1.8487
N270 X0.8629 Y-1.8524
N280 X0.8537 Y-1.8537
N290 X0.844 Y-1.8579
N300 X0.8353 Y-1.8616
N310 X0.8265 Y-1.8689
N320 X0.8201 Y-1.874
N330 X0.8132 Y-1.8809
N340 X0.8086 Y-1.8915
N350 X0.8062 Y-1.9016
N360 X0.8039 Y-1.9109
N370 X0.8044 Y-1.9205
N380 X0.8035 Y-1.9302
N390 X0.8039 Y-1.9403
N400 Y-1.9482
N410 X0.8044 Y-1.9564
N420 X0.8136 Y-1.9551
N430 X0.8224 Y-1.9555
N440 X0.8325
N450 X0.8417
N460 X0.8532
N470 X0.8647
N480 X0.8753 Y-1.956
N490 X0.8859 Y-1.9555
N500 X0.8956
N510 X0.9048 Y-1.9551
N520 X0.9154 Y-1.9555
N530 X0.9246 Y-1.9551
N540 X0.9357 Y-1.9555
N550 X0.9458
N560 X0.9573 Y-1.9551
N570 X0.967 Y-1.9564
N580 X0.9762 Y-1.9551
N590 X0.9868 Y-1.9555
N600 X0.9863 Y-1.9472
N610 X0.9872 Y-1.9366
N620 Y-1.9251
N630 X0.9863 Y-1.9141
N640 X0.8044 Y-2.0168
N650 X0.8049 Y-2.0264
N660 Y-2.0366
N670 Y-2.0467
N680 Y-2.0573
N690 X0.8044 Y-2.0693
N700 X0.8049 Y-2.0808
N710 Y-2.09
N720 Y-2.0997
N730 X0.8058 Y-2.1089
N740 X0.8039 Y-2.1185
N750 X0.8127
N760 X0.8228 Y-2.1176
N770 X0.833 Y-2.1185
N780 X0.8426
N790 X0.8537 Y-2.1181
N800 X0.8643 Y-2.119
N810 X0.8753 Y-2.1185
N820 X0.8859 Y-2.119
N830 X0.8956 Y-2.1181
N840 X0.9048
N850 X0.914 Y-2.1185
N860 X0.9241 Y-2.119
N870 X0.9352 Y-2.1185
N880 X0.9467 Y-2.119
N890 X0.9582 Y-2.1185
N900 X0.9665 Y-2.1181
N910 X0.9753 Y-2.119
N920 X0.9863
N930 X0.9872 Y-2.2572
N940 X0.9864 Y-2.2467
N950 X0.9846 Y-2.2344
N960 X0.9816 Y-2.2247
N970 X0.9764 Y-2.215
N980 X0.9715 Y-2.2087
N990 X0.9633 Y-2.2035
N1000 X0.954 Y-2.1964
N1010 X0.9432 Y-2.1908
N1020 X0.935 Y-2.1874
N1030 X0.9268 Y-2.1852
N1040 X0.9174 Y-2.1818
N1050 X0.9048 Y-2.1807
N1060 X0.8947 Y-2.18
N1070 X0.8831 Y-2.1803
N1080 X0.8753 Y-2.1811
N1090 X0.8626 Y-2.1837
N1100 X0.8537 Y-2.1867
N1110 X0.8436 Y-2.1904
N1120 X0.8346 Y-2.1949
N1130 X0.8264 Y-2.2023
N1140 X0.8193 Y-2.2076
N1150 X0.8137 Y-2.2143
N1160 X0.8078 Y-2.224
N1170 X0.8067 Y-2.2341
N1180 X0.8037 Y-2.2445
N1190 Y-2.2531
N1200 Y-2.262
N1210 Y-2.2721
N1220 X0.8033 Y-2.2814
N1230 X0.8037 Y-2.2896
N1240 X0.813 Y-2.2889
N1250 X0.8227
N1260 X0.8305 Y-2.2893
N1270 X0.8417
N1280 X0.8537 Y-2.2881
N1290 X0.8641 Y-2.2885
N1300 X0.8745
N1310 X0.885 Y-2.2889
N1320 X0.8954 Y-2.2885
N1330 X0.9059
N1340 X0.9137 Y-2.2889
N1350 X0.9245 Y-2.2893
N1360 X0.9346 Y-2.2881
N1370 X0.9465 Y-2.2893
N1380 X0.9566 Y-2.2885
N1390 X0.967 Y-2.2881
N1400 X0.9756 Y-2.2885
N1410 X0.9861 Y-2.2889
N1420 X0.9864 Y-2.2803
N1430 X0.9872 Y-2.2706
N1440 G80
N1450 G0 Z0.4506
N1470 M5 M9

(DRILL1)
N1480 S10000 M3 M8
N1490 G0 X4.7596 Y-1.8993
N1500 G0 Z0.4506
N1520 G0 Z0.0506
N1530 G98 G81 X4.7596 Y-1.8993 Z-0.01 R0.05 F4.
N1540 X4.7569 Y-1.8896
N1550 X4.7527 Y-1.8809
N1560 X4.7463 Y-1.8735
N1570 X4.7375 Y-1.8675
N1580 X4.7288 Y-1.8611
N1590 X4.7191 Y-1.856
N1600 X4.7099 Y-1.8523
N1610 X4.7011 Y-1.85
N1620 X4.6915 Y-1.8468
N1630 X4.6804 Y-1.8459
N1640 X4.6698 Y-1.8454
N1650 X4.6597
N1660 X4.6491 Y-1.8463
N1670 X4.6381 Y-1.85
N1680 X4.6288 Y-1.8514
N1690 X4.6192 Y-1.8555
N1700 X4.6104 Y-1.8592
N1710 X4.6017 Y-1.8666
N1720 X4.5952 Y-1.8717
N1730 X4.5883 Y-1.8786
N1740 X4.5837 Y-1.8892
N1750 X4.5814 Y-1.8993
N1760 X4.5791 Y-1.9085
N1770 X4.5796 Y-1.9182
N1780 X4.5786 Y-1.9278
N1790 X4.5791 Y-1.938
N1800 Y-1.9458
N1810 X4.5796 Y-1.9541
N1820 X4.5888 Y-1.9527
N1830 X4.5975 Y-1.9532
N1840 X4.6077
N1850 X4.6169
N1860 X4.6284
N1870 X4.6399
N1880 X4.6505 Y-1.9536
N1890 X4.6611 Y-1.9532
N1900 X4.6708
N1910 X4.68 Y-1.9527
N1920 X4.6906 Y-1.9532
N1930 X4.6998 Y-1.9527
N1940 X4.7108 Y-1.9532
N1950 X4.7209
N1960 X4.7325 Y-1.9527
N1970 X4.7421 Y-1.9541
N1980 X4.7513 Y-1.9527
N1990 X4.7619 Y-1.9532
N2000 X4.7615 Y-1.9449
N2010 X4.7624 Y-1.9343
N2020 Y-1.9228
N2030 X4.7615 Y-1.9117
N2040 X4.5796 Y-2.0144
N2050 X4.58 Y-2.0241
N2060 Y-2.0342
N2070 Y-2.0444
N2080 Y-2.0549
N2090 X4.5796 Y-2.0669
N2100 X4.58 Y-2.0784
N2110 Y-2.0876
N2120 Y-2.0973
N2130 X4.5809 Y-2.1065
N2140 X4.5791 Y-2.1162
N2150 X4.5879
N2160 X4.598 Y-2.1153
N2170 X4.6081 Y-2.1162
N2180 X4.6178
N2190 X4.6288 Y-2.1157
N2200 X4.6394 Y-2.1167
N2210 X4.6505 Y-2.1162
N2220 X4.6611 Y-2.1167
N2230 X4.6708 Y-2.1157
N2240 X4.68
N2250 X4.6892 Y-2.1162
N2260 X4.6993 Y-2.1167
N2270 X4.7104 Y-2.1162
N2280 X4.7219 Y-2.1167
N2290 X4.7334 Y-2.1162
N2300 X4.7417 Y-2.1157
N2310 X4.7504 Y-2.1167
N2320 X4.7615
N2330 X4.7624 Y-2.2548
N2340 X4.7616 Y-2.2444
N2350 X4.7597 Y-2.2321
N2360 X4.7568 Y-2.2224
N2370 X4.7515 Y-2.2127
N2380 X4.7467 Y-2.2063
N2390 X4.7385 Y-2.2011
N2400 X4.7292 Y-2.194
N2410 X4.7183 Y-2.1884
N2420 X4.7101 Y-2.1851
N2430 X4.7019 Y-2.1828
N2440 X4.6926 Y-2.1795
N2450 X4.6799 Y-2.1784
N2460 X4.6698 Y-2.1776
N2470 X4.6583 Y-2.178
N2480 X4.6504 Y-2.1787
N2490 X4.6378 Y-2.1813
N2500 X4.6288 Y-2.1843
N2510 X4.6187 Y-2.1881
N2520 X4.6098 Y-2.1925
N2530 X4.6016 Y-2.2
N2540 X4.5945 Y-2.2052
N2550 X4.5889 Y-2.2119
N2560 X4.5829 Y-2.2216
N2570 X4.5818 Y-2.2317
N2580 X4.5788 Y-2.2422
N2590 Y-2.2507
N2600 Y-2.2597
N2610 Y-2.2698
N2620 X4.5785 Y-2.2791
N2630 X4.5788 Y-2.2873
N2640 X4.5882 Y-2.2865
N2650 X4.5979
N2660 X4.6057 Y-2.2869
N2670 X4.6169
N2680 X4.6288 Y-2.2858
N2690 X4.6393 Y-2.2862
N2700 X4.6497
N2710 X4.6601 Y-2.2865
N2720 X4.6706 Y-2.2862
N2730 X4.681
N2740 X4.6889 Y-2.2865
N2750 X4.6997 Y-2.2869
N2760 X4.7098 Y-2.2858
N2770 X4.7217 Y-2.2869
N2780 X4.7318 Y-2.2862
N2790 X4.7422 Y-2.2858
N2800 X4.7508 Y-2.2862
N2810 X4.7612 Y-2.2865
N2820 X4.7616 Y-2.278
N2830 X4.7624 Y-2.2683
N2840 G80
N2850 G0 Z0.4506
N2870 M5 M9

(DRILL1)
N2880 S10000 M3 M8
N2890 G0 X0.9841 Y-4.4041
N2900 G0 Z0.4506
N2920 G0 Z0.0506
N2930 G98 G81 X0.9841 Y-4.4041 Z-0.01 R0.05 F4.
N2940 X0.9813 Y-4.3944
N2950 X0.9772 Y-4.3857
N2960 X0.9707 Y-4.3783
N2970 X0.962 Y-4.3723
N2980 X0.9532 Y-4.3659
N2990 X0.9436 Y-4.3608
N3000 X0.9343 Y-4.3571
N3010 X0.9256 Y-4.3548
N3020 X0.9159 Y-4.3516
N3030 X0.9049 Y-4.3507
N3040 X0.8943 Y-4.3502
N3050 X0.8841
N3060 X0.8736 Y-4.3512
N3070 X0.8625 Y-4.3548
N3080 X0.8533 Y-4.3562
N3090 X0.8436 Y-4.3604
N3100 X0.8349 Y-4.364
N3110 X0.8261 Y-4.3714
N3120 X0.8197 Y-4.3765
N3130 X0.8128 Y-4.3834
N3140 X0.8082 Y-4.394
N3150 X0.8059 Y-4.4041
N3160 X0.8036 Y-4.4133
N3170 X0.804 Y-4.423
N3180 X0.8031 Y-4.4327
N3190 X0.8036 Y-4.4428
N3200 Y-4.4506
N3210 X0.804 Y-4.4589
N3220 X0.8132 Y-4.4575
N3230 X0.822 Y-4.458
N3240 X0.8321
N3250 X0.8413
N3260 X0.8528
N3270 X0.8643
N3280 X0.8749 Y-4.4585
N3290 X0.8855 Y-4.458
N3300 X0.8952
N3310 X0.9044 Y-4.4575
N3320 X0.915 Y-4.458
N3330 X0.9242 Y-4.4575
N3340 X0.9353 Y-4.458
N3350 X0.9454
N3360 X0.9569 Y-4.4575
N3370 X0.9666 Y-4.4589
N3380 X0.9758 Y-4.4575
N3390 X0.9864 Y-4.458
N3400 X0.9859 Y-4.4497
N3410 X0.9868 Y-4.4391
N3420 Y-4.4276
N3430 X0.9859 Y-4.4165
N3440 X0.804 Y-4.5192
N3450 X0.8045 Y-4.5289
N3460 Y-4.539
N3470 Y-4.5492
N3480 Y-4.5598
N3490 X0.804 Y-4.5717
N3500 X0.8045 Y-4.5833
N3510 Y-4.5925
N3520 Y-4.6021
N3530 X0.8054 Y-4.6113
N3540 X0.8036 Y-4.621
N3550 X0.8123
N3560 X0.8224 Y-4.6201
N3570 X0.8326 Y-4.621
N3580 X0.8422
N3590 X0.8533 Y-4.6206
N3600 X0.8639 Y-4.6215
N3610 X0.8749 Y-4.621
N3620 X0.8855 Y-4.6215
N3630 X0.8952 Y-4.6206
N3640 X0.9044
N3650 X0.9136 Y-4.621
N3660 X0.9238 Y-4.6215
N3670 X0.9348 Y-4.621
N3680 X0.9463 Y-4.6215
N3690 X0.9578 Y-4.621
N3700 X0.9661 Y-4.6206
N3710 X0.9749 Y-4.6215
N3720 X0.9859
N3730 X0.9868 Y-4.7597
N3740 X0.9861 Y-4.7492
N3750 X0.9842 Y-4.7369
N3760 X0.9812 Y-4.7272
N3770 X0.976 Y-4.7175
N3780 X0.9711 Y-4.7112
N3790 X0.9629 Y-4.7059
N3800 X0.9536 Y-4.6989
N3810 X0.9428 Y-4.6933
N3820 X0.9346 Y-4.6899
N3830 X0.9264 Y-4.6877
N3840 X0.917 Y-4.6843
N3850 X0.9044 Y-4.6832
N3860 X0.8943 Y-4.6824
N3870 X0.8827 Y-4.6828
N3880 X0.8749 Y-4.6836
N3890 X0.8622 Y-4.6862
N3900 X0.8533 Y-4.6892
N3910 X0.8432 Y-4.6929
N3920 X0.8342 Y-4.6974
N3930 X0.826 Y-4.7048
N3940 X0.8189 Y-4.71
N3950 X0.8133 Y-4.7168
N3960 X0.8074 Y-4.7265
N3970 X0.8063 Y-4.7365
N3980 X0.8033 Y-4.747
N3990 Y-4.7556
N4000 Y-4.7645
N4010 Y-4.7746
N4020 X0.8029 Y-4.7839
N4030 X0.8033 Y-4.7921
N4040 X0.8126 Y-4.7914
N4050 X0.8223
N4060 X0.8301 Y-4.7917
N4070 X0.8413
N4080 X0.8533 Y-4.7906
N4090 X0.8637 Y-4.791
N4100 X0.8741
N4110 X0.8846 Y-4.7914
N4120 X0.895 Y-4.791
N4130 X0.9055
N4140 X0.9133 Y-4.7914
N4150 X0.9241 Y-4.7917
N4160 X0.9342 Y-4.7906
N4170 X0.9461 Y-4.7917
N4180 X0.9562 Y-4.791
N4190 X0.9667 Y-4.7906
N4200 X0.9752 Y-4.791
N4210 X0.9857 Y-4.7914
N4220 X0.9861 Y-4.7828
N4230 X0.9868 Y-4.7731
N4240 G80
N4250 G0 Z0.4506
N4270 M5 M9

(DRILL1)
N4280 S10000 M3 M8
N4290 G0 X4.7604 Y-4.4017
N4300 G0 Z0.4506
N4320 G0 Z0.0506
N4330 G98 G81 X4.7604 Y-4.4017 Z-0.01 R0.05 F4.
N4340 X4.7576 Y-4.392
N4350 X4.7535 Y-4.3832
N4360 X4.747 Y-4.3759
N4370 X4.7383 Y-4.3699
N4380 X4.7295 Y-4.3634
N4390 X4.7198 Y-4.3584
N4400 X4.7106 Y-4.3547
N4410 X4.7019 Y-4.3524
N4420 X4.6922 Y-4.3492
N4430 X4.6811 Y-4.3482
N4440 X4.6706 Y-4.3478
N4450 X4.6604
N4460 X4.6498 Y-4.3487
N4470 X4.6388 Y-4.3524
N4480 X4.6296 Y-4.3538
N4490 X4.6199 Y-4.3579
N4500 X4.6111 Y-4.3616
N4510 X4.6024 Y-4.369
N4520 X4.596 Y-4.374
N4530 X4.589 Y-4.3809
N4540 X4.5844 Y-4.3915
N4550 X4.5821 Y-4.4017
N4560 X4.5798 Y-4.4109
N4570 X4.5803 Y-4.4205
N4580 X4.5794 Y-4.4302
N4590 X4.5798 Y-4.4403
N4600 Y-4.4482
N4610 X4.5803 Y-4.4565
N4620 X4.5895 Y-4.4551
N4630 X4.5983 Y-4.4555
N4640 X4.6084
N4650 X4.6176
N4660 X4.6291
N4670 X4.6406
N4680 X4.6512 Y-4.456
N4690 X4.6618 Y-4.4555
N4700 X4.6715
N4710 X4.6807 Y-4.4551
N4720 X4.6913 Y-4.4555
N4730 X4.7005 Y-4.4551
N4740 X4.7115 Y-4.4555
N4750 X4.7217
N4760 X4.7332 Y-4.4551
N4770 X4.7429 Y-4.4565
N4780 X4.7521 Y-4.4551
N4790 X4.7627 Y-4.4555
N4800 X4.7622 Y-4.4472
N4810 X4.7631 Y-4.4367
N4820 Y-4.4251
N4830 X4.7622 Y-4.4141
N4840 X4.5803 Y-4.5168
N4850 X4.5808 Y-4.5265
N4860 Y-4.5366
N4870 Y-4.5467
N4880 Y-4.5573
N4890 X4.5803 Y-4.5693
N4900 X4.5808 Y-4.5808
N4910 Y-4.59
N4920 Y-4.5997
N4930 X4.5817 Y-4.6089
N4940 X4.5798 Y-4.6186
N4950 X4.5886
N4960 X4.5987 Y-4.6176
N4970 X4.6088 Y-4.6186
N4980 X4.6185
N4990 X4.6296 Y-4.6181
N5000 X4.6402 Y-4.619
N5010 X4.6512 Y-4.6186
N5020 X4.6618 Y-4.619
N5030 X4.6715 Y-4.6181
N5040 X4.6807
N5050 X4.6899 Y-4.6186
N5060 X4.7 Y-4.619
N5070 X4.7111 Y-4.6186
N5080 X4.7226 Y-4.619
N5090 X4.7341 Y-4.6186
N5100 X4.7424 Y-4.6181
N5110 X4.7511 Y-4.619
N5120 X4.7622
N5130 X4.7631 Y-4.7572
N5140 X4.7623 Y-4.7468
N5150 X4.7605 Y-4.7344
N5160 X4.7575 Y-4.7247
N5170 X4.7523 Y-4.715
N5180 X4.7474 Y-4.7087
N5190 X4.7392 Y-4.7035
N5200 X4.7299 Y-4.6964
N5210 X4.7191 Y-4.6908
N5220 X4.7109 Y-4.6874
N5230 X4.7027 Y-4.6852
N5240 X4.6933 Y-4.6818
N5250 X4.6806 Y-4.6807
N5260 X4.6706 Y-4.68
N5270 X4.659 Y-4.6804
N5280 X4.6512 Y-4.6811
N5290 X4.6385 Y-4.6837
N5300 X4.6295 Y-4.6867
N5310 X4.6195 Y-4.6904
N5320 X4.6105 Y-4.6949
N5330 X4.6023 Y-4.7024
N5340 X4.5952 Y-4.7076
N5350 X4.5896 Y-4.7143
N5360 X4.5837 Y-4.724
N5370 X4.5825 Y-4.7341
N5380 X4.5796 Y-4.7445
N5390 Y-4.7531
N5400 Y-4.762
N5410 Y-4.7721
N5420 X4.5792 Y-4.7814
N5430 X4.5796 Y-4.7897
N5440 X4.5889 Y-4.7889
N5450 X4.5986
N5460 X4.6064 Y-4.7893
N5470 X4.6176
N5480 X4.6295 Y-4.7882
N5490 X4.64 Y-4.7885
N5500 X4.6504
N5510 X4.6609 Y-4.7889
N5520 X4.6713 Y-4.7885
N5530 X4.6818
N5540 X4.6896 Y-4.7889
N5550 X4.7004 Y-4.7893
N5560 X4.7105 Y-4.7882
N5570 X4.7224 Y-4.7893
N5580 X4.7325 Y-4.7885
N5590 X4.7429 Y-4.7882
N5600 X4.7515 Y-4.7885
N5610 X4.762 Y-4.7889
N5620 X4.7623 Y-4.7803
N5630 X4.7631 Y-4.7706
N5640 G80
N5650 G0 Z0.4506
N5670 M5 M9

(DRILL1)
N5680 S10000 M3 M8
N5690 G0 X0.9849 Y-6.8959
N5700 G0 Z0.4506
N5720 G0 Z0.0506
N5730 G98 G81 X0.9849 Y-6.8959 Z-0.01 R0.05 F4.
N5740 X0.9821 Y-6.8862
N5750 X0.978 Y-6.8775
N5760 X0.9715 Y-6.8701
N5770 X0.9628 Y-6.8641
N5780 X0.954 Y-6.8577
N5790 X0.9444 Y-6.8526
N5800 X0.9352 Y-6.8489
N5810 X0.9264 Y-6.8466
N5820 X0.9167 Y-6.8434
N5830 X0.9057 Y-6.8425
N5840 X0.8951 Y-6.842
N5850 X0.885
N5860 X0.8744 Y-6.8429
N5870 X0.8633 Y-6.8466
N5880 X0.8541 Y-6.848
N5890 X0.8444 Y-6.8521
N5900 X0.8357 Y-6.8558
N5910 X0.8269 Y-6.8632
N5920 X0.8205 Y-6.8683
N5930 X0.8136 Y-6.8752
N5940 X0.809 Y-6.8858
N5950 X0.8067 Y-6.8959
N5960 X0.8044 Y-6.9051
N5970 X0.8048 Y-6.9148
N5980 X0.8039 Y-6.9244
N5990 X0.8044 Y-6.9346
N6000 Y-6.9424
N6010 X0.8048 Y-6.9507
N6020 X0.8141 Y-6.9493
N6030 X0.8228 Y-6.9498
N6040 X0.8329
N6050 X0.8421
N6060 X0.8537
N6070 X0.8652
N6080 X0.8758 Y-6.9502
N6090 X0.8864 Y-6.9498
N6100 X0.896
N6110 X0.9052 Y-6.9493
N6120 X0.9158 Y-6.9498
N6130 X0.925 Y-6.9493
N6140 X0.9361 Y-6.9498
N6150 X0.9462
N6160 X0.9577 Y-6.9493
N6170 X0.9674 Y-6.9507
N6180 X0.9766 Y-6.9493
N6190 X0.9872 Y-6.9498
N6200 X0.9867 Y-6.9415
N6210 X0.9877 Y-6.9309
N6220 Y-6.9194
N6230 X0.9867 Y-6.9083
N6240 X0.8048 Y-7.011
N6250 X0.8053 Y-7.0207
N6260 Y-7.0308
N6270 Y-7.041
N6280 Y-7.0516
N6290 X0.8048 Y-7.0635
N6300 X0.8053 Y-7.075
N6310 Y-7.0842
N6320 Y-7.0939
N6330 X0.8062 Y-7.1031
N6340 X0.8044 Y-7.1128
N6350 X0.8131
N6360 X0.8233 Y-7.1119
N6370 X0.8334 Y-7.1128
N6380 X0.8431
N6390 X0.8541 Y-7.1123
N6400 X0.8647 Y-7.1133
N6410 X0.8758 Y-7.1128
N6420 X0.8864 Y-7.1133
N6430 X0.896 Y-7.1123
N6440 X0.9052
N6450 X0.9144 Y-7.1128
N6460 X0.9246 Y-7.1133
N6470 X0.9356 Y-7.1128
N6480 X0.9471 Y-7.1133
N6490 X0.9587 Y-7.1128
N6500 X0.9669 Y-7.1123
N6510 X0.9757 Y-7.1133
N6520 X0.9867
N6530 X0.9876 Y-7.2514
N6540 X0.9869 Y-7.241
N6550 X0.985 Y-7.2287
N6560 X0.982 Y-7.219
N6570 X0.9768 Y-7.2093
N6580 X0.972 Y-7.2029
N6590 X0.9638 Y-7.1977
N6600 X0.9544 Y-7.1906
N6610 X0.9436 Y-7.185
N6620 X0.9354 Y-7.1817
N6630 X0.9272 Y-7.1794
N6640 X0.9179 Y-7.1761
N6650 X0.9052 Y-7.175
N6660 X0.8951 Y-7.1742
N6670 X0.8836 Y-7.1746
N6680 X0.8757 Y-7.1753
N6690 X0.863 Y-7.178
N6700 X0.8541 Y-7.1809
N6710 X0.844 Y-7.1847
N6720 X0.8351 Y-7.1891
N6730 X0.8269 Y-7.1966
N6740 X0.8198 Y-7.2018
N6750 X0.8142 Y-7.2085
N6760 X0.8082 Y-7.2182
N6770 X0.8071 Y-7.2283
N6780 X0.8041 Y-7.2388
N6790 Y-7.2473
N6800 Y-7.2563
N6810 Y-7.2664
N6820 X0.8037 Y-7.2757
N6830 X0.8041 Y-7.2839
N6840 X0.8134 Y-7.2831
N6850 X0.8231
N6860 X0.831 Y-7.2835
N6870 X0.8421
N6880 X0.8541 Y-7.2824
N6890 X0.8645 Y-7.2828
N6900 X0.875
N6910 X0.8854 Y-7.2831
N6920 X0.8959 Y-7.2828
N6930 X0.9063
N6940 X0.9141 Y-7.2831
N6950 X0.925 Y-7.2835
N6960 X0.935 Y-7.2824
N6970 X0.947 Y-7.2835
N6980 X0.957 Y-7.2828
N6990 X0.9675 Y-7.2824
N7000 X0.9761 Y-7.2828
N7010 X0.9865 Y-7.2831
N7020 X0.9869 Y-7.2746
N7030 X0.9876 Y-7.2649
N7040 G80
N7050 G0 Z0.4506
N7070 M5 M9

(DRILL1)
N7080 S10000 M3 M8
N7090 G0 X4.7605 Y-6.8932
N7100 G0 Z0.4506
N7120 G0 Z0.0506
N7130 G98 G81 X4.7605 Y-6.8932 Z-0.01 R0.05 F4.
N7140 X4.7578 Y-6.8835
N7150 X4.7536 Y-6.8748
N7160 X4.7472 Y-6.8674
N7170 X4.7384 Y-6.8614
N7180 X4.7297 Y-6.855
N7190 X4.72 Y-6.8499
N7200 X4.7108 Y-6.8462
N7210 X4.702 Y-6.8439
N7220 X4.6924 Y-6.8407
N7230 X4.6813 Y-6.8398
N7240 X4.6707 Y-6.8393
N7250 X4.6606
N7260 X4.65 Y-6.8402
N7270 X4.6389 Y-6.8439
N7280 X4.6297 Y-6.8453
N7290 X4.6201 Y-6.8495
N7300 X4.6113 Y-6.8531
N7310 X4.6026 Y-6.8605
N7320 X4.5961 Y-6.8656
N7330 X4.5892 Y-6.8725
N7340 X4.5846 Y-6.8831
N7350 X4.5823 Y-6.8932
N7360 X4.58 Y-6.9024
N7370 X4.5805 Y-6.9121
N7380 X4.5795 Y-6.9218
N7390 X4.58 Y-6.9319
N7400 Y-6.9397
N7410 X4.5805 Y-6.948
N7420 X4.5897 Y-6.9466
N7430 X4.5984 Y-6.9471
N7440 X4.6086
N7450 X4.6178
N7460 X4.6293
N7470 X4.6408
N7480 X4.6514 Y-6.9475
N7490 X4.662 Y-6.9471
N7500 X4.6716
N7510 X4.6809 Y-6.9466
N7520 X4.6914 Y-6.9471
N7530 X4.7007 Y-6.9466
N7540 X4.7117 Y-6.9471
N7550 X4.7218
N7560 X4.7334 Y-6.9466
N7570 X4.743 Y-6.948
N7580 X4.7522 Y-6.9466
N7590 X4.7628 Y-6.9471
N7600 X4.7624 Y-6.9388
N7610 X4.7633 Y-6.9282
N7620 Y-6.9167
N7630 X4.7624 Y-6.9056
N7640 X4.5805 Y-7.0083
N7650 X4.5809 Y-7.018
N7660 Y-7.0281
N7670 Y-7.0383
N7680 Y-7.0489
N7690 X4.5805 Y-7.0608
N7700 X4.5809 Y-7.0723
N7710 Y-7.0816
N7720 Y-7.0912
N7730 X4.5818 Y-7.1004
N7740 X4.58 Y-7.1101
N7750 X4.5888
N7760 X4.5989 Y-7.1092
N7770 X4.609 Y-7.1101
N7780 X4.6187
N7790 X4.6297 Y-7.1097
N7800 X4.6403 Y-7.1106
N7810 X4.6514 Y-7.1101
N7820 X4.662 Y-7.1106
N7830 X4.6716 Y-7.1097
N7840 X4.6809
N7850 X4.6901 Y-7.1101
N7860 X4.7002 Y-7.1106
N7870 X4.7113 Y-7.1101
N7880 X4.7228 Y-7.1106
N7890 X4.7343 Y-7.1101
N7900 X4.7426 Y-7.1097
N7910 X4.7513 Y-7.1106
N7920 X4.7624
N7930 X4.7632 Y-7.2487
N7940 X4.7625 Y-7.2383
N7950 X4.7606 Y-7.226
N7960 X4.7577 Y-7.2163
N7970 X4.7524 Y-7.2066
N7980 X4.7476 Y-7.2003
N7990 X4.7394 Y-7.195
N8000 X4.73 Y-7.1879
N8010 X4.7192 Y-7.1823
N8020 X4.711 Y-7.179
N8030 X4.7028 Y-7.1768
N8040 X4.6935 Y-7.1734
N8050 X4.6808 Y-7.1723
N8060 X4.6707 Y-7.1715
N8070 X4.6592 Y-7.1719
N8080 X4.6513 Y-7.1727
N8090 X4.6387 Y-7.1753
N8100 X4.6297 Y-7.1782
N8110 X4.6196 Y-7.182
N8120 X4.6107 Y-7.1865
N8130 X4.6025 Y-7.1939
N8140 X4.5954 Y-7.1991
N8150 X4.5898 Y-7.2058
N8160 X4.5838 Y-7.2155
N8170 X4.5827 Y-7.2256
N8180 X4.5797 Y-7.2361
N8190 Y-7.2446
N8200 Y-7.2536
N8210 Y-7.2637
N8220 X4.5793 Y-7.273
N8230 X4.5797 Y-7.2812
N8240 X4.589 Y-7.2805
N8250 X4.5987
N8260 X4.6066 Y-7.2808
N8270 X4.6178
N8280 X4.6297 Y-7.2797
N8290 X4.6402 Y-7.2801
N8300 X4.6506
N8310 X4.661 Y-7.2805
N8320 X4.6715 Y-7.2801
N8330 X4.6819
N8340 X4.6898 Y-7.2805
N8350 X4.7006 Y-7.2808
N8360 X4.7107 Y-7.2797
N8370 X4.7226 Y-7.2808
N8380 X4.7327 Y-7.2801
N8390 X4.7431 Y-7.2797
N8400 X4.7517 Y-7.2801
N8410 X4.7621 Y-7.2805
N8420 X4.7625 Y-7.2719
N8430 X4.7632 Y-7.2622
N8440 G80
N8450 G0 Z0.4506
N8470 M5 M9

(DRILL1)
N8480 S10000 M3 M8
N8490 G0 X4.7596 Y-9.3947
N8500 G0 Z0.4506
N8520 G0 Z0.0506
N8530 G98 G81 X4.7596 Y-9.3947 Z-0.01 R0.05 F4.
N8540 X4.7569 Y-9.385
N8550 X4.7527 Y-9.3763
N8560 X4.7463 Y-9.3689
N8570 X4.7375 Y-9.3629
N8580 X4.7288 Y-9.3565
N8590 X4.7191 Y-9.3514
N8600 X4.7099 Y-9.3477
N8610 X4.7011 Y-9.3454
N8620 X4.6915 Y-9.3422
N8630 X4.6804 Y-9.3413
N8640 X4.6698 Y-9.3408
N8650 X4.6597
N8660 X4.6491 Y-9.3417
N8670 X4.638 Y-9.3454
N8680 X4.6288 Y-9.3468
N8690 X4.6192 Y-9.351
N8700 X4.6104 Y-9.3546
N8710 X4.6017 Y-9.362
N8720 X4.5952 Y-9.3671
N8730 X4.5883 Y-9.374
N8740 X4.5837 Y-9.3846
N8750 X4.5814 Y-9.3947
N8760 X4.5791 Y-9.4039
N8770 X4.5796 Y-9.4136
N8780 X4.5786 Y-9.4233
N8790 X4.5791 Y-9.4334
N8800 Y-9.4412
N8810 X4.5796 Y-9.4495
N8820 X4.5888 Y-9.4481
N8830 X4.5975 Y-9.4486
N8840 X4.6076
N8850 X4.6169
N8860 X4.6284
N8870 X4.6399
N8880 X4.6505 Y-9.449
N8890 X4.6611 Y-9.4486
N8900 X4.6707
N8910 X4.68 Y-9.4481
N8920 X4.6905 Y-9.4486
N8930 X4.6998 Y-9.4481
N8940 X4.7108 Y-9.4486
N8950 X4.7209
N8960 X4.7325 Y-9.4481
N8970 X4.7421 Y-9.4495
N8980 X4.7513 Y-9.4481
N8990 X4.7619 Y-9.4486
N9000 X4.7615 Y-9.4403
N9010 X4.7624 Y-9.4297
N9020 Y-9.4182
N9030 X4.7615 Y-9.4071
N9040 X4.5796 Y-9.5098
N9050 X4.58 Y-9.5195
N9060 Y-9.5296
N9070 Y-9.5398
N9080 Y-9.5504
N9090 X4.5796 Y-9.5623
N9100 X4.58 Y-9.5738
N9110 Y-9.5831
N9120 Y-9.5927
N9130 X4.5809 Y-9.6019
N9140 X4.5791 Y-9.6116
N9150 X4.5878
N9160 X4.598 Y-9.6107
N9170 X4.6081 Y-9.6116
N9180 X4.6178
N9190 X4.6288 Y-9.6111
N9200 X4.6394 Y-9.6121
N9210 X4.6505 Y-9.6116
N9220 X4.6611 Y-9.6121
N9230 X4.6707 Y-9.6111
N9240 X4.68
N9250 X4.6892 Y-9.6116
N9260 X4.6993 Y-9.6121
N9270 X4.7103 Y-9.6116
N9280 X4.7219 Y-9.6121
N9290 X4.7334 Y-9.6116
N9300 X4.7417 Y-9.6111
N9310 X4.7504 Y-9.6121
N9320 X4.7615
N9330 X4.7623 Y-9.7502
N9340 X4.7616 Y-9.7398
N9350 X4.7597 Y-9.7275
N9360 X4.7567 Y-9.7178
N9370 X4.7515 Y-9.7081
N9380 X4.7467 Y-9.7017
N9390 X4.7385 Y-9.6965
N9400 X4.7291 Y-9.6894
N9410 X4.7183 Y-9.6838
N9420 X4.7101 Y-9.6805
N9430 X4.7019 Y-9.6782
N9440 X4.6926 Y-9.6749
N9450 X4.6799 Y-9.6738
N9460 X4.6698 Y-9.673
N9470 X4.6583 Y-9.6734
N9480 X4.6504 Y-9.6741
N9490 X4.6378 Y-9.6768
N9500 X4.6288 Y-9.6797
N9510 X4.6187 Y-9.6835
N9520 X4.6098 Y-9.6879
N9530 X4.6016 Y-9.6954
N9540 X4.5945 Y-9.7006
N9550 X4.5889 Y-9.7073
N9560 X4.5829 Y-9.717
N9570 X4.5818 Y-9.7271
N9580 X4.5788 Y-9.7376
N9590 Y-9.7461
N9600 Y-9.7551
N9610 Y-9.7652
N9620 X4.5784 Y-9.7745
N9630 X4.5788 Y-9.7827
N9640 X4.5881 Y-9.7819
N9650 X4.5978
N9660 X4.6057 Y-9.7823
N9670 X4.6169
N9680 X4.6288 Y-9.7812
N9690 X4.6392 Y-9.7816
N9700 X4.6497
N9710 X4.6601 Y-9.7819
N9720 X4.6706 Y-9.7816
N9730 X4.681
N9740 X4.6889 Y-9.7819
N9750 X4.6997 Y-9.7823
N9760 X4.7097 Y-9.7812
N9770 X4.7217 Y-9.7823
N9780 X4.7318 Y-9.7816
N9790 X4.7422 Y-9.7812
N9800 X4.7508 Y-9.7816
N9810 X4.7612 Y-9.7819
N9820 X4.7616 Y-9.7734
N9830 X4.7623 Y-9.7637
N9840 G80
N9850 G0 Z0.4506
N9870 M5 M9

(DRILL1)
N9880 S10000 M3 M8
N9890 G0 X0.9846 Y-9.398
N9900 G0 Z0.4506
N9920 G0 Z0.0506
N9930 G98 G81 X0.9846 Y-9.398 Z-0.01 R0.05 F4.
N9940 X0.9819 Y-9.3883
N9950 X0.9777 Y-9.3796
N9960 X0.9713 Y-9.3722
N9970 X0.9625 Y-9.3662
N9980 X0.9538 Y-9.3598
N9990 X0.9441 Y-9.3547
N10000 X0.9349 Y-9.351
N10010 X0.9261 Y-9.3487
N10020 X0.9165 Y-9.3455
N10030 X0.9054 Y-9.3446
N10040 X0.8948 Y-9.3441
N10050 X0.8847
N10060 X0.8741 Y-9.345
N10070 X0.863 Y-9.3487
N10080 X0.8538 Y-9.3501
N10090 X0.8442 Y-9.3542
N10100 X0.8354 Y-9.3579
N10110 X0.8267 Y-9.3653
N10120 X0.8202 Y-9.3704
N10130 X0.8133 Y-9.3773
N10140 X0.8087 Y-9.3879
N10150 X0.8064 Y-9.398
N10160 X0.8041 Y-9.4072
N10170 X0.8046 Y-9.4169
N10180 X0.8036 Y-9.4265
N10190 X0.8041 Y-9.4367
N10200 Y-9.4445
N10210 X0.8046 Y-9.4528
N10220 X0.8138 Y-9.4514
N10230 X0.8225 Y-9.4519
N10240 X0.8326
N10250 X0.8419
N10260 X0.8534
N10270 X0.8649
N10280 X0.8755 Y-9.4523
N10290 X0.8861 Y-9.4519
N10300 X0.8957
N10310 X0.905 Y-9.4514
N10320 X0.9155 Y-9.4519
N10330 X0.9248 Y-9.4514
N10340 X0.9358 Y-9.4519
N10350 X0.9459
N10360 X0.9575 Y-9.4514
N10370 X0.9671 Y-9.4528
N10380 X0.9763 Y-9.4514
N10390 X0.9869 Y-9.4519
N10400 X0.9865 Y-9.4436
N10410 X0.9874 Y-9.433
N10420 Y-9.4215
N10430 X0.9865 Y-9.4104
N10440 X0.8046 Y-9.5131
N10450 X0.805 Y-9.5228
N10460 Y-9.5329
N10470 Y-9.543
N10480 Y-9.5536
N10490 X0.8046 Y-9.5656
N10500 X0.805 Y-9.5771
N10510 Y-9.5863
N10520 Y-9.596
N10530 X0.8059 Y-9.6052
N10540 X0.8041 Y-9.6149
N10550 X0.8128
N10560 X0.823 Y-9.614
N10570 X0.8331 Y-9.6149
N10580 X0.8428
N10590 X0.8538 Y-9.6144
N10600 X0.8644 Y-9.6154
N10610 X0.8755 Y-9.6149
N10620 X0.8861 Y-9.6154
N10630 X0.8957 Y-9.6144
N10640 X0.905
N10650 X0.9142 Y-9.6149
N10660 X0.9243 Y-9.6154
N10670 X0.9353 Y-9.6149
N10680 X0.9469 Y-9.6154
N10690 X0.9584 Y-9.6149
N10700 X0.9667 Y-9.6144
N10710 X0.9754 Y-9.6154
N10720 X0.9865
N10730 X0.9873 Y-9.7535
N10740 X0.9866 Y-9.7431
N10750 X0.9847 Y-9.7308
N10760 X0.9817 Y-9.7211
N10770 X0.9765 Y-9.7114
N10780 X0.9717 Y-9.705
N10790 X0.9635 Y-9.6998
N10800 X0.9541 Y-9.6927
N10810 X0.9433 Y-9.6871
N10820 X0.9351 Y-9.6838
N10830 X0.9269 Y-9.6815
N10840 X0.9176 Y-9.6782
N10850 X0.9049 Y-9.6771
N10860 X0.8948 Y-9.6763
N10870 X0.8833 Y-9.6767
N10880 X0.8754 Y-9.6774
N10890 X0.8628 Y-9.68
N10900 X0.8538 Y-9.683
N10910 X0.8437 Y-9.6868
N10920 X0.8348 Y-9.6912
N10930 X0.8266 Y-9.6987
N10940 X0.8195 Y-9.7039
N10950 X0.8139 Y-9.7106
N10960 X0.8079 Y-9.7203
N10970 X0.8068 Y-9.7304
N10980 X0.8038 Y-9.7408
N10990 Y-9.7494
N11000 Y-9.7584
N11010 Y-9.7684
N11020 X0.8034 Y-9.7778
N11030 X0.8038 Y-9.786
N11040 X0.8131 Y-9.7852
N11050 X0.8228
N11060 X0.8307 Y-9.7856
N11070 X0.8419
N11080 X0.8538 Y-9.7845
N11090 X0.8642 Y-9.7849
N11100 X0.8747
N11110 X0.8851 Y-9.7852
N11120 X0.8956 Y-9.7849
N11130 X0.906
N11140 X0.9139 Y-9.7852
N11150 X0.9247 Y-9.7856
N11160 X0.9347 Y-9.7845
N11170 X0.9467 Y-9.7856
N11180 X0.9568 Y-9.7849
N11190 X0.9672 Y-9.7845
N11200 X0.9758 Y-9.7849
N11210 X0.9862 Y-9.7852
N11220 X0.9866 Y-9.7767
N11230 X0.9873 Y-9.767
N11240 G80
N11250 G0 Z0.4506
N11270 M5 M9

N11280 G30
N11290 M30
%
