%
(*************************************)
(* Generated by wtopace for EntityX  *)
(* Date: 3/28/2016                   *)
(*************************************)
(1001)
(PROJECT4-UT-REVERSED)
(T1  D=0.0039 CR=0. TAPER=118DEG - ZMIN=-0.01 - DRILL)
N10 G90 G54 G64 G50 G17 G40 G80 G94 G91.1 G49
N20 G20 (Inch)
N30 G30

(DRILL1 2)
N50 G30
N60 T1 G43 H1 M6
N70 S10000 M3 M8
N80 G54
N90 G0 X7.5152 Y-1.9012
N100 G0 Z0.5006
N120 G0 Z0.1006
N130 G98 G81 X7.5152 Y-1.9012 Z-0.01 R0.1 F4.
N140 X7.5177 Y-1.8919
N150 X7.5226 Y-1.8826
N160 X7.5285 Y-1.8764
N170 X7.5372 Y-1.8699
N180 X7.5464 Y-1.8634
N190 X7.5561 Y-1.8589
N200 X7.5645 Y-1.8548
N210 X7.574 Y-1.8524
N220 X7.5837 Y-1.8496
N230 X7.5947 Y-1.8482
N240 X7.6053 Y-1.8478
N250 X7.6155
N260 X7.6261 Y-1.8487
N270 X7.6371 Y-1.8519
N280 X7.6468 Y-1.8541
N290 X7.6562 Y-1.8575
N300 X7.6651 Y-1.8622
N310 X7.6735 Y-1.8689
N320 X7.6806 Y-1.8742
N330 X7.6869 Y-1.8813
N340 X7.6914 Y-1.8915
N350 X7.6939 Y-1.9008
N360 X7.6958 Y-1.9106
N370 X7.6959 Y-1.9205
N380 X7.6962 Y-1.9302
N390 X7.6961 Y-1.9398
N400 X7.6959 Y-1.9486
N410 Y-1.9561
N420 X7.6868 Y-1.9557
N430 X7.6776 Y-1.9555
N440 X7.6681 Y-1.9558
N450 X7.6583 Y-1.9555
N460 X7.6464 Y-1.9556
N470 X7.6353 Y-1.9555
N480 X7.6247 Y-1.9557
N490 X7.614 Y-1.9558
N500 X7.6044 Y-1.9555
N510 X7.5952 Y-1.9557
N520 X7.5853
N530 X7.5755 Y-1.9558
N540 X7.5647 Y-1.9556
N550 X7.5533 Y-1.9559
N560 X7.5426 Y-1.9556
N570 X7.5329
N580 X7.5239
N590 X7.5138 Y-1.9559
N600 X7.5136 Y-1.9473
N610 X7.5133 Y-1.9365
N620 X7.5132 Y-1.9249
N630 X7.5138 Y-1.9135
N640 X7.6953 Y-2.0168
N650 X7.6951 Y-2.0264
N660 Y-2.0366
N670 X7.6952 Y-2.0464
N680 X7.6951 Y-2.0573
N690 Y-2.0692
N700 Y-2.0808
N710 Y-2.09
N720 Y-2.0997
N730 X7.695 Y-2.1095
N740 X7.696 Y-2.1185
N750 X7.6867 Y-2.1186
N760 X7.6776
N770 X7.6678
N780 X7.6582 Y-2.1184
N790 X7.6463 Y-2.1186
N800 X7.6355 Y-2.1188
N810 X7.6247 Y-2.1185
N820 X7.6138 Y-2.1184
N830 X7.6044 Y-2.1187
N840 X7.595 Y-2.1186
N850 X7.5854
N860 X7.5754 Y-2.1187
N870 X7.5648 Y-2.1185
N880 X7.5534 Y-2.1187
N890 X7.5423 Y-2.1186
N900 X7.5332 Y-2.1188
N910 X7.524
N920 X7.514 Y-2.1187
N930 X7.5154 Y-2.2342
N940 X7.5184 Y-2.2247
N950 X7.5228 Y-2.2159
N960 X7.5285 Y-2.2087
N970 X7.5371 Y-2.2029
N980 X7.546 Y-2.1964
N990 X7.5561 Y-2.1918
N1000 X7.5644 Y-2.1876
N1010 X7.574 Y-2.1856
N1020 X7.5835 Y-2.1824
N1030 X7.5944 Y-2.1812
N1040 X7.6049 Y-2.1804
N1050 X7.616 Y-2.1806
N1060 X7.6259 Y-2.1816
N1070 X7.6372 Y-2.1846
N1080 X7.6467 Y-2.1871
N1090 X7.6561 Y-2.1905
N1100 X7.6651 Y-2.1953
N1110 X7.6735 Y-2.2022
N1120 X7.6807 Y-2.2077
N1130 X7.6868 Y-2.2142
N1140 X7.6909 Y-2.2246
N1150 X7.6939 Y-2.2339
N1160 X7.6955 Y-2.2437
N1170 X7.6958 Y-2.2536
N1180 X7.6961 Y-2.2629
N1190 X7.6964 Y-2.2732
N1200 X7.6958 Y-2.2812
N1210 Y-2.289
N1220 X7.687 Y-2.2889
N1230 X7.6773
N1240 X7.6682
N1250 X7.6585 Y-2.289
N1260 X7.6464 Y-2.2888
N1270 X7.6354
N1280 X7.6249 Y-2.2889
N1290 X7.614 Y-2.289
N1300 X7.6043 Y-2.2888
N1310 X7.595 Y-2.289
N1320 X7.5855 Y-2.2889
N1330 X7.5755
N1340 X7.565 Y-2.2887
N1350 X7.5534 Y-2.2889
N1360 X7.5424
N1370 X7.5332
N1380 X7.5238
N1390 X7.5139
N1400 X7.5136 Y-2.2803
N1410 X7.5131 Y-2.2695
N1420 Y-2.2578
N1430 X7.5138 Y-2.2467
N1440 G80
N1450 G0 Z0.5006
N1470 M5 M9

(DRILL1 2)
N1480 S10000 M3 M8
N1490 G0 X3.7405 Y-1.8995
N1500 G0 Z0.5006
N1520 G0 Z0.1006
N1530 G98 G81 X3.7405 Y-1.8995 Z-0.01 R0.1 F4.
N1540 X3.743 Y-1.8902
N1550 X3.7479 Y-1.8809
N1560 X3.7538 Y-1.8747
N1570 X3.7625 Y-1.8682
N1580 X3.7717 Y-1.8617
N1590 X3.7814 Y-1.8572
N1600 X3.7898 Y-1.8531
N1610 X3.7993 Y-1.8507
N1620 X3.8091 Y-1.8479
N1630 X3.8201 Y-1.8465
N1640 X3.8307 Y-1.8461
N1650 X3.8408
N1660 X3.8514 Y-1.847
N1670 X3.8625 Y-1.8502
N1680 X3.8721 Y-1.8524
N1690 X3.8815 Y-1.8557
N1700 X3.8904 Y-1.8605
N1710 X3.8988 Y-1.8672
N1720 X3.906 Y-1.8725
N1730 X3.9122 Y-1.8796
N1740 X3.9168 Y-1.8898
N1750 X3.9192 Y-1.8991
N1760 X3.9211 Y-1.9089
N1770 X3.9212 Y-1.9188
N1780 X3.9215 Y-1.9285
N1790 X3.9214 Y-1.9381
N1800 X3.9212 Y-1.9469
N1810 X3.9213 Y-1.9544
N1820 X3.9122 Y-1.954
N1830 X3.903 Y-1.9538
N1840 X3.8934 Y-1.9541
N1850 X3.8836 Y-1.9538
N1860 X3.8717 Y-1.9539
N1870 X3.8606 Y-1.9538
N1880 X3.85 Y-1.954
N1890 X3.8393 Y-1.9541
N1900 X3.8297 Y-1.9538
N1910 X3.8205 Y-1.954
N1920 X3.8107
N1930 X3.8009 Y-1.9541
N1940 X3.79 Y-1.9539
N1950 X3.7787 Y-1.9541
N1960 X3.7679 Y-1.9539
N1970 X3.7583
N1980 X3.7492
N1990 X3.7391 Y-1.9541
N2000 X3.7389 Y-1.9456
N2010 X3.7386 Y-1.9348
N2020 X3.7385 Y-1.9232
N2030 X3.7391 Y-1.9118
N2040 X3.9206 Y-2.0151
N2050 X3.9205 Y-2.0247
N2060 Y-2.0349
N2070 Y-2.0447
N2080 Y-2.0556
N2090 X3.9204 Y-2.0675
N2100 X3.9205 Y-2.0791
N2110 Y-2.0883
N2120 Y-2.098
N2130 X3.9203 Y-2.1078
N2140 X3.9214 Y-2.1168
N2150 X3.912 Y-2.1169
N2160 X3.903
N2170 X3.8932
N2180 X3.8835 Y-2.1167
N2190 X3.8717 Y-2.1169
N2200 X3.8608 Y-2.1171
N2210 X3.85 Y-2.1168
N2220 X3.8392 Y-2.1167
N2230 X3.8297 Y-2.117
N2240 X3.8203 Y-2.1169
N2250 X3.8107
N2260 X3.8007 Y-2.117
N2270 X3.7901 Y-2.1168
N2280 X3.7787 Y-2.117
N2290 X3.7676 Y-2.1169
N2300 X3.7585 Y-2.1171
N2310 X3.7493
N2320 X3.7393 Y-2.117
N2330 X3.7407 Y-2.2325
N2340 X3.7437 Y-2.223
N2350 X3.7481 Y-2.2141
N2360 X3.7538 Y-2.207
N2370 X3.7624 Y-2.2012
N2380 X3.7713 Y-2.1947
N2390 X3.7814 Y-2.1901
N2400 X3.7897 Y-2.1859
N2410 X3.7993 Y-2.1839
N2420 X3.8088 Y-2.1807
N2430 X3.8198 Y-2.1795
N2440 X3.8302 Y-2.1787
N2450 X3.8414 Y-2.1789
N2460 X3.8512 Y-2.1799
N2470 X3.8625 Y-2.1829
N2480 X3.872 Y-2.1854
N2490 X3.8814 Y-2.1888
N2500 X3.8904 Y-2.1936
N2510 X3.8988 Y-2.2005
N2520 X3.906 Y-2.206
N2530 X3.9121 Y-2.2125
N2540 X3.9163 Y-2.2229
N2550 X3.9192 Y-2.2322
N2560 X3.9208 Y-2.242
N2570 X3.9212 Y-2.2519
N2580 X3.9214 Y-2.2612
N2590 X3.9217 Y-2.2715
N2600 X3.9212 Y-2.2795
N2610 Y-2.2873
N2620 X3.9123 Y-2.2872
N2630 X3.9026
N2640 X3.8936
N2650 X3.8838 Y-2.2873
N2660 X3.8717 Y-2.2871
N2670 X3.8607
N2680 X3.8502 Y-2.2872
N2690 X3.8393 Y-2.2873
N2700 X3.8296 Y-2.2871
N2710 X3.8203 Y-2.2873
N2720 X3.8108 Y-2.2872
N2730 X3.8009
N2740 X3.7903 Y-2.287
N2750 X3.7787 Y-2.2872
N2760 X3.7677
N2770 X3.7585
N2780 X3.7491
N2790 X3.7393
N2800 X3.7389 Y-2.2786
N2810 X3.7384 Y-2.2677
N2820 Y-2.2561
N2830 X3.7391 Y-2.245
N2840 G80
N2850 G0 Z0.5006
N2870 M5 M9

(DRILL1 2)
N2880 S10000 M3 M8
N2890 G0 X7.5161 Y-4.4043
N2900 G0 Z0.5006
N2920 G0 Z0.1006
N2930 G98 G81 X7.5161 Y-4.4043 Z-0.01 R0.1 F4.
N2940 X7.5185 Y-4.395
N2950 X7.5235 Y-4.3857
N2960 X7.5293 Y-4.3795
N2970 X7.538 Y-4.373
N2980 X7.5473 Y-4.3665
N2990 X7.557 Y-4.362
N3000 X7.5654 Y-4.3579
N3010 X7.5749 Y-4.3555
N3020 X7.5846 Y-4.3527
N3030 X7.5956 Y-4.3513
N3040 X7.6062 Y-4.3509
N3050 X7.6163
N3060 X7.6269 Y-4.3518
N3070 X7.638 Y-4.355
N3080 X7.6476 Y-4.3573
N3090 X7.6571 Y-4.3606
N3100 X7.666 Y-4.3654
N3110 X7.6744 Y-4.3721
N3120 X7.6815 Y-4.3773
N3130 X7.6878 Y-4.3844
N3140 X7.6923 Y-4.3946
N3150 X7.6948 Y-4.4039
N3160 X7.6966 Y-4.4138
N3170 X7.6968 Y-4.4236
N3180 X7.697 Y-4.4333
N3190 Y-4.4429
N3200 X7.6968 Y-4.4517
N3210 Y-4.4592
N3220 X7.6877 Y-4.4588
N3230 X7.6785 Y-4.4586
N3240 X7.669 Y-4.4589
N3250 X7.6592 Y-4.4586
N3260 X7.6472 Y-4.4587
N3270 X7.6361 Y-4.4586
N3280 X7.6256 Y-4.4588
N3290 X7.6149 Y-4.4589
N3300 X7.6053 Y-4.4586
N3310 X7.5961 Y-4.4588
N3320 X7.5862
N3330 X7.5764 Y-4.4589
N3340 X7.5655 Y-4.4587
N3350 X7.5542 Y-4.459
N3360 X7.5435 Y-4.4587
N3370 X7.5338
N3380 X7.5248
N3390 X7.5147 Y-4.459
N3400 X7.5145 Y-4.4504
N3410 X7.5141 Y-4.4396
N3420 X7.514 Y-4.428
N3430 X7.5147 Y-4.4166
N3440 X7.6961 Y-4.5199
N3450 X7.696 Y-4.5296
N3460 Y-4.5397
N3470 X7.6961 Y-4.5495
N3480 X7.696 Y-4.5604
N3490 Y-4.5723
N3500 Y-4.5839
N3510 Y-4.5931
N3520 Y-4.6028
N3530 X7.6958 Y-4.6126
N3540 X7.6969 Y-4.6217
N3550 X7.6876
N3560 X7.6785
N3570 X7.6687
N3580 X7.659 Y-4.6216
N3590 X7.6472 Y-4.6217
N3600 X7.6363 Y-4.6219
N3610 X7.6256 Y-4.6217
N3620 X7.6147 Y-4.6216
N3630 X7.6053 Y-4.6218
N3640 X7.5958 Y-4.6217
N3650 X7.5863
N3660 X7.5763 Y-4.6218
N3670 X7.5657 Y-4.6217
N3680 X7.5543 Y-4.6218
N3690 X7.5432 Y-4.6217
N3700 X7.5341 Y-4.6219
N3710 X7.5249
N3720 X7.5149 Y-4.6218
N3730 X7.5163 Y-4.7373
N3740 X7.5193 Y-4.7278
N3750 X7.5237 Y-4.719
N3760 X7.5294 Y-4.7118
N3770 X7.538 Y-4.706
N3780 X7.5469 Y-4.6995
N3790 X7.557 Y-4.6949
N3800 X7.5653 Y-4.6907
N3810 X7.5749 Y-4.6887
N3820 X7.5844 Y-4.6856
N3830 X7.5953 Y-4.6844
N3840 X7.6058 Y-4.6835
N3850 X7.6169 Y-4.6837
N3860 X7.6267 Y-4.6847
N3870 X7.6381 Y-4.6877
N3880 X7.6476 Y-4.6903
N3890 X7.657 Y-4.6936
N3900 X7.6659 Y-4.6984
N3910 X7.6743 Y-4.7053
N3920 X7.6815 Y-4.7108
N3930 X7.6877 Y-4.7173
N3940 X7.6918 Y-4.7277
N3950 X7.6948 Y-4.737
N3960 X7.6964 Y-4.7468
N3970 X7.6967 Y-4.7567
N3980 X7.6969 Y-4.766
N3990 X7.6973 Y-4.7763
N4000 X7.6967 Y-4.7844
N4010 Y-4.7921
N4020 X7.6879 Y-4.792
N4030 X7.6782
N4040 X7.6691
N4050 X7.6594 Y-4.7921
N4060 X7.6473 Y-4.7919
N4070 X7.6362
N4080 X7.6258 Y-4.792
N4090 X7.6148 Y-4.7921
N4100 X7.6051 Y-4.7919
N4110 X7.5959 Y-4.7921
N4120 X7.5864 Y-4.792
N4130 X7.5764
N4140 X7.5658 Y-4.7918
N4150 X7.5543 Y-4.792
N4160 X7.5432
N4170 X7.5341
N4180 X7.5247
N4190 X7.5148
N4200 X7.5144 Y-4.7834
N4210 X7.514 Y-4.7726
N4220 Y-4.7609
N4230 X7.5146 Y-4.7499
N4240 G80
N4250 G0 Z0.5006
N4270 M5 M9

(DRILL1 2)
N4280 S10000 M3 M8
N4290 G0 X3.7398 Y-4.4018
N4300 G0 Z0.5006
N4320 G0 Z0.1006
N4330 G98 G81 X3.7398 Y-4.4018 Z-0.01 R0.1 F4.
N4340 X3.7423 Y-4.3926
N4350 X3.7472 Y-4.3832
N4360 X3.7531 Y-4.377
N4370 X3.7618 Y-4.3705
N4380 X3.771 Y-4.3641
N4390 X3.7807 Y-4.3595
N4400 X3.7891 Y-4.3555
N4410 X3.7986 Y-4.353
N4420 X3.8083 Y-4.3502
N4430 X3.8193 Y-4.3489
N4440 X3.8299 Y-4.3484
N4450 X3.8401
N4460 X3.8507 Y-4.3493
N4470 X3.8617 Y-4.3526
N4480 X3.8714 Y-4.3548
N4490 X3.8808 Y-4.3581
N4500 X3.8897 Y-4.3629
N4510 X3.8981 Y-4.3696
N4520 X3.9052 Y-4.3749
N4530 X3.9115 Y-4.382
N4540 X3.916 Y-4.3922
N4550 X3.9185 Y-4.4015
N4560 X3.9204 Y-4.4113
N4570 X3.9205 Y-4.4211
N4580 X3.9208 Y-4.4309
N4590 X3.9207 Y-4.4404
N4600 X3.9205 Y-4.4493
N4610 Y-4.4567
N4620 X3.9114 Y-4.4564
N4630 X3.9022 Y-4.4562
N4640 X3.8927 Y-4.4564
N4650 X3.8829 Y-4.4562
N4660 X3.871 Y-4.4563
N4670 X3.8599 Y-4.4562
N4680 X3.8493 Y-4.4564
N4690 X3.8386 Y-4.4565
N4700 X3.829 Y-4.4562
N4710 X3.8198 Y-4.4563
N4720 X3.8099
N4730 X3.8001 Y-4.4565
N4740 X3.7893 Y-4.4562
N4750 X3.7779 Y-4.4565
N4760 X3.7672 Y-4.4562
N4770 X3.7575 Y-4.4563
N4780 X3.7485 Y-4.4562
N4790 X3.7384 Y-4.4565
N4800 X3.7382 Y-4.4479
N4810 X3.7379 Y-4.4371
N4820 X3.7378 Y-4.4256
N4830 X3.7384 Y-4.4141
N4840 X3.9199 Y-4.5175
N4850 X3.9197 Y-4.5271
N4860 Y-4.5372
N4870 X3.9198 Y-4.5471
N4880 X3.9197 Y-4.558
N4890 Y-4.5699
N4900 Y-4.5814
N4910 Y-4.5907
N4920 Y-4.6003
N4930 X3.9196 Y-4.6101
N4940 X3.9207 Y-4.6192
N4950 X3.9113
N4960 X3.9022
N4970 X3.8924
N4980 X3.8828 Y-4.6191
N4990 X3.8709 Y-4.6192
N5000 X3.8601 Y-4.6195
N5010 X3.8493 Y-4.6192
N5020 X3.8384 Y-4.6191
N5030 X3.829 Y-4.6193
N5040 X3.8196 Y-4.6192
N5050 X3.81
N5060 X3.8 Y-4.6193
N5070 X3.7894 Y-4.6192
N5080 X3.778 Y-4.6193
N5090 X3.7669 Y-4.6192
N5100 X3.7578 Y-4.6195
N5110 X3.7486
N5120 X3.7386 Y-4.6193
N5130 X3.74 Y-4.7348
N5140 X3.743 Y-4.7254
N5150 X3.7474 Y-4.7165
N5160 X3.7531 Y-4.7093
N5170 X3.7617 Y-4.7035
N5180 X3.7706 Y-4.697
N5190 X3.7807 Y-4.6925
N5200 X3.789 Y-4.6882
N5210 X3.7986 Y-4.6863
N5220 X3.8081 Y-4.6831
N5230 X3.819 Y-4.6819
N5240 X3.8295 Y-4.681
N5250 X3.8406 Y-4.6812
N5260 X3.8505 Y-4.6822
N5270 X3.8618 Y-4.6853
N5280 X3.8713 Y-4.6878
N5290 X3.8807 Y-4.6912
N5300 X3.8897 Y-4.696
N5310 X3.8981 Y-4.7029
N5320 X3.9053 Y-4.7083
N5330 X3.9114 Y-4.7149
N5340 X3.9155 Y-4.7252
N5350 X3.9185 Y-4.7345
N5360 X3.9201 Y-4.7443
N5370 X3.9204 Y-4.7543
N5380 X3.9207 Y-4.7636
N5390 X3.921 Y-4.7738
N5400 X3.9204 Y-4.7819
N5410 Y-4.7897
N5420 X3.9116 Y-4.7895
N5430 X3.9019
N5440 X3.8928
N5450 X3.8831 Y-4.7897
N5460 X3.871 Y-4.7894
N5470 X3.86
N5480 X3.8495 Y-4.7895
N5490 X3.8386 Y-4.7897
N5500 X3.8289 Y-4.7894
N5510 X3.8196 Y-4.7897
N5520 X3.8101 Y-4.7895
N5530 X3.8001
N5540 X3.7896 Y-4.7893
N5550 X3.778 Y-4.7895
N5560 X3.767
N5570 X3.7578
N5580 X3.7484
N5590 X3.7385
N5600 X3.7382 Y-4.781
N5610 X3.7377 Y-4.7701
N5620 Y-4.7584
N5630 X3.7384 Y-4.7474
N5640 G80
N5650 G0 Z0.5006
N5670 M5 M9

(DRILL1 2)
N5680 S10000 M3 M8
N5690 G0 X7.5153 Y-6.8961
N5700 G0 Z0.5006
N5720 G0 Z0.1006
N5730 G98 G81 X7.5153 Y-6.8961 Z-0.01 R0.1 F4.
N5740 X7.5177 Y-6.8868
N5750 X7.5227 Y-6.8775
N5760 X7.5285 Y-6.8713
N5770 X7.5372 Y-6.8648
N5780 X7.5464 Y-6.8583
N5790 X7.5562 Y-6.8538
N5800 X7.5645 Y-6.8497
N5810 X7.5741 Y-6.8473
N5820 X7.5838 Y-6.8445
N5830 X7.5948 Y-6.8431
N5840 X7.6054 Y-6.8427
N5850 X7.6155
N5860 X7.6261 Y-6.8436
N5870 X7.6372 Y-6.8468
N5880 X7.6468 Y-6.849
N5890 X7.6563 Y-6.8523
N5900 X7.6652 Y-6.8571
N5910 X7.6735 Y-6.8638
N5920 X7.6807 Y-6.8691
N5930 X7.6869 Y-6.8762
N5940 X7.6915 Y-6.8864
N5950 X7.6939 Y-6.8957
N5960 X7.6958 Y-6.9055
N5970 X7.6959 Y-6.9154
N5980 X7.6962 Y-6.9251
N5990 Y-6.9347
N6000 X7.6959 Y-6.9435
N6010 X7.696 Y-6.951
N6020 X7.6869 Y-6.9506
N6030 X7.6777 Y-6.9504
N6040 X7.6682 Y-6.9507
N6050 X7.6583 Y-6.9504
N6060 X7.6464 Y-6.9505
N6070 X7.6353 Y-6.9504
N6080 X7.6247 Y-6.9506
N6090 X7.6141 Y-6.9507
N6100 X7.6045 Y-6.9504
N6110 X7.5952 Y-6.9506
N6120 X7.5854
N6130 X7.5756 Y-6.9507
N6140 X7.5647 Y-6.9505
N6150 X7.5534 Y-6.9507
N6160 X7.5427 Y-6.9505
N6170 X7.533
N6180 X7.5239
N6190 X7.5138 Y-6.9507
N6200 X7.5137 Y-6.9422
N6210 X7.5133 Y-6.9314
N6220 X7.5132 Y-6.9198
N6230 X7.5138 Y-6.9084
N6240 X7.6953 Y-7.0117
N6250 X7.6952 Y-7.0213
N6260 Y-7.0315
N6270 Y-7.0413
N6280 Y-7.0522
N6290 X7.6951 Y-7.0641
N6300 X7.6952 Y-7.0757
N6310 Y-7.0849
N6320 Y-7.0946
N6330 X7.695 Y-7.1044
N6340 X7.6961 Y-7.1134
N6350 X7.6868 Y-7.1135
N6360 X7.6777
N6370 X7.6679
N6380 X7.6582 Y-7.1133
N6390 X7.6464 Y-7.1135
N6400 X7.6355 Y-7.1137
N6410 X7.6247 Y-7.1134
N6420 X7.6139 Y-7.1133
N6430 X7.6045 Y-7.1136
N6440 X7.595 Y-7.1135
N6450 X7.5855
N6460 X7.5754 Y-7.1136
N6470 X7.5649 Y-7.1134
N6480 X7.5535 Y-7.1136
N6490 X7.5423 Y-7.1135
N6500 X7.5333 Y-7.1137
N6510 X7.5241
N6520 X7.514 Y-7.1136
N6530 X7.5154 Y-7.2291
N6540 X7.5185 Y-7.2196
N6550 X7.5229 Y-7.2107
N6560 X7.5285 Y-7.2036
N6570 X7.5372 Y-7.1978
N6580 X7.5461 Y-7.1913
N6590 X7.5562 Y-7.1867
N6600 X7.5645 Y-7.1825
N6610 X7.5741 Y-7.1805
N6620 X7.5836 Y-7.1773
N6630 X7.5945 Y-7.1761
N6640 X7.605 Y-7.1753
N6650 X7.6161 Y-7.1755
N6660 X7.6259 Y-7.1765
N6670 X7.6373 Y-7.1795
N6680 X7.6468 Y-7.182
N6690 X7.6562 Y-7.1854
N6700 X7.6651 Y-7.1902
N6710 X7.6735 Y-7.1971
N6720 X7.6807 Y-7.2026
N6730 X7.6868 Y-7.2091
N6740 X7.691 Y-7.2195
N6750 X7.6939 Y-7.2288
N6760 X7.6956 Y-7.2386
N6770 X7.6959 Y-7.2485
N6780 X7.6961 Y-7.2578
N6790 X7.6964 Y-7.2681
N6800 X7.6959 Y-7.2761
N6810 Y-7.2839
N6820 X7.6871 Y-7.2838
N6830 X7.6774
N6840 X7.6683
N6850 X7.6586 Y-7.2839
N6860 X7.6464 Y-7.2837
N6870 X7.6354
N6880 X7.6249 Y-7.2838
N6890 X7.614 Y-7.2839
N6900 X7.6043 Y-7.2837
N6910 X7.595 Y-7.2839
N6920 X7.5855 Y-7.2838
N6930 X7.5756
N6940 X7.565 Y-7.2836
N6950 X7.5534 Y-7.2838
N6960 X7.5424
N6970 X7.5332
N6980 X7.5239
N6990 X7.514
N7000 X7.5136 Y-7.2752
N7010 X7.5132 Y-7.2643
N7020 Y-7.2527
N7030 X7.5138 Y-7.2416
N7040 G80
N7050 G0 Z0.5006
N7070 M5 M9

(DRILL1 2)
N7080 S10000 M3 M8
N7090 G0 X3.7396 Y-6.8934
N7100 G0 Z0.5006
N7120 G0 Z0.1006
N7130 G98 G81 X3.7396 Y-6.8934 Z-0.01 R0.1 F4.
N7140 X3.7421 Y-6.8841
N7150 X3.7471 Y-6.8748
N7160 X3.7529 Y-6.8686
N7170 X3.7616 Y-6.8621
N7180 X3.7708 Y-6.8556
N7190 X3.7805 Y-6.8511
N7200 X3.7889 Y-6.847
N7210 X3.7984 Y-6.8446
N7220 X3.8082 Y-6.8418
N7230 X3.8192 Y-6.8404
N7240 X3.8298 Y-6.84
N7250 X3.8399
N7260 X3.8505 Y-6.8409
N7270 X3.8616 Y-6.8441
N7280 X3.8712 Y-6.8463
N7290 X3.8806 Y-6.8497
N7300 X3.8895 Y-6.8545
N7310 X3.8979 Y-6.8612
N7320 X3.9051 Y-6.8664
N7330 X3.9113 Y-6.8735
N7340 X3.9159 Y-6.8837
N7350 X3.9183 Y-6.893
N7360 X3.9202 Y-6.9028
N7370 X3.9203 Y-6.9127
N7380 X3.9206 Y-6.9224
N7390 X3.9205 Y-6.932
N7400 X3.9203 Y-6.9408
N7410 X3.9204 Y-6.9483
N7420 X3.9113 Y-6.9479
N7430 X3.9021 Y-6.9477
N7440 X3.8925 Y-6.948
N7450 X3.8827 Y-6.9477
N7460 X3.8708 Y-6.9478
N7470 X3.8597 Y-6.9477
N7480 X3.8491 Y-6.9479
N7490 X3.8384 Y-6.948
N7500 X3.8288 Y-6.9477
N7510 X3.8196 Y-6.9479
N7520 X3.8098
N7530 X3.8 Y-6.948
N7540 X3.7891 Y-6.9478
N7550 X3.7778 Y-6.9481
N7560 X3.767 Y-6.9478
N7570 X3.7574
N7580 X3.7483
N7590 X3.7382 Y-6.9481
N7600 X3.738 Y-6.9395
N7610 X3.7377 Y-6.9287
N7620 X3.7376 Y-6.9171
N7630 X3.7382 Y-6.9057
N7640 X3.9197 Y-7.009
N7650 X3.9196 Y-7.0186
N7660 Y-7.0288
N7670 Y-7.0386
N7680 Y-7.0495
N7690 X3.9195 Y-7.0614
N7700 X3.9196 Y-7.073
N7710 Y-7.0822
N7720 Y-7.0919
N7730 X3.9194 Y-7.1017
N7740 X3.9205 Y-7.1108
N7750 X3.9111
N7760 X3.9021
N7770 X3.8923
N7780 X3.8826 Y-7.1107
N7790 X3.8708 Y-7.1108
N7800 X3.8599 Y-7.111
N7810 X3.8491 Y-7.1108
N7820 X3.8383 Y-7.1107
N7830 X3.8288 Y-7.1109
N7840 X3.8194 Y-7.1108
N7850 X3.8098
N7860 X3.7998 Y-7.1109
N7870 X3.7892 Y-7.1108
N7880 X3.7778 Y-7.1109
N7890 X3.7667 Y-7.1108
N7900 X3.7576 Y-7.111
N7910 X3.7484
N7920 X3.7384 Y-7.1109
N7930 X3.7398 Y-7.2264
N7940 X3.7428 Y-7.2169
N7950 X3.7472 Y-7.2081
N7960 X3.7529 Y-7.2009
N7970 X3.7615 Y-7.1951
N7980 X3.7704 Y-7.1886
N7990 X3.7805 Y-7.184
N8000 X3.7888 Y-7.1798
N8010 X3.7984 Y-7.1778
N8020 X3.8079 Y-7.1747
N8030 X3.8189 Y-7.1735
N8040 X3.8293 Y-7.1726
N8050 X3.8405 Y-7.1728
N8060 X3.8503 Y-7.1738
N8070 X3.8617 Y-7.1768
N8080 X3.8712 Y-7.1793
N8090 X3.8805 Y-7.1827
N8100 X3.8895 Y-7.1875
N8110 X3.8979 Y-7.1944
N8120 X3.9051 Y-7.1999
N8130 X3.9112 Y-7.2064
N8140 X3.9154 Y-7.2168
N8150 X3.9183 Y-7.2261
N8160 X3.9199 Y-7.2359
N8170 X3.9203 Y-7.2458
N8180 X3.9205 Y-7.2551
N8190 X3.9208 Y-7.2654
N8200 X3.9203 Y-7.2734
N8210 Y-7.2812
N8220 X3.9114 Y-7.2811
N8230 X3.9017
N8240 X3.8927
N8250 X3.8829 Y-7.2812
N8260 X3.8708 Y-7.281
N8270 X3.8598
N8280 X3.8493 Y-7.2811
N8290 X3.8384 Y-7.2812
N8300 X3.8287 Y-7.281
N8310 X3.8194 Y-7.2812
N8320 X3.8099 Y-7.2811
N8330 X3.8
N8340 X3.7894 Y-7.2809
N8350 X3.7778 Y-7.2811
N8360 X3.7668
N8370 X3.7576
N8380 X3.7482
N8390 X3.7384
N8400 X3.738 Y-7.2725
N8410 X3.7375 Y-7.2617
N8420 Y-7.25
N8430 X3.7382 Y-7.239
N8440 G80
N8450 G0 Z0.5006
N8470 M5 M9

(DRILL1 2)
N8480 S10000 M3 M8
N8490 G0 X3.7406 Y-9.3949
N8500 G0 Z0.5006
N8520 G0 Z0.1006
N8530 G98 G81 X3.7406 Y-9.3949 Z-0.01 R0.1 F4.
N8540 X3.743 Y-9.3856
N8550 X3.748 Y-9.3763
N8560 X3.7538 Y-9.3701
N8570 X3.7625 Y-9.3636
N8580 X3.7717 Y-9.3571
N8590 X3.7815 Y-9.3526
N8600 X3.7898 Y-9.3485
N8610 X3.7994 Y-9.3461
N8620 X3.8091 Y-9.3433
N8630 X3.8201 Y-9.3419
N8640 X3.8307 Y-9.3415
N8650 X3.8408
N8660 X3.8514 Y-9.3424
N8670 X3.8625 Y-9.3456
N8680 X3.8721 Y-9.3478
N8690 X3.8816 Y-9.3512
N8700 X3.8904 Y-9.3559
N8710 X3.8988 Y-9.3626
N8720 X3.906 Y-9.3679
N8730 X3.9122 Y-9.375
N8740 X3.9168 Y-9.3852
N8750 X3.9192 Y-9.3945
N8760 X3.9211 Y-9.4043
N8770 X3.9212 Y-9.4142
N8780 X3.9215 Y-9.4239
N8790 X3.9214 Y-9.4335
N8800 X3.9212 Y-9.4423
N8810 X3.9213 Y-9.4498
N8820 X3.9122 Y-9.4494
N8830 X3.903 Y-9.4492
N8840 X3.8934 Y-9.4495
N8850 X3.8836 Y-9.4492
N8860 X3.8717 Y-9.4493
N8870 X3.8606 Y-9.4492
N8880 X3.85 Y-9.4494
N8890 X3.8393 Y-9.4495
N8900 X3.8297 Y-9.4492
N8910 X3.8205 Y-9.4494
N8920 X3.8107
N8930 X3.8009 Y-9.4495
N8940 X3.79 Y-9.4493
N8950 X3.7787 Y-9.4496
N8960 X3.768 Y-9.4493
N8970 X3.7583
N8980 X3.7492
N8990 X3.7391 Y-9.4496
N9000 X3.7389 Y-9.441
N9010 X3.7386 Y-9.4302
N9020 X3.7385 Y-9.4186
N9030 X3.7391 Y-9.4072
N9040 X3.9206 Y-9.5105
N9050 X3.9205 Y-9.5201
N9060 Y-9.5303
N9070 Y-9.5401
N9080 Y-9.551
N9090 X3.9204 Y-9.5629
N9100 X3.9205 Y-9.5745
N9110 Y-9.5837
N9120 Y-9.5934
N9130 X3.9203 Y-9.6032
N9140 X3.9214 Y-9.6122
N9150 X3.9121 Y-9.6123
N9160 X3.903
N9170 X3.8932
N9180 X3.8835 Y-9.6121
N9190 X3.8717 Y-9.6123
N9200 X3.8608 Y-9.6125
N9210 X3.85 Y-9.6122
N9220 X3.8392 Y-9.6121
N9230 X3.8297 Y-9.6124
N9240 X3.8203 Y-9.6123
N9250 X3.8107
N9260 X3.8007 Y-9.6124
N9270 X3.7901 Y-9.6122
N9280 X3.7787 Y-9.6124
N9290 X3.7676 Y-9.6123
N9300 X3.7585 Y-9.6125
N9310 X3.7493
N9320 X3.7393 Y-9.6124
N9330 X3.7407 Y-9.7279
N9340 X3.7437 Y-9.7184
N9350 X3.7482 Y-9.7096
N9360 X3.7538 Y-9.7024
N9370 X3.7625 Y-9.6966
N9380 X3.7713 Y-9.6901
N9390 X3.7814 Y-9.6855
N9400 X3.7897 Y-9.6813
N9410 X3.7994 Y-9.6793
N9420 X3.8088 Y-9.6761
N9430 X3.8198 Y-9.6749
N9440 X3.8302 Y-9.6741
N9450 X3.8414 Y-9.6743
N9460 X3.8512 Y-9.6753
N9470 X3.8626 Y-9.6783
N9480 X3.8721 Y-9.6808
N9490 X3.8814 Y-9.6842
N9500 X3.8904 Y-9.689
N9510 X3.8988 Y-9.6959
N9520 X3.906 Y-9.7014
N9530 X3.9121 Y-9.7079
N9540 X3.9163 Y-9.7183
N9550 X3.9192 Y-9.7276
N9560 X3.9209 Y-9.7374
N9570 X3.9212 Y-9.7473
N9580 X3.9214 Y-9.7566
N9590 X3.9217 Y-9.7669
N9600 X3.9212 Y-9.7749
N9610 Y-9.7827
N9620 X3.9123 Y-9.7826
N9630 X3.9026
N9640 X3.8936
N9650 X3.8838 Y-9.7827
N9660 X3.8717 Y-9.7825
N9670 X3.8607
N9680 X3.8502 Y-9.7826
N9690 X3.8393 Y-9.7827
N9700 X3.8296 Y-9.7825
N9710 X3.8203 Y-9.7827
N9720 X3.8108 Y-9.7826
N9730 X3.8009
N9740 X3.7903 Y-9.7824
N9750 X3.7787 Y-9.7826
N9760 X3.7677
N9770 X3.7585
N9780 X3.7491
N9790 X3.7393
N9800 X3.7389 Y-9.774
N9810 X3.7384 Y-9.7632
N9820 Y-9.7515
N9830 X3.7391 Y-9.7404
N9840 G80
N9850 G0 Z0.5006
N9870 M5 M9

(DRILL1 2)
N9880 S10000 M3 M8
N9890 G0 X7.5156 Y-9.3982
N9900 G0 Z0.5006
N9920 G0 Z0.1006
N9930 G98 G81 X7.5156 Y-9.3982 Z-0.01 R0.1 F4.
N9940 X7.518 Y-9.3889
N9950 X7.523 Y-9.3796
N9960 X7.5288 Y-9.3733
N9970 X7.5375 Y-9.3669
N9980 X7.5467 Y-9.3604
N9990 X7.5565 Y-9.3559
N10000 X7.5648 Y-9.3518
N10010 X7.5744 Y-9.3494
N10020 X7.5841 Y-9.3466
N10030 X7.5951 Y-9.3452
N10040 X7.6057 Y-9.3447
N10050 X7.6158
N10060 X7.6264 Y-9.3457
N10070 X7.6375 Y-9.3489
N10080 X7.6471 Y-9.3511
N10090 X7.6566 Y-9.3544
N10100 X7.6654 Y-9.3592
N10110 X7.6738 Y-9.3659
N10120 X7.681 Y-9.3712
N10130 X7.6872 Y-9.3783
N10140 X7.6918 Y-9.3885
N10150 X7.6942 Y-9.3978
N10160 X7.6961 Y-9.4076
N10170 X7.6962 Y-9.4175
N10180 X7.6965 Y-9.4272
N10190 Y-9.4368
N10200 X7.6962 Y-9.4456
N10210 X7.6963 Y-9.4531
N10220 X7.6872 Y-9.4527
N10230 X7.678 Y-9.4525
N10240 X7.6684 Y-9.4527
N10250 X7.6586 Y-9.4525
N10260 X7.6467 Y-9.4526
N10270 X7.6356 Y-9.4525
N10280 X7.625 Y-9.4527
N10290 X7.6143 Y-9.4528
N10300 X7.6047 Y-9.4525
N10310 X7.5955 Y-9.4527
N10320 X7.5857
N10330 X7.5759 Y-9.4528
N10340 X7.565 Y-9.4526
N10350 X7.5537 Y-9.4528
N10360 X7.543 Y-9.4526
N10370 X7.5333
N10380 X7.5242
N10390 X7.5141 Y-9.4528
N10400 X7.5139 Y-9.4443
N10410 X7.5136 Y-9.4335
N10420 X7.5135 Y-9.4219
N10430 X7.5141 Y-9.4105
N10440 X7.6956 Y-9.5138
N10450 X7.6955 Y-9.5234
N10460 Y-9.5336
N10470 Y-9.5434
N10480 Y-9.5543
N10490 X7.6954 Y-9.5662
N10500 X7.6955 Y-9.5778
N10510 Y-9.587
N10520 Y-9.5967
N10530 X7.6953 Y-9.6065
N10540 X7.6964 Y-9.6155
N10550 X7.6871 Y-9.6156
N10560 X7.678
N10570 X7.6682
N10580 X7.6585 Y-9.6154
N10590 X7.6467 Y-9.6156
N10600 X7.6358 Y-9.6158
N10610 X7.625 Y-9.6155
N10620 X7.6142 Y-9.6154
N10630 X7.6047 Y-9.6157
N10640 X7.5953 Y-9.6156
N10650 X7.5857
N10660 X7.5757 Y-9.6157
N10670 X7.5651 Y-9.6155
N10680 X7.5537 Y-9.6157
N10690 X7.5426 Y-9.6156
N10700 X7.5335 Y-9.6158
N10710 X7.5243
N10720 X7.5143 Y-9.6157
N10730 X7.5157 Y-9.7312
N10740 X7.5187 Y-9.7217
N10750 X7.5232 Y-9.7128
N10760 X7.5288 Y-9.7057
N10770 X7.5375 Y-9.6998
N10780 X7.5463 Y-9.6934
N10790 X7.5564 Y-9.6888
N10800 X7.5647 Y-9.6846
N10810 X7.5744 Y-9.6826
N10820 X7.5838 Y-9.6794
N10830 X7.5948 Y-9.6782
N10840 X7.6052 Y-9.6774
N10850 X7.6164 Y-9.6776
N10860 X7.6262 Y-9.6786
N10870 X7.6376 Y-9.6816
N10880 X7.6471 Y-9.6841
N10890 X7.6564 Y-9.6875
N10900 X7.6654 Y-9.6923
N10910 X7.6738 Y-9.6992
N10920 X7.681 Y-9.7047
N10930 X7.6871 Y-9.7112
N10940 X7.6913 Y-9.7216
N10950 X7.6942 Y-9.7309
N10960 X7.6959 Y-9.7407
N10970 X7.6962 Y-9.7506
N10980 X7.6964 Y-9.7599
N10990 X7.6967 Y-9.7701
N11000 X7.6962 Y-9.7782
N11010 Y-9.786
N11020 X7.6873 Y-9.7859
N11030 X7.6776
N11040 X7.6686
N11050 X7.6588 Y-9.786
N11060 X7.6467 Y-9.7858
N11070 X7.6357
N11080 X7.6252 Y-9.7859
N11090 X7.6143 Y-9.786
N11100 X7.6046 Y-9.7858
N11110 X7.5953 Y-9.786
N11120 X7.5858 Y-9.7859
N11130 X7.5759
N11140 X7.5653 Y-9.7857
N11150 X7.5537 Y-9.7859
N11160 X7.5427
N11170 X7.5335
N11180 X7.5241
N11190 X7.5143
N11200 X7.5139 Y-9.7773
N11210 X7.5134 Y-9.7664
N11220 Y-9.7548
N11230 X7.5141 Y-9.7437
N11240 G80
N11250 G0 Z0.5006
N11270 M5 M9

N11280 G30
N11290 M30
%
