%
(*************************************)
(* Generated by wtopace for EntityX  *)
(* Date: 2/23/2016                   *)
(*************************************)
(1001)
(PROJECT 3)
(T1  D=0.0039 CR=0. TAPER=118DEG - ZMIN=-0.01 - DRILL)
N10 G90 G54 G64 G50 G17 G40 G80 G94 G91.1 G49
N20 G20 (Inch)
N30 G30

(DRILL2)
N50 G30
N60 T1 G43 H1 M6
N70 S10000 M3 M9
N80 G54
N90 G0 X3.3137 Y-2.3063
N100 G0 Z0.4506
N120 G0 Z0.0506
N130 G98 G81 X3.3137 Y-2.3063 Z-0.01 R0.05 F4.
N140 Y-2.2904
N150 Y-2.2706
N160 Y-2.2525
N170 X3.314 Y-2.2352
N180 Y-2.2172
N190 Y-2.1981
N200 X3.3146 Y-2.1812
N210 X3.314 Y-2.1615
N220 X3.3146 Y-2.144
N230 Y-2.1266
N240 X3.314 Y-2.108
N250 Y-2.09
N260 Y-2.073
N270 X3.3146 Y-2.0545
N280 X3.314 Y-2.0359
N290 Y-2.0168
N300 X3.3151 Y-1.9988
N310 X3.3266 Y-2.0146
N320 X3.3326 Y-2.0305
N330 X3.3397 Y-2.0463
N340 X3.3457 Y-2.0649
N350 X3.3533 Y-2.0812
N360 X3.3582 Y-2.0982
N370 X3.3653 Y-2.1145
N380 X3.3713 Y-2.1309
N390 X3.3779 Y-2.1479
N400 X3.3839 Y-2.1648
N410 X3.391 Y-2.1822
N420 X3.397 Y-2.1981
N430 X3.4085 Y-2.2143
N440 X3.4151 Y-2.1958
N450 X3.4213 Y-2.1797
N460 X3.4283 Y-2.1614
N470 X3.4345 Y-2.1453
N480 X3.4412 Y-2.1283
N490 X3.4475 Y-2.1113
N500 X3.4538 Y-2.0946
N510 X3.4598 Y-2.0789
N520 X3.4663 Y-2.0606
N530 X3.4728 Y-2.0443
N540 X3.479 Y-2.0279
N550 X3.4855 Y-2.0107
N560 X3.4996 Y-1.9996
N570 X3.4994 Y-2.0179
N580 X3.4991 Y-2.0362
N590 X3.4994 Y-2.0534
N600 X3.4991 Y-2.0729
N610 X3.4994 Y-2.0901
N620 Y-2.1089
N630 X3.4996 Y-2.1259
N640 X3.4994 Y-2.1442
N650 X3.4996 Y-2.1616
N660 Y-2.1811
N670 X3.4985 Y-2.1983
N680 X3.4994 Y-2.2175
N690 X3.4998 Y-2.2354
N700 X3.4991 Y-2.2531
N710 X3.4994 Y-2.2705
N720 X3.4991 Y-2.2899
N730 Y-2.3072
N740 X3.5985 Y-2.2434
N750 X3.5933 Y-2.2259
N760 X3.589 Y-2.2071
N770 X3.5872 Y-2.1883
N780 X3.5862 Y-2.1722
N790 X3.5849 Y-2.1533
N800 X3.5853 Y-2.1354
N810 X3.5874 Y-2.1157
N820 X3.5906 Y-2.0982
N830 X3.5935 Y-2.0798
N840 X3.5994 Y-2.0617
N850 X3.6064 Y-2.0451
N860 X3.616 Y-2.0297
N870 X3.6264 Y-2.0167
N880 X3.6393 Y-2.0054
N890 X3.657 Y-1.9947
N900 X3.6743 Y-1.9918
N910 X3.6936
N920 X3.7104 Y-1.9956
N930 X3.726 Y-2.0045
N940 X3.7412 Y-2.0163
N950 X3.7517 Y-2.0294
N960 X3.7621 Y-2.0462
N970 X3.7689 Y-2.0632
N980 X3.7737 Y-2.0814
N990 X3.7778 Y-2.0986
N1000 X3.7798 Y-2.1163
N1010 X3.7821 Y-2.1361
N1020 X3.7823 Y-2.154
N1030 X3.7818 Y-2.1719
N1040 X3.7791 Y-2.1903
N1050 X3.7775 Y-2.2085
N1060 X3.7728 Y-2.2273
N1070 X3.7682 Y-2.2418
N1080 X3.761 Y-2.2591
N1090 X3.7521 Y-2.2756
N1100 X3.7403 Y-2.289
N1110 X3.7269 Y-2.3019
N1120 X3.7095 Y-2.3103
N1130 X3.6918 Y-2.3151
N1140 X3.6745
N1150 X3.6564 Y-2.3108
N1160 X3.6421 Y-2.3026
N1170 X3.6273 Y-2.2904
N1180 X3.6153 Y-2.2761
N1190 X3.6055 Y-2.2606
N1200 G80
N1210 G0 Z0.4506
N1230 M5 M9

(DRILL2)
N1240 S10000 M3 M9
N1250 G0 X7.0868 Y-2.3042
N1260 G0 Z0.4506
N1280 G0 Z0.0506
N1290 G98 G81 X7.0868 Y-2.3042 Z-0.01 R0.05 F4.
N1300 Y-2.2883
N1310 Y-2.2685
N1320 Y-2.2504
N1330 X7.0871 Y-2.2331
N1340 Y-2.2151
N1350 Y-2.196
N1360 X7.0876 Y-2.1791
N1370 X7.0871 Y-2.1594
N1380 X7.0876 Y-2.1419
N1390 Y-2.1245
N1400 X7.0871 Y-2.1059
N1410 Y-2.0879
N1420 Y-2.0709
N1430 X7.0876 Y-2.0524
N1440 X7.0871 Y-2.0338
N1450 Y-2.0147
N1460 X7.0882 Y-1.9967
N1470 X7.0997 Y-2.0125
N1480 X7.1057 Y-2.0284
N1490 X7.1128 Y-2.0442
N1500 X7.1188 Y-2.0628
N1510 X7.1264 Y-2.0791
N1520 X7.1313 Y-2.0961
N1530 X7.1384 Y-2.1124
N1540 X7.1444 Y-2.1288
N1550 X7.151 Y-2.1457
N1560 X7.157 Y-2.1627
N1570 X7.1641 Y-2.1801
N1580 X7.1701 Y-2.196
N1590 X7.1816 Y-2.2122
N1600 X7.1882 Y-2.1937
N1610 X7.1944 Y-2.1776
N1620 X7.2014 Y-2.1593
N1630 X7.2076 Y-2.1432
N1640 X7.2143 Y-2.1262
N1650 X7.2206 Y-2.1092
N1660 X7.2268 Y-2.0925
N1670 X7.2329 Y-2.0768
N1680 X7.2394 Y-2.0585
N1690 X7.2458 Y-2.0422
N1700 X7.2521 Y-2.0258
N1710 X7.2586 Y-2.0086
N1720 X7.2727 Y-1.9975
N1730 X7.2724 Y-2.0158
N1740 X7.2722 Y-2.0341
N1750 X7.2724 Y-2.0513
N1760 X7.2722 Y-2.0708
N1770 X7.2724 Y-2.088
N1780 Y-2.1068
N1790 X7.2727 Y-2.1238
N1800 X7.2724 Y-2.1421
N1810 X7.2727 Y-2.1595
N1820 Y-2.179
N1830 X7.2716 Y-2.1962
N1840 X7.2724 Y-2.2154
N1850 X7.2729 Y-2.2333
N1860 X7.2722 Y-2.251
N1870 X7.2724 Y-2.2684
N1880 X7.2722 Y-2.2878
N1890 Y-2.3051
N1900 X7.3716 Y-2.2413
N1910 X7.3664 Y-2.2238
N1920 X7.3621 Y-2.205
N1930 X7.3602 Y-2.1862
N1940 X7.3593 Y-2.1701
N1950 X7.358 Y-2.1512
N1960 X7.3584 Y-2.1333
N1970 X7.3605 Y-2.1136
N1980 X7.3636 Y-2.0961
N1990 X7.3666 Y-2.0777
N2000 X7.3725 Y-2.0596
N2010 X7.3795 Y-2.043
N2020 X7.3891 Y-2.0276
N2030 X7.3995 Y-2.0146
N2040 X7.4124 Y-2.0033
N2050 X7.4301 Y-1.9926
N2060 X7.4474 Y-1.9897
N2070 X7.4667
N2080 X7.4835 Y-1.9935
N2090 X7.4991 Y-2.0024
N2100 X7.5143 Y-2.0142
N2110 X7.5247 Y-2.0273
N2120 X7.5352 Y-2.0441
N2130 X7.542 Y-2.0611
N2140 X7.5468 Y-2.0793
N2150 X7.5508 Y-2.0965
N2160 X7.5529 Y-2.1142
N2170 X7.5552 Y-2.134
N2180 X7.5554 Y-2.1519
N2190 X7.5549 Y-2.1698
N2200 X7.5522 Y-2.1882
N2210 X7.5506 Y-2.2064
N2220 X7.5459 Y-2.2252
N2230 X7.5413 Y-2.2397
N2240 X7.5341 Y-2.257
N2250 X7.5252 Y-2.2735
N2260 X7.5134 Y-2.2869
N2270 X7.5 Y-2.2998
N2280 X7.4825 Y-2.3082
N2290 X7.4648 Y-2.313
N2300 X7.4476
N2310 X7.4295 Y-2.3087
N2320 X7.4152 Y-2.3005
N2330 X7.4004 Y-2.2883
N2340 X7.3884 Y-2.274
N2350 X7.3786 Y-2.2585
N2360 G80
N2370 G0 Z0.4506
N2390 M5 M9

(DRILL2)
N2400 S10000 M3 M9
N2410 G0 X3.3153 Y-4.8053
N2420 G0 Z0.4506
N2440 G0 Z0.0506
N2450 G98 G81 X3.3153 Y-4.8053 Z-0.01 R0.05 F4.
N2460 Y-4.7894
N2470 Y-4.7696
N2480 Y-4.7515
N2490 X3.3156 Y-4.7342
N2500 Y-4.7161
N2510 Y-4.697
N2520 X3.3161 Y-4.6801
N2530 X3.3156 Y-4.6604
N2540 X3.3161 Y-4.643
N2550 Y-4.6255
N2560 X3.3156 Y-4.6069
N2570 Y-4.5889
N2580 Y-4.572
N2590 X3.3161 Y-4.5534
N2600 X3.3156 Y-4.5349
N2610 Y-4.5158
N2620 X3.3167 Y-4.4977
N2630 X3.3281 Y-4.5136
N2640 X3.3341 Y-4.5294
N2650 X3.3412 Y-4.5452
N2660 X3.3473 Y-4.5638
N2670 X3.3549 Y-4.5802
N2680 X3.3598 Y-4.5971
N2690 X3.3669 Y-4.6135
N2700 X3.3729 Y-4.6299
N2710 X3.3795 Y-4.6468
N2720 X3.3855 Y-4.6637
N2730 X3.3926 Y-4.6812
N2740 X3.3986 Y-4.697
N2750 X3.41 Y-4.7133
N2760 X3.4167 Y-4.6948
N2770 X3.4229 Y-4.6787
N2780 X3.4298 Y-4.6603
N2790 X3.4361 Y-4.6443
N2800 X3.4428 Y-4.6273
N2810 X3.4491 Y-4.6103
N2820 X3.4553 Y-4.5935
N2830 X3.4614 Y-4.5779
N2840 X3.4678 Y-4.5595
N2850 X3.4743 Y-4.5432
N2860 X3.4806 Y-4.5269
N2870 X3.4871 Y-4.5097
N2880 X3.5012 Y-4.4985
N2890 X3.5009 Y-4.5168
N2900 X3.5007 Y-4.5352
N2910 X3.5009 Y-4.5524
N2920 X3.5007 Y-4.5718
N2930 X3.5009 Y-4.589
N2940 Y-4.6078
N2950 X3.5012 Y-4.6248
N2960 X3.5009 Y-4.6431
N2970 X3.5012 Y-4.6606
N2980 Y-4.68
N2990 X3.5 Y-4.6972
N3000 X3.5009 Y-4.7165
N3010 X3.5014 Y-4.7343
N3020 X3.5007 Y-4.752
N3030 X3.5009 Y-4.7694
N3040 X3.5007 Y-4.7889
N3050 Y-4.8061
N3060 X3.6001 Y-4.7424
N3070 X3.5949 Y-4.7249
N3080 X3.5905 Y-4.706
N3090 X3.5887 Y-4.6872
N3100 X3.5878 Y-4.6711
N3110 X3.5865 Y-4.6523
N3120 X3.5869 Y-4.6343
N3130 X3.589 Y-4.6146
N3140 X3.5921 Y-4.5971
N3150 X3.5951 Y-4.5788
N3160 X3.601 Y-4.5606
N3170 X3.608 Y-4.544
N3180 X3.6175 Y-4.5286
N3190 X3.628 Y-4.5157
N3200 X3.6409 Y-4.5043
N3210 X3.6586 Y-4.4937
N3220 X3.6759 Y-4.4907
N3230 X3.6951
N3240 X3.7119 Y-4.4946
N3250 X3.7276 Y-4.5034
N3260 X3.7428 Y-4.5152
N3270 X3.7532 Y-4.5284
N3280 X3.7637 Y-4.5452
N3290 X3.7705 Y-4.5622
N3300 X3.7752 Y-4.5803
N3310 X3.7793 Y-4.5976
N3320 X3.7814 Y-4.6153
N3330 X3.7836 Y-4.635
N3340 X3.7839 Y-4.653
N3350 X3.7834 Y-4.6709
N3360 X3.7807 Y-4.6893
N3370 X3.7791 Y-4.7074
N3380 X3.7743 Y-4.7262
N3390 X3.7698 Y-4.7408
N3400 X3.7625 Y-4.758
N3410 X3.7537 Y-4.7746
N3420 X3.7419 Y-4.788
N3430 X3.7285 Y-4.8009
N3440 X3.711 Y-4.8093
N3450 X3.6933 Y-4.8141
N3460 X3.6761
N3470 X3.6579 Y-4.8097
N3480 X3.6436 Y-4.8016
N3490 X3.6289 Y-4.7893
N3500 X3.6169 Y-4.775
N3510 X3.6071 Y-4.7596
N3520 G80
N3530 G0 Z0.4506
N3550 M5 M9

(DRILL2)
N3560 S10000 M3 M9
N3570 G0 X7.0897 Y-4.8046
N3580 G0 Z0.4506
N3600 G0 Z0.0506
N3610 G98 G81 X7.0897 Y-4.8046 Z-0.01 R0.05 F4.
N3620 Y-4.7887
N3630 Y-4.7689
N3640 Y-4.7508
N3650 X7.09 Y-4.7335
N3660 Y-4.7155
N3670 Y-4.6964
N3680 X7.0906 Y-4.6795
N3690 X7.09 Y-4.6598
N3700 X7.0906 Y-4.6423
N3710 Y-4.6249
N3720 X7.09 Y-4.6063
N3730 Y-4.5883
N3740 Y-4.5714
N3750 X7.0906 Y-4.5528
N3760 X7.09 Y-4.5342
N3770 Y-4.5151
N3780 X7.0911 Y-4.4971
N3790 X7.1026 Y-4.5129
N3800 X7.1086 Y-4.5288
N3810 X7.1157 Y-4.5446
N3820 X7.1217 Y-4.5632
N3830 X7.1294 Y-4.5795
N3840 X7.1343 Y-4.5965
N3850 X7.1414 Y-4.6128
N3860 X7.1474 Y-4.6292
N3870 X7.1539 Y-4.6462
N3880 X7.1599 Y-4.6631
N3890 X7.167 Y-4.6806
N3900 X7.173 Y-4.6964
N3910 X7.1845 Y-4.7126
N3920 X7.1911 Y-4.6941
N3930 X7.1974 Y-4.678
N3940 X7.2043 Y-4.6597
N3950 X7.2106 Y-4.6436
N3960 X7.2173 Y-4.6266
N3970 X7.2235 Y-4.6096
N3980 X7.2298 Y-4.5929
N3990 X7.2358 Y-4.5772
N4000 X7.2423 Y-4.5589
N4010 X7.2488 Y-4.5426
N4020 X7.2551 Y-4.5263
N4030 X7.2615 Y-4.509
N4040 X7.2756 Y-4.4979
N4050 X7.2754 Y-4.5162
N4060 X7.2752 Y-4.5345
N4070 X7.2754 Y-4.5517
N4080 X7.2752 Y-4.5712
N4090 X7.2754 Y-4.5884
N4100 Y-4.6072
N4110 X7.2756 Y-4.6242
N4120 X7.2754 Y-4.6425
N4130 X7.2756 Y-4.6599
N4140 Y-4.6794
N4150 X7.2745 Y-4.6966
N4160 X7.2754 Y-4.7158
N4170 X7.2758 Y-4.7337
N4180 X7.2752 Y-4.7514
N4190 X7.2754 Y-4.7688
N4200 X7.2752 Y-4.7882
N4210 Y-4.8055
N4220 X7.3745 Y-4.7417
N4230 X7.3693 Y-4.7242
N4240 X7.365 Y-4.7054
N4250 X7.3632 Y-4.6866
N4260 X7.3623 Y-4.6705
N4270 X7.3609 Y-4.6516
N4280 X7.3614 Y-4.6337
N4290 X7.3634 Y-4.614
N4300 X7.3666 Y-4.5965
N4310 X7.3695 Y-4.5781
N4320 X7.3754 Y-4.56
N4330 X7.3825 Y-4.5434
N4340 X7.392 Y-4.528
N4350 X7.4024 Y-4.515
N4360 X7.4154 Y-4.5037
N4370 X7.4331 Y-4.493
N4380 X7.4503 Y-4.4901
N4390 X7.4696
N4400 X7.4864 Y-4.4939
N4410 X7.5021 Y-4.5028
N4420 X7.5173 Y-4.5146
N4430 X7.5277 Y-4.5277
N4440 X7.5381 Y-4.5445
N4450 X7.5449 Y-4.5615
N4460 X7.5497 Y-4.5797
N4470 X7.5538 Y-4.5969
N4480 X7.5558 Y-4.6146
N4490 X7.5581 Y-4.6344
N4500 X7.5583 Y-4.6523
N4510 X7.5579 Y-4.6702
N4520 X7.5552 Y-4.6886
N4530 X7.5536 Y-4.7068
N4540 X7.5488 Y-4.7256
N4550 X7.5443 Y-4.7401
N4560 X7.537 Y-4.7574
N4570 X7.5282 Y-4.7739
N4580 X7.5164 Y-4.7873
N4590 X7.503 Y-4.8002
N4600 X7.4855 Y-4.8086
N4610 X7.4678 Y-4.8134
N4620 X7.4505
N4630 X7.4324 Y-4.8091
N4640 X7.4181 Y-4.8009
N4650 X7.4034 Y-4.7887
N4660 X7.3913 Y-4.7744
N4670 X7.3816 Y-4.759
N4680 G80
N4690 G0 Z0.4506
N4710 M5 M9

(DRILL2)
N4720 S10000 M3 M9
N4730 G0 X3.3171 Y-7.3055
N4740 G0 Z0.4506
N4760 G0 Z0.0506
N4770 G98 G81 X3.3171 Y-7.3055 Z-0.01 R0.05 F4.
N4780 Y-7.2896
N4790 Y-7.2698
N4800 Y-7.2517
N4810 X3.3174 Y-7.2344
N4820 Y-7.2164
N4830 Y-7.1973
N4840 X3.318 Y-7.1803
N4850 X3.3174 Y-7.1607
N4860 X3.318 Y-7.1432
N4870 Y-7.1257
N4880 X3.3174 Y-7.1072
N4890 Y-7.0892
N4900 Y-7.0722
N4910 X3.318 Y-7.0537
N4920 X3.3174 Y-7.0351
N4930 Y-7.016
N4940 X3.3185 Y-6.998
N4950 X3.33 Y-7.0138
N4960 X3.336 Y-7.0296
N4970 X3.3431 Y-7.0455
N4980 X3.3491 Y-7.064
N4990 X3.3567 Y-7.0804
N5000 X3.3616 Y-7.0973
N5010 X3.3687 Y-7.1137
N5020 X3.3747 Y-7.1301
N5030 X3.3813 Y-7.147
N5040 X3.3873 Y-7.164
N5050 X3.3944 Y-7.1814
N5060 X3.4004 Y-7.1973
N5070 X3.4119 Y-7.2135
N5080 X3.4185 Y-7.195
N5090 X3.4247 Y-7.1789
N5100 X3.4317 Y-7.1606
N5110 X3.4379 Y-7.1445
N5120 X3.4446 Y-7.1275
N5130 X3.4509 Y-7.1105
N5140 X3.4572 Y-7.0937
N5150 X3.4632 Y-7.0781
N5160 X3.4697 Y-7.0598
N5170 X3.4762 Y-7.0434
N5180 X3.4824 Y-7.0271
N5190 X3.4889 Y-7.0099
N5200 X3.503 Y-6.9987
N5210 X3.5028 Y-7.0171
N5220 X3.5025 Y-7.0354
N5230 X3.5028 Y-7.0526
N5240 X3.5025 Y-7.0721
N5250 X3.5028 Y-7.0893
N5260 Y-7.108
N5270 X3.503 Y-7.125
N5280 X3.5028 Y-7.1434
N5290 X3.503 Y-7.1608
N5300 Y-7.1803
N5310 X3.5019 Y-7.1975
N5320 X3.5028 Y-7.2167
N5330 X3.5032 Y-7.2346
N5340 X3.5025 Y-7.2522
N5350 X3.5028 Y-7.2697
N5360 X3.5025 Y-7.2891
N5370 Y-7.3063
N5380 X3.6019 Y-7.2426
N5390 X3.5967 Y-7.2251
N5400 X3.5924 Y-7.2063
N5410 X3.5906 Y-7.1874
N5420 X3.5897 Y-7.1713
N5430 X3.5883 Y-7.1525
N5440 X3.5887 Y-7.1346
N5450 X3.5908 Y-7.1148
N5460 X3.594 Y-7.0974
N5470 X3.5969 Y-7.079
N5480 X3.6028 Y-7.0608
N5490 X3.6098 Y-7.0443
N5500 X3.6194 Y-7.0288
N5510 X3.6298 Y-7.0159
N5520 X3.6427 Y-7.0046
N5530 X3.6604 Y-6.9939
N5540 X3.6777 Y-6.9909
N5550 X3.697
N5560 X3.7138 Y-6.9948
N5570 X3.7294 Y-7.0037
N5580 X3.7446 Y-7.0155
N5590 X3.7551 Y-7.0286
N5600 X3.7655 Y-7.0454
N5610 X3.7723 Y-7.0624
N5620 X3.7771 Y-7.0806
N5630 X3.7812 Y-7.0978
N5640 X3.7832 Y-7.1155
N5650 X3.7855 Y-7.1353
N5660 X3.7857 Y-7.1532
N5670 X3.7852 Y-7.1711
N5680 X3.7825 Y-7.1895
N5690 X3.7809 Y-7.2076
N5700 X3.7762 Y-7.2265
N5710 X3.7716 Y-7.241
N5720 X3.7644 Y-7.2582
N5730 X3.7555 Y-7.2748
N5740 X3.7437 Y-7.2882
N5750 X3.7303 Y-7.3011
N5760 X3.7129 Y-7.3095
N5770 X3.6952 Y-7.3143
N5780 X3.6779
N5790 X3.6598 Y-7.31
N5800 X3.6455 Y-7.3018
N5810 X3.6307 Y-7.2895
N5820 X3.6187 Y-7.2753
N5830 X3.6089 Y-7.2598
N5840 G80
N5850 G0 Z0.4506
N5870 M5 M9

(DRILL2)
N5880 S10000 M3 M9
N5890 G0 X7.0913 Y-7.3049
N5900 G0 Z0.4506
N5920 G0 Z0.0506
N5930 G98 G81 X7.0913 Y-7.3049 Z-0.01 R0.05 F4.
N5940 Y-7.289
N5950 Y-7.2692
N5960 Y-7.2511
N5970 X7.0916 Y-7.2338
N5980 Y-7.2158
N5990 Y-7.1967
N6000 X7.0922 Y-7.1798
N6010 X7.0916 Y-7.1601
N6020 X7.0922 Y-7.1426
N6030 Y-7.1252
N6040 X7.0916 Y-7.1066
N6050 Y-7.0886
N6060 Y-7.0717
N6070 X7.0922 Y-7.0531
N6080 X7.0916 Y-7.0345
N6090 Y-7.0154
N6100 X7.0927 Y-6.9974
N6110 X7.1042 Y-7.0132
N6120 X7.1102 Y-7.0291
N6130 X7.1173 Y-7.0449
N6140 X7.1233 Y-7.0635
N6150 X7.1309 Y-7.0798
N6160 X7.1358 Y-7.0968
N6170 X7.1429 Y-7.1131
N6180 X7.149 Y-7.1295
N6190 X7.1555 Y-7.1465
N6200 X7.1615 Y-7.1634
N6210 X7.1686 Y-7.1809
N6220 X7.1746 Y-7.1967
N6230 X7.1861 Y-7.2129
N6240 X7.1927 Y-7.1944
N6250 X7.199 Y-7.1783
N6260 X7.2059 Y-7.16
N6270 X7.2121 Y-7.1439
N6280 X7.2188 Y-7.1269
N6290 X7.2251 Y-7.1099
N6300 X7.2314 Y-7.0932
N6310 X7.2374 Y-7.0775
N6320 X7.2439 Y-7.0592
N6330 X7.2504 Y-7.0429
N6340 X7.2566 Y-7.0266
N6350 X7.2631 Y-7.0093
N6360 X7.2772 Y-6.9982
N6370 X7.277 Y-7.0165
N6380 X7.2767 Y-7.0348
N6390 X7.277 Y-7.052
N6400 X7.2767 Y-7.0715
N6410 X7.277 Y-7.0887
N6420 Y-7.1075
N6430 X7.2772 Y-7.1245
N6440 X7.277 Y-7.1428
N6450 X7.2772 Y-7.1602
N6460 Y-7.1797
N6470 X7.2761 Y-7.1969
N6480 X7.277 Y-7.2161
N6490 X7.2774 Y-7.234
N6500 X7.2767 Y-7.2517
N6510 X7.277 Y-7.2691
N6520 X7.2767 Y-7.2885
N6530 Y-7.3058
N6540 X7.3761 Y-7.242
N6550 X7.3709 Y-7.2245
N6560 X7.3666 Y-7.2057
N6570 X7.3648 Y-7.1869
N6580 X7.3639 Y-7.1708
N6590 X7.3625 Y-7.1519
N6600 X7.363 Y-7.134
N6610 X7.365 Y-7.1143
N6620 X7.3682 Y-7.0968
N6630 X7.3711 Y-7.0784
N6640 X7.377 Y-7.0603
N6650 X7.3841 Y-7.0437
N6660 X7.3936 Y-7.0283
N6670 X7.404 Y-7.0153
N6680 X7.417 Y-7.004
N6690 X7.4347 Y-6.9933
N6700 X7.4519 Y-6.9904
N6710 X7.4712
N6720 X7.488 Y-6.9942
N6730 X7.5036 Y-7.0031
N6740 X7.5188 Y-7.0149
N6750 X7.5293 Y-7.028
N6760 X7.5397 Y-7.0448
N6770 X7.5465 Y-7.0618
N6780 X7.5513 Y-7.08
N6790 X7.5554 Y-7.0972
N6800 X7.5574 Y-7.1149
N6810 X7.5597 Y-7.1347
N6820 X7.5599 Y-7.1526
N6830 X7.5594 Y-7.1705
N6840 X7.5567 Y-7.1889
N6850 X7.5551 Y-7.2071
N6860 X7.5504 Y-7.2259
N6870 X7.5458 Y-7.2404
N6880 X7.5386 Y-7.2577
N6890 X7.5297 Y-7.2742
N6900 X7.5179 Y-7.2876
N6910 X7.5045 Y-7.3005
N6920 X7.4871 Y-7.3089
N6930 X7.4694 Y-7.3137
N6940 X7.4521
N6950 X7.434 Y-7.3094
N6960 X7.4197 Y-7.3012
N6970 X7.4049 Y-7.289
N6980 X7.3929 Y-7.2747
N6990 X7.3831 Y-7.2593
N7000 G80
N7010 G0 Z0.4506
N7030 M5 M9

(DRILL2)
N7040 S10000 M3 M9
N7050 G0 X3.3128 Y-9.8038
N7060 G0 Z0.4506
N7080 G0 Z0.0506
N7090 G98 G81 X3.3128 Y-9.8038 Z-0.01 R0.05 F4.
N7100 Y-9.7878
N7110 Y-9.7681
N7120 Y-9.75
N7130 X3.3132 Y-9.7326
N7140 Y-9.7146
N7150 Y-9.6955
N7160 X3.3137 Y-9.6786
N7170 X3.3132 Y-9.6589
N7180 X3.3137 Y-9.6415
N7190 Y-9.624
N7200 X3.3132 Y-9.6054
N7210 Y-9.5874
N7220 Y-9.5705
N7230 X3.3137 Y-9.5519
N7240 X3.3132 Y-9.5333
N7250 Y-9.5142
N7260 X3.3142 Y-9.4962
N7270 X3.3257 Y-9.512
N7280 X3.3317 Y-9.5279
N7290 X3.3388 Y-9.5437
N7300 X3.3448 Y-9.5623
N7310 X3.3525 Y-9.5787
N7320 X3.3574 Y-9.5956
N7330 X3.3645 Y-9.612
N7340 X3.3705 Y-9.6283
N7350 X3.377 Y-9.6453
N7360 X3.383 Y-9.6622
N7370 X3.3901 Y-9.6797
N7380 X3.3962 Y-9.6955
N7390 X3.4076 Y-9.7117
N7400 X3.4142 Y-9.6933
N7410 X3.4205 Y-9.6772
N7420 X3.4274 Y-9.6588
N7430 X3.4337 Y-9.6427
N7440 X3.4404 Y-9.6257
N7450 X3.4466 Y-9.6088
N7460 X3.4529 Y-9.592
N7470 X3.4589 Y-9.5763
N7480 X3.4654 Y-9.558
N7490 X3.4719 Y-9.5417
N7500 X3.4782 Y-9.5254
N7510 X3.4846 Y-9.5082
N7520 X3.4987 Y-9.497
N7530 X3.4985 Y-9.5153
N7540 X3.4983 Y-9.5336
N7550 X3.4985 Y-9.5509
N7560 X3.4983 Y-9.5703
N7570 X3.4985 Y-9.5875
N7580 Y-9.6063
N7590 X3.4987 Y-9.6233
N7600 X3.4985 Y-9.6416
N7610 X3.4987 Y-9.659
N7620 Y-9.6785
N7630 X3.4976 Y-9.6957
N7640 X3.4985 Y-9.7149
N7650 X3.499 Y-9.7328
N7660 X3.4983 Y-9.7505
N7670 X3.4985 Y-9.7679
N7680 X3.4983 Y-9.7874
N7690 Y-9.8046
N7700 X3.5976 Y-9.7408
N7710 X3.5924 Y-9.7234
N7720 X3.5881 Y-9.7045
N7730 X3.5863 Y-9.6857
N7740 X3.5854 Y-9.6696
N7750 X3.584 Y-9.6507
N7760 X3.5845 Y-9.6328
N7770 X3.5865 Y-9.6131
N7780 X3.5897 Y-9.5956
N7790 X3.5927 Y-9.5772
N7800 X3.5986 Y-9.5591
N7810 X3.6056 Y-9.5425
N7820 X3.6151 Y-9.5271
N7830 X3.6256 Y-9.5142
N7840 X3.6385 Y-9.5028
N7850 X3.6562 Y-9.4921
N7860 X3.6734 Y-9.4892
N7870 X3.6927
N7880 X3.7095 Y-9.4931
N7890 X3.7252 Y-9.5019
N7900 X3.7404 Y-9.5137
N7910 X3.7508 Y-9.5269
N7920 X3.7612 Y-9.5436
N7930 X3.7681 Y-9.5607
N7940 X3.7728 Y-9.5788
N7950 X3.7769 Y-9.5961
N7960 X3.7789 Y-9.6138
N7970 X3.7812 Y-9.6335
N7980 X3.7814 Y-9.6514
N7990 X3.781 Y-9.6694
N8000 X3.7783 Y-9.6877
N8010 X3.7767 Y-9.7059
N8020 X3.7719 Y-9.7247
N8030 X3.7674 Y-9.7392
N8040 X3.7601 Y-9.7565
N8050 X3.7513 Y-9.773
N8060 X3.7395 Y-9.7864
N8070 X3.7261 Y-9.7994
N8080 X3.7086 Y-9.8078
N8090 X3.6909 Y-9.8125
N8100 X3.6737
N8110 X3.6555 Y-9.8082
N8120 X3.6412 Y-9.8
N8130 X3.6265 Y-9.7878
N8140 X3.6144 Y-9.7735
N8150 X3.6047 Y-9.7581
N8160 G80
N8170 G0 Z0.4506
N8190 M5 M9

(DRILL2)
N8200 S10000 M3 M9
N8210 G0 X7.0872 Y-9.8033
N8220 G0 Z0.4506
N8240 G0 Z0.0506
N8250 G98 G81 X7.0872 Y-9.8033 Z-0.01 R0.05 F4.
N8260 Y-9.7874
N8270 Y-9.7676
N8280 Y-9.7495
N8290 X7.0875 Y-9.7322
N8300 Y-9.7142
N8310 Y-9.695
N8320 X7.0881 Y-9.6781
N8330 X7.0875 Y-9.6585
N8340 X7.0881 Y-9.641
N8350 Y-9.6235
N8360 X7.0875 Y-9.605
N8370 Y-9.5869
N8380 Y-9.57
N8390 X7.0881 Y-9.5514
N8400 X7.0875 Y-9.5329
N8410 Y-9.5138
N8420 X7.0886 Y-9.4958
N8430 X7.1001 Y-9.5116
N8440 X7.1061 Y-9.5274
N8450 X7.1132 Y-9.5433
N8460 X7.1192 Y-9.5618
N8470 X7.1268 Y-9.5782
N8480 X7.1317 Y-9.5951
N8490 X7.1388 Y-9.6115
N8500 X7.1449 Y-9.6279
N8510 X7.1514 Y-9.6448
N8520 X7.1574 Y-9.6617
N8530 X7.1645 Y-9.6792
N8540 X7.1705 Y-9.695
N8550 X7.182 Y-9.7113
N8560 X7.1886 Y-9.6928
N8570 X7.1949 Y-9.6767
N8580 X7.2018 Y-9.6584
N8590 X7.208 Y-9.6423
N8600 X7.2147 Y-9.6253
N8610 X7.221 Y-9.6083
N8620 X7.2273 Y-9.5915
N8630 X7.2333 Y-9.5759
N8640 X7.2398 Y-9.5575
N8650 X7.2463 Y-9.5412
N8660 X7.2525 Y-9.5249
N8670 X7.259 Y-9.5077
N8680 X7.2731 Y-9.4965
N8690 X7.2729 Y-9.5148
N8700 X7.2726 Y-9.5332
N8710 X7.2729 Y-9.5504
N8720 X7.2726 Y-9.5698
N8730 X7.2729 Y-9.5871
N8740 Y-9.6058
N8750 X7.2731 Y-9.6228
N8760 X7.2729 Y-9.6412
N8770 X7.2731 Y-9.6586
N8780 Y-9.678
N8790 X7.272 Y-9.6952
N8800 X7.2729 Y-9.7145
N8810 X7.2733 Y-9.7324
N8820 X7.2726 Y-9.75
N8830 X7.2729 Y-9.7675
N8840 X7.2726 Y-9.7869
N8850 Y-9.8041
N8860 X7.372 Y-9.7404
N8870 X7.3668 Y-9.7229
N8880 X7.3625 Y-9.7041
N8890 X7.3607 Y-9.6852
N8900 X7.3598 Y-9.6691
N8910 X7.3584 Y-9.6503
N8920 X7.3589 Y-9.6324
N8930 X7.3609 Y-9.6126
N8940 X7.3641 Y-9.5951
N8950 X7.367 Y-9.5768
N8960 X7.3729 Y-9.5586
N8970 X7.38 Y-9.5421
N8980 X7.3895 Y-9.5266
N8990 X7.3999 Y-9.5137
N9000 X7.4129 Y-9.5023
N9010 X7.4306 Y-9.4917
N9020 X7.4478 Y-9.4887
N9030 X7.4671
N9040 X7.4839 Y-9.4926
N9050 X7.4995 Y-9.5014
N9060 X7.5147 Y-9.5132
N9070 X7.5252 Y-9.5264
N9080 X7.5356 Y-9.5432
N9090 X7.5424 Y-9.5602
N9100 X7.5472 Y-9.5784
N9110 X7.5513 Y-9.5956
N9120 X7.5533 Y-9.6133
N9130 X7.5556 Y-9.633
N9140 X7.5558 Y-9.651
N9150 X7.5554 Y-9.6689
N9160 X7.5526 Y-9.6873
N9170 X7.551 Y-9.7054
N9180 X7.5463 Y-9.7243
N9190 X7.5417 Y-9.7388
N9200 X7.5345 Y-9.756
N9210 X7.5256 Y-9.7726
N9220 X7.5138 Y-9.786
N9230 X7.5004 Y-9.7989
N9240 X7.483 Y-9.8073
N9250 X7.4653 Y-9.8121
N9260 X7.448
N9270 X7.4299 Y-9.8078
N9280 X7.4156 Y-9.7996
N9290 X7.4008 Y-9.7873
N9300 X7.3888 Y-9.773
N9310 X7.379 Y-9.7576
N9320 G80
N9330 G0 Z0.4506
N9350 M5 M9

N9360 G30
N9370 M30
%
