%
(*************************************)
(* Generated by wtopace for EntityX  *)
(* Date: 2/25/2016                   *)
(*************************************)
(1001)
(PROJECT 3 - REVERSED)
(T1  D=0.0039 CR=0. TAPER=118DEG - ZMIN=-0.01 - DRILL)
N10 G90 G54 G64 G50 G17 G40 G80 G94 G91.1 G49
N20 G20 (Inch)
N30 G30

(DRILL2 2)
N50 G30
N60 T1 G43 H1 M6
N70 S10000 M3 M9
N80 G54
N90 G0 X5.1863 Y-2.3064
N100 G0 Z0.4506
N120 G0 Z0.0506
N130 G98 G81 X5.1863 Y-2.3064 Z-0.01 R0.05 F4.
N140 Y-2.2905
N150 Y-2.2707
N160 Y-2.2526
N170 X5.1859 Y-2.2353
N180 Y-2.2172
N190 Y-2.1981
N200 X5.1854 Y-2.1812
N210 X5.1859 Y-2.1615
N220 X5.1854 Y-2.1441
N230 Y-2.1266
N240 X5.1859 Y-2.108
N250 Y-2.09
N260 Y-2.0731
N270 X5.1854 Y-2.0545
N280 X5.1859 Y-2.036
N290 Y-2.0169
N300 X5.1848 Y-1.9988
N310 X5.1734 Y-2.0147
N320 X5.1674 Y-2.0305
N330 X5.1603 Y-2.0463
N340 X5.1543 Y-2.0649
N350 X5.1466 Y-2.0813
N360 X5.1417 Y-2.0982
N370 X5.1346 Y-2.1146
N380 X5.1286 Y-2.131
N390 X5.122 Y-2.1479
N400 X5.116 Y-2.1648
N410 X5.1089 Y-2.1823
N420 X5.1029 Y-2.1981
N430 X5.0915 Y-2.2144
N440 X5.0849 Y-2.1959
N450 X5.0786 Y-2.1798
N460 X5.0717 Y-2.1614
N470 X5.0654 Y-2.1453
N480 X5.0587 Y-2.1284
N490 X5.0524 Y-2.1114
N500 X5.0462 Y-2.0946
N510 X5.0401 Y-2.079
N520 X5.0337 Y-2.0606
N530 X5.0272 Y-2.0443
N540 X5.0209 Y-2.028
N550 X5.0144 Y-2.0108
N560 X5.0004 Y-1.9996
N570 X5.0006 Y-2.0179
N580 X5.0008 Y-2.0363
N590 X5.0006 Y-2.0535
N600 X5.0008 Y-2.0729
N610 X5.0006 Y-2.0901
N620 Y-2.1089
N630 X5.0004 Y-2.1259
N640 X5.0006 Y-2.1442
N650 X5.0004 Y-2.1617
N660 Y-2.1811
N670 X5.0015 Y-2.1983
N680 X5.0006 Y-2.2176
N690 X5.0001 Y-2.2354
N700 X5.0008 Y-2.2531
N710 X5.0006 Y-2.2705
N720 X5.0008 Y-2.29
N730 Y-2.3072
N740 X4.9014 Y-2.2434
N750 X4.9067 Y-2.226
N760 X4.911 Y-2.2071
N770 X4.9128 Y-2.1883
N780 X4.9137 Y-2.1722
N790 X4.9151 Y-2.1534
N800 X4.9146 Y-2.1354
N810 X4.9126 Y-2.1157
N820 X4.9094 Y-2.0982
N830 X4.9064 Y-2.0798
N840 X4.9005 Y-2.0617
N850 X4.8935 Y-2.0451
N860 X4.884 Y-2.0297
N870 X4.8735 Y-2.0168
N880 X4.8606 Y-2.0054
N890 X4.8429 Y-1.9948
N900 X4.8257 Y-1.9918
N910 X4.8064
N920 X4.7896 Y-1.9957
N930 X4.7739 Y-2.0045
N940 X4.7587 Y-2.0163
N950 X4.7483 Y-2.0295
N960 X4.7378 Y-2.0463
N970 X4.731 Y-2.0633
N980 X4.7263 Y-2.0814
N990 X4.7222 Y-2.0987
N1000 X4.7201 Y-2.1164
N1010 X4.7179 Y-2.1361
N1020 X4.7176 Y-2.154
N1030 X4.7181 Y-2.172
N1040 X4.7208 Y-2.1904
N1050 X4.7224 Y-2.2085
N1060 X4.7272 Y-2.2273
N1070 X4.7317 Y-2.2419
N1080 X4.739 Y-2.2591
N1090 X4.7478 Y-2.2757
N1100 X4.7596 Y-2.2891
N1110 X4.773 Y-2.302
N1120 X4.7905 Y-2.3104
N1130 X4.8082 Y-2.3151
N1140 X4.8254
N1150 X4.8436 Y-2.3108
N1160 X4.8579 Y-2.3027
N1170 X4.8726 Y-2.2904
N1180 X4.8846 Y-2.2761
N1190 X4.8944 Y-2.2607
N1200 G80
N1210 G0 Z0.4506
N1230 M5 M9

(DRILL2 2)
N1240 S10000 M3 M9
N1250 G0 X1.4132 Y-2.3043
N1260 G0 Z0.4506
N1280 G0 Z0.0506
N1290 G98 G81 X1.4132 Y-2.3043 Z-0.01 R0.05 F4.
N1300 Y-2.2884
N1310 Y-2.2686
N1320 Y-2.2505
N1330 X1.4128 Y-2.2332
N1340 Y-2.2151
N1350 Y-2.196
N1360 X1.4123 Y-2.1791
N1370 X1.4128 Y-2.1594
N1380 X1.4123 Y-2.142
N1390 Y-2.1245
N1400 X1.4128 Y-2.1059
N1410 Y-2.0879
N1420 Y-2.071
N1430 X1.4123 Y-2.0524
N1440 X1.4128 Y-2.0339
N1450 Y-2.0147
N1460 X1.4117 Y-1.9967
N1470 X1.4003 Y-2.0126
N1480 X1.3943 Y-2.0284
N1490 X1.3872 Y-2.0442
N1500 X1.3812 Y-2.0628
N1510 X1.3735 Y-2.0792
N1520 X1.3686 Y-2.0961
N1530 X1.3615 Y-2.1125
N1540 X1.3555 Y-2.1289
N1550 X1.349 Y-2.1458
N1560 X1.343 Y-2.1627
N1570 X1.3359 Y-2.1802
N1580 X1.3298 Y-2.196
N1590 X1.3184 Y-2.2123
N1600 X1.3118 Y-2.1938
N1610 X1.3055 Y-2.1777
N1620 X1.2986 Y-2.1593
N1630 X1.2923 Y-2.1432
N1640 X1.2856 Y-2.1263
N1650 X1.2794 Y-2.1093
N1660 X1.2731 Y-2.0925
N1670 X1.2671 Y-2.0769
N1680 X1.2606 Y-2.0585
N1690 X1.2541 Y-2.0422
N1700 X1.2478 Y-2.0259
N1710 X1.2414 Y-2.0087
N1720 X1.2273 Y-1.9975
N1730 X1.2275 Y-2.0158
N1740 X1.2277 Y-2.0342
N1750 X1.2275 Y-2.0514
N1760 X1.2277 Y-2.0708
N1770 X1.2275 Y-2.088
N1780 Y-2.1068
N1790 X1.2273 Y-2.1238
N1800 X1.2275 Y-2.1421
N1810 X1.2273 Y-2.1596
N1820 Y-2.179
N1830 X1.2284 Y-2.1962
N1840 X1.2275 Y-2.2155
N1850 X1.227 Y-2.2333
N1860 X1.2277 Y-2.251
N1870 X1.2275 Y-2.2684
N1880 X1.2277 Y-2.2879
N1890 Y-2.3051
N1900 X1.1283 Y-2.2413
N1910 X1.1336 Y-2.2239
N1920 X1.1379 Y-2.205
N1930 X1.1397 Y-2.1862
N1940 X1.1406 Y-2.1701
N1950 X1.142 Y-2.1513
N1960 X1.1415 Y-2.1333
N1970 X1.1395 Y-2.1136
N1980 X1.1363 Y-2.0961
N1990 X1.1333 Y-2.0777
N2000 X1.1274 Y-2.0596
N2010 X1.1204 Y-2.043
N2020 X1.1109 Y-2.0276
N2030 X1.1004 Y-2.0147
N2040 X1.0875 Y-2.0033
N2050 X1.0698 Y-1.9927
N2060 X1.0526 Y-1.9897
N2070 X1.0333
N2080 X1.0165 Y-1.9936
N2090 X1.0008 Y-2.0024
N2100 X0.9856 Y-2.0142
N2110 X0.9752 Y-2.0274
N2120 X0.9648 Y-2.0442
N2130 X0.9579 Y-2.0612
N2140 X0.9532 Y-2.0793
N2150 X0.9491 Y-2.0966
N2160 X0.9471 Y-2.1143
N2170 X0.9448 Y-2.134
N2180 X0.9446 Y-2.1519
N2190 X0.945 Y-2.1699
N2200 X0.9477 Y-2.1882
N2210 X0.9493 Y-2.2064
N2220 X0.9541 Y-2.2252
N2230 X0.9586 Y-2.2398
N2240 X0.9659 Y-2.257
N2250 X0.9747 Y-2.2736
N2260 X0.9865 Y-2.287
N2270 X0.9999 Y-2.2999
N2280 X1.0174 Y-2.3083
N2290 X1.0351 Y-2.313
N2300 X1.0523
N2310 X1.0705 Y-2.3087
N2320 X1.0848 Y-2.3006
N2330 X1.0995 Y-2.2883
N2340 X1.1116 Y-2.274
N2350 X1.1213 Y-2.2586
N2360 G80
N2370 G0 Z0.4506
N2390 M5 M9

(DRILL2 2)
N2400 S10000 M3 M9
N2410 G0 X5.1847 Y-4.8053
N2420 G0 Z0.4506
N2440 G0 Z0.0506
N2450 G98 G81 X5.1847 Y-4.8053 Z-0.01 R0.05 F4.
N2460 Y-4.7894
N2470 Y-4.7696
N2480 Y-4.7515
N2490 X5.1844 Y-4.7342
N2500 Y-4.7162
N2510 Y-4.6971
N2520 X5.1838 Y-4.6801
N2530 X5.1844 Y-4.6605
N2540 X5.1838 Y-4.643
N2550 Y-4.6255
N2560 X5.1844 Y-4.607
N2570 Y-4.589
N2580 Y-4.572
N2590 X5.1838 Y-4.5535
N2600 X5.1844 Y-4.5349
N2610 Y-4.5158
N2620 X5.1833 Y-4.4978
N2630 X5.1718 Y-4.5136
N2640 X5.1658 Y-4.5294
N2650 X5.1587 Y-4.5453
N2660 X5.1527 Y-4.5638
N2670 X5.145 Y-4.5802
N2680 X5.1401 Y-4.5972
N2690 X5.133 Y-4.6135
N2700 X5.127 Y-4.6299
N2710 X5.1205 Y-4.6468
N2720 X5.1145 Y-4.6638
N2730 X5.1074 Y-4.6812
N2740 X5.1014 Y-4.6971
N2750 X5.0899 Y-4.7133
N2760 X5.0833 Y-4.6948
N2770 X5.077 Y-4.6787
N2780 X5.0701 Y-4.6604
N2790 X5.0638 Y-4.6443
N2800 X5.0571 Y-4.6273
N2810 X5.0509 Y-4.6103
N2820 X5.0446 Y-4.5936
N2830 X5.0386 Y-4.5779
N2840 X5.0321 Y-4.5596
N2850 X5.0256 Y-4.5433
N2860 X5.0194 Y-4.5269
N2870 X5.0129 Y-4.5097
N2880 X4.9988 Y-4.4985
N2890 X4.999 Y-4.5169
N2900 X4.9992 Y-4.5352
N2910 X4.999 Y-4.5524
N2920 X4.9992 Y-4.5719
N2930 X4.999 Y-4.5891
N2940 Y-4.6079
N2950 X4.9988 Y-4.6248
N2960 X4.999 Y-4.6432
N2970 X4.9988 Y-4.6606
N2980 Y-4.6801
N2990 X4.9999 Y-4.6973
N3000 X4.999 Y-4.7165
N3010 X4.9986 Y-4.7344
N3020 X4.9992 Y-4.752
N3030 X4.999 Y-4.7695
N3040 X4.9992 Y-4.7889
N3050 Y-4.8061
N3060 X4.8999 Y-4.7424
N3070 X4.9051 Y-4.7249
N3080 X4.9094 Y-4.7061
N3090 X4.9112 Y-4.6873
N3100 X4.9121 Y-4.6711
N3110 X4.9135 Y-4.6523
N3120 X4.913 Y-4.6344
N3130 X4.911 Y-4.6146
N3140 X4.9078 Y-4.5972
N3150 X4.9049 Y-4.5788
N3160 X4.899 Y-4.5606
N3170 X4.8919 Y-4.5441
N3180 X4.8824 Y-4.5287
N3190 X4.872 Y-4.5157
N3200 X4.859 Y-4.5044
N3210 X4.8413 Y-4.4937
N3220 X4.8241 Y-4.4908
N3230 X4.8048
N3240 X4.788 Y-4.4946
N3250 X4.7723 Y-4.5035
N3260 X4.7571 Y-4.5153
N3270 X4.7467 Y-4.5284
N3280 X4.7363 Y-4.5452
N3290 X4.7295 Y-4.5622
N3300 X4.7247 Y-4.5804
N3310 X4.7206 Y-4.5976
N3320 X4.7186 Y-4.6153
N3330 X4.7163 Y-4.6351
N3340 X4.7161 Y-4.653
N3350 X4.7165 Y-4.6709
N3360 X4.7193 Y-4.6893
N3370 X4.7208 Y-4.7075
N3380 X4.7256 Y-4.7263
N3390 X4.7301 Y-4.7408
N3400 X4.7374 Y-4.758
N3410 X4.7463 Y-4.7746
N3420 X4.7581 Y-4.788
N3430 X4.7714 Y-4.8009
N3440 X4.7889 Y-4.8093
N3450 X4.8066 Y-4.8141
N3460 X4.8239
N3470 X4.842 Y-4.8098
N3480 X4.8563 Y-4.8016
N3490 X4.871 Y-4.7894
N3500 X4.8831 Y-4.7751
N3510 X4.8928 Y-4.7596
N3520 G80
N3530 G0 Z0.4506
N3550 M5 M9

(DRILL2 2)
N3560 S10000 M3 M9
N3570 G0 X1.4102 Y-4.8047
N3580 G0 Z0.4506
N3600 G0 Z0.0506
N3610 G98 G81 X1.4102 Y-4.8047 Z-0.01 R0.05 F4.
N3620 Y-4.7888
N3630 Y-4.769
N3640 Y-4.7509
N3650 X1.4099 Y-4.7336
N3660 Y-4.7155
N3670 Y-4.6964
N3680 X1.4093 Y-4.6795
N3690 X1.4099 Y-4.6598
N3700 X1.4093 Y-4.6424
N3710 Y-4.6249
N3720 X1.4099 Y-4.6063
N3730 Y-4.5883
N3740 Y-4.5714
N3750 X1.4093 Y-4.5528
N3760 X1.4099 Y-4.5343
N3770 Y-4.5152
N3780 X1.4088 Y-4.4971
N3790 X1.3973 Y-4.513
N3800 X1.3913 Y-4.5288
N3810 X1.3842 Y-4.5446
N3820 X1.3782 Y-4.5632
N3830 X1.3706 Y-4.5796
N3840 X1.3657 Y-4.5965
N3850 X1.3586 Y-4.6129
N3860 X1.3526 Y-4.6293
N3870 X1.346 Y-4.6462
N3880 X1.34 Y-4.6631
N3890 X1.3329 Y-4.6806
N3900 X1.3269 Y-4.6964
N3910 X1.3154 Y-4.7127
N3920 X1.3088 Y-4.6942
N3930 X1.3026 Y-4.6781
N3940 X1.2956 Y-4.6597
N3950 X1.2894 Y-4.6437
N3960 X1.2827 Y-4.6267
N3970 X1.2764 Y-4.6097
N3980 X1.2701 Y-4.5929
N3990 X1.2641 Y-4.5773
N4000 X1.2576 Y-4.5589
N4010 X1.2511 Y-4.5426
N4020 X1.2449 Y-4.5263
N4030 X1.2384 Y-4.5091
N4040 X1.2243 Y-4.4979
N4050 X1.2245 Y-4.5162
N4060 X1.2248 Y-4.5346
N4070 X1.2245 Y-4.5518
N4080 X1.2248 Y-4.5712
N4090 X1.2245 Y-4.5884
N4100 Y-4.6072
N4110 X1.2243 Y-4.6242
N4120 X1.2245 Y-4.6425
N4130 X1.2243 Y-4.66
N4140 Y-4.6794
N4150 X1.2254 Y-4.6966
N4160 X1.2245 Y-4.7159
N4170 X1.2241 Y-4.7337
N4180 X1.2248 Y-4.7514
N4190 X1.2245 Y-4.7688
N4200 X1.2248 Y-4.7883
N4210 Y-4.8055
N4220 X1.1254 Y-4.7418
N4230 X1.1306 Y-4.7243
N4240 X1.1349 Y-4.7054
N4250 X1.1367 Y-4.6866
N4260 X1.1377 Y-4.6705
N4270 X1.139 Y-4.6517
N4280 X1.1386 Y-4.6337
N4290 X1.1365 Y-4.614
N4300 X1.1333 Y-4.5965
N4310 X1.1304 Y-4.5782
N4320 X1.1245 Y-4.56
N4330 X1.1175 Y-4.5434
N4340 X1.1079 Y-4.528
N4350 X1.0975 Y-4.5151
N4360 X1.0846 Y-4.5037
N4370 X1.0669 Y-4.4931
N4380 X1.0496 Y-4.4901
N4390 X1.0303
N4400 X1.0135 Y-4.494
N4410 X0.9979 Y-4.5028
N4420 X0.9827 Y-4.5146
N4430 X0.9722 Y-4.5278
N4440 X0.9618 Y-4.5446
N4450 X0.955 Y-4.5616
N4460 X0.9502 Y-4.5797
N4470 X0.9461 Y-4.597
N4480 X0.9441 Y-4.6147
N4490 X0.9418 Y-4.6344
N4500 X0.9416 Y-4.6524
N4510 X0.9421 Y-4.6703
N4520 X0.9448 Y-4.6887
N4530 X0.9464 Y-4.7068
N4540 X0.9511 Y-4.7256
N4550 X0.9557 Y-4.7402
N4560 X0.9629 Y-4.7574
N4570 X0.9718 Y-4.774
N4580 X0.9836 Y-4.7874
N4590 X0.997 Y-4.8003
N4600 X1.0144 Y-4.8087
N4610 X1.0321 Y-4.8135
N4620 X1.0494
N4630 X1.0675 Y-4.8091
N4640 X1.0818 Y-4.801
N4650 X1.0966 Y-4.7887
N4660 X1.1086 Y-4.7744
N4670 X1.1184 Y-4.759
N4680 G80
N4690 G0 Z0.4506
N4710 M5 M9

(DRILL2 2)
N4720 S10000 M3 M9
N4730 G0 X5.1828 Y-7.3056
N4740 G0 Z0.4506
N4760 G0 Z0.0506
N4770 G98 G81 X5.1828 Y-7.3056 Z-0.01 R0.05 F4.
N4780 Y-7.2896
N4790 Y-7.2699
N4800 Y-7.2517
N4810 X5.1825 Y-7.2344
N4820 Y-7.2164
N4830 Y-7.1973
N4840 X5.182 Y-7.1804
N4850 X5.1825 Y-7.1607
N4860 X5.182 Y-7.1432
N4870 Y-7.1258
N4880 X5.1825 Y-7.1072
N4890 Y-7.0892
N4900 Y-7.0723
N4910 X5.182 Y-7.0537
N4920 X5.1825 Y-7.0351
N4930 Y-7.016
N4940 X5.1814 Y-6.998
N4950 X5.17 Y-7.0138
N4960 X5.164 Y-7.0297
N4970 X5.1569 Y-7.0455
N4980 X5.1509 Y-7.0641
N4990 X5.1432 Y-7.0805
N5000 X5.1383 Y-7.0974
N5010 X5.1312 Y-7.1138
N5020 X5.1252 Y-7.1301
N5030 X5.1186 Y-7.1471
N5040 X5.1126 Y-7.164
N5050 X5.1055 Y-7.1815
N5060 X5.0995 Y-7.1973
N5070 X5.0881 Y-7.2135
N5080 X5.0815 Y-7.195
N5090 X5.0752 Y-7.179
N5100 X5.0683 Y-7.1606
N5110 X5.062 Y-7.1445
N5120 X5.0553 Y-7.1275
N5130 X5.049 Y-7.1105
N5140 X5.0428 Y-7.0938
N5150 X5.0367 Y-7.0781
N5160 X5.0303 Y-7.0598
N5170 X5.0238 Y-7.0435
N5180 X5.0175 Y-7.0272
N5190 X5.011 Y-7.01
N5200 X4.997 Y-6.9988
N5210 X4.9972 Y-7.0171
N5220 X4.9974 Y-7.0354
N5230 X4.9972 Y-7.0526
N5240 X4.9974 Y-7.0721
N5250 X4.9972 Y-7.0893
N5260 Y-7.1081
N5270 X4.997 Y-7.1251
N5280 X4.9972 Y-7.1434
N5290 X4.997 Y-7.1608
N5300 Y-7.1803
N5310 X4.9981 Y-7.1975
N5320 X4.9972 Y-7.2167
N5330 X4.9967 Y-7.2346
N5340 X4.9974 Y-7.2523
N5350 X4.9972 Y-7.2697
N5360 X4.9974 Y-7.2892
N5370 Y-7.3064
N5380 X4.898 Y-7.2426
N5390 X4.9033 Y-7.2252
N5400 X4.9076 Y-7.2063
N5410 X4.9094 Y-7.1875
N5420 X4.9103 Y-7.1714
N5430 X4.9116 Y-7.1525
N5440 X4.9112 Y-7.1346
N5450 X4.9092 Y-7.1149
N5460 X4.906 Y-7.0974
N5470 X4.903 Y-7.079
N5480 X4.8971 Y-7.0609
N5490 X4.8901 Y-7.0443
N5500 X4.8806 Y-7.0289
N5510 X4.8701 Y-7.0159
N5520 X4.8572 Y-7.0046
N5530 X4.8395 Y-6.9939
N5540 X4.8222 Y-6.991
N5550 X4.803
N5560 X4.7862 Y-6.9948
N5570 X4.7705 Y-7.0037
N5580 X4.7553 Y-7.0155
N5590 X4.7449 Y-7.0287
N5600 X4.7344 Y-7.0454
N5610 X4.7276 Y-7.0625
N5620 X4.7229 Y-7.0806
N5630 X4.7188 Y-7.0979
N5640 X4.7167 Y-7.1156
N5650 X4.7145 Y-7.1353
N5660 X4.7142 Y-7.1532
N5670 X4.7147 Y-7.1711
N5680 X4.7174 Y-7.1895
N5690 X4.719 Y-7.2077
N5700 X4.7238 Y-7.2265
N5710 X4.7283 Y-7.241
N5720 X4.7356 Y-7.2583
N5730 X4.7444 Y-7.2748
N5740 X4.7562 Y-7.2882
N5750 X4.7696 Y-7.3012
N5760 X4.7871 Y-7.3096
N5770 X4.8048 Y-7.3143
N5780 X4.822
N5790 X4.8402 Y-7.31
N5800 X4.8545 Y-7.3018
N5810 X4.8692 Y-7.2896
N5820 X4.8812 Y-7.2753
N5830 X4.891 Y-7.2599
N5840 G80
N5850 G0 Z0.4506
N5870 M5 M9

(DRILL2 2)
N5880 S10000 M3 M9
N5890 G0 X1.4086 Y-7.305
N5900 G0 Z0.4506
N5920 G0 Z0.0506
N5930 G98 G81 X1.4086 Y-7.305 Z-0.01 R0.05 F4.
N5940 Y-7.2891
N5950 Y-7.2693
N5960 Y-7.2512
N5970 X1.4083 Y-7.2339
N5980 Y-7.2158
N5990 Y-7.1967
N6000 X1.4078 Y-7.1798
N6010 X1.4083 Y-7.1601
N6020 X1.4078 Y-7.1427
N6030 Y-7.1252
N6040 X1.4083 Y-7.1066
N6050 Y-7.0886
N6060 Y-7.0717
N6070 X1.4078 Y-7.0531
N6080 X1.4083 Y-7.0346
N6090 Y-7.0155
N6100 X1.4072 Y-6.9974
N6110 X1.3958 Y-7.0133
N6120 X1.3898 Y-7.0291
N6130 X1.3827 Y-7.0449
N6140 X1.3767 Y-7.0635
N6150 X1.369 Y-7.0799
N6160 X1.3641 Y-7.0968
N6170 X1.357 Y-7.1132
N6180 X1.351 Y-7.1296
N6190 X1.3444 Y-7.1465
N6200 X1.3384 Y-7.1634
N6210 X1.3313 Y-7.1809
N6220 X1.3253 Y-7.1967
N6230 X1.3139 Y-7.213
N6240 X1.3072 Y-7.1945
N6250 X1.301 Y-7.1784
N6260 X1.2941 Y-7.16
N6270 X1.2878 Y-7.144
N6280 X1.2811 Y-7.127
N6290 X1.2748 Y-7.11
N6300 X1.2686 Y-7.0932
N6310 X1.2625 Y-7.0776
N6320 X1.2561 Y-7.0592
N6330 X1.2496 Y-7.0429
N6340 X1.2433 Y-7.0266
N6350 X1.2368 Y-7.0094
N6360 X1.2227 Y-6.9982
N6370 X1.223 Y-7.0165
N6380 X1.2232 Y-7.0349
N6390 X1.223 Y-7.0521
N6400 X1.2232 Y-7.0715
N6410 X1.223 Y-7.0887
N6420 Y-7.1075
N6430 X1.2227 Y-7.1245
N6440 X1.223 Y-7.1428
N6450 X1.2227 Y-7.1603
N6460 Y-7.1797
N6470 X1.2239 Y-7.1969
N6480 X1.223 Y-7.2162
N6490 X1.2225 Y-7.234
N6500 X1.2232 Y-7.2517
N6510 X1.223 Y-7.2691
N6520 X1.2232 Y-7.2886
N6530 Y-7.3058
N6540 X1.1238 Y-7.242
N6550 X1.129 Y-7.2246
N6560 X1.1334 Y-7.2057
N6570 X1.1352 Y-7.1869
N6580 X1.1361 Y-7.1708
N6590 X1.1374 Y-7.152
N6600 X1.137 Y-7.134
N6610 X1.1349 Y-7.1143
N6620 X1.1318 Y-7.0968
N6630 X1.1288 Y-7.0785
N6640 X1.1229 Y-7.0603
N6650 X1.1159 Y-7.0437
N6660 X1.1064 Y-7.0283
N6670 X1.0959 Y-7.0154
N6680 X1.083 Y-7.004
N6690 X1.0653 Y-6.9934
N6700 X1.048 Y-6.9904
N6710 X1.0288
N6720 X1.012 Y-6.9943
N6730 X0.9963 Y-7.0031
N6740 X0.9811 Y-7.0149
N6750 X0.9707 Y-7.0281
N6760 X0.9602 Y-7.0449
N6770 X0.9534 Y-7.0619
N6780 X0.9487 Y-7.08
N6790 X0.9446 Y-7.0973
N6800 X0.9425 Y-7.115
N6810 X0.9403 Y-7.1347
N6820 X0.94 Y-7.1527
N6830 X0.9405 Y-7.1706
N6840 X0.9432 Y-7.189
N6850 X0.9448 Y-7.2071
N6860 X0.9496 Y-7.2259
N6870 X0.9541 Y-7.2405
N6880 X0.9614 Y-7.2577
N6890 X0.9702 Y-7.2743
N6900 X0.982 Y-7.2877
N6910 X0.9954 Y-7.3006
N6920 X1.0129 Y-7.309
N6930 X1.0306 Y-7.3138
N6940 X1.0478
N6950 X1.066 Y-7.3094
N6960 X1.0803 Y-7.3013
N6970 X1.095 Y-7.289
N6980 X1.107 Y-7.2747
N6990 X1.1168 Y-7.2593
N7000 G80
N7010 G0 Z0.4506
N7030 M5 M9

(DRILL2 2)
N7040 S10000 M3 M9
N7050 G0 X5.1871 Y-9.8038
N7060 G0 Z0.4506
N7080 G0 Z0.0506
N7090 G98 G81 X5.1871 Y-9.8038 Z-0.01 R0.05 F4.
N7100 Y-9.7879
N7110 Y-9.7681
N7120 Y-9.75
N7130 X5.1868 Y-9.7327
N7140 Y-9.7147
N7150 Y-9.6955
N7160 X5.1862 Y-9.6786
N7170 X5.1868 Y-9.659
N7180 X5.1862 Y-9.6415
N7190 Y-9.624
N7200 X5.1868 Y-9.6055
N7210 Y-9.5874
N7220 Y-9.5705
N7230 X5.1862 Y-9.5519
N7240 X5.1868 Y-9.5334
N7250 Y-9.5143
N7260 X5.1857 Y-9.4963
N7270 X5.1742 Y-9.5121
N7280 X5.1682 Y-9.5279
N7290 X5.1611 Y-9.5438
N7300 X5.1551 Y-9.5623
N7310 X5.1475 Y-9.5787
N7320 X5.1426 Y-9.5956
N7330 X5.1355 Y-9.612
N7340 X5.1295 Y-9.6284
N7350 X5.1229 Y-9.6453
N7360 X5.1169 Y-9.6622
N7370 X5.1098 Y-9.6797
N7380 X5.1038 Y-9.6955
N7390 X5.0923 Y-9.7118
N7400 X5.0857 Y-9.6933
N7410 X5.0794 Y-9.6772
N7420 X5.0725 Y-9.6589
N7430 X5.0663 Y-9.6428
N7440 X5.0596 Y-9.6258
N7450 X5.0533 Y-9.6088
N7460 X5.047 Y-9.592
N7470 X5.041 Y-9.5764
N7480 X5.0345 Y-9.558
N7490 X5.028 Y-9.5417
N7500 X5.0218 Y-9.5254
N7510 X5.0153 Y-9.5082
N7520 X5.0012 Y-9.497
N7530 X5.0014 Y-9.5154
N7540 X5.0017 Y-9.5337
N7550 X5.0014 Y-9.5509
N7560 X5.0017 Y-9.5703
N7570 X5.0014 Y-9.5876
N7580 Y-9.6063
N7590 X5.0012 Y-9.6233
N7600 X5.0014 Y-9.6417
N7610 X5.0012 Y-9.6591
N7620 Y-9.6785
N7630 X5.0023 Y-9.6958
N7640 X5.0014 Y-9.715
N7650 X5.001 Y-9.7329
N7660 X5.0017 Y-9.7505
N7670 X5.0014 Y-9.768
N7680 X5.0017 Y-9.7874
N7690 Y-9.8046
N7700 X4.9023 Y-9.7409
N7710 X4.9075 Y-9.7234
N7720 X4.9118 Y-9.7046
N7730 X4.9136 Y-9.6857
N7740 X4.9145 Y-9.6696
N7750 X4.9159 Y-9.6508
N7760 X4.9155 Y-9.6329
N7770 X4.9134 Y-9.6131
N7780 X4.9102 Y-9.5957
N7790 X4.9073 Y-9.5773
N7800 X4.9014 Y-9.5591
N7810 X4.8943 Y-9.5426
N7820 X4.8848 Y-9.5271
N7830 X4.8744 Y-9.5142
N7840 X4.8614 Y-9.5028
N7850 X4.8437 Y-9.4922
N7860 X4.8265 Y-9.4892
N7870 X4.8072
N7880 X4.7904 Y-9.4931
N7890 X4.7748 Y-9.5019
N7900 X4.7596 Y-9.5137
N7910 X4.7491 Y-9.5269
N7920 X4.7387 Y-9.5437
N7930 X4.7319 Y-9.5607
N7940 X4.7271 Y-9.5789
N7950 X4.723 Y-9.5961
N7960 X4.721 Y-9.6138
N7970 X4.7187 Y-9.6335
N7980 X4.7185 Y-9.6515
N7990 X4.719 Y-9.6694
N8000 X4.7217 Y-9.6878
N8010 X4.7233 Y-9.7059
N8020 X4.728 Y-9.7248
N8030 X4.7326 Y-9.7393
N8040 X4.7398 Y-9.7565
N8050 X4.7487 Y-9.7731
N8060 X4.7605 Y-9.7865
N8070 X4.7739 Y-9.7994
N8080 X4.7913 Y-9.8078
N8090 X4.809 Y-9.8126
N8100 X4.8263
N8110 X4.8444 Y-9.8083
N8120 X4.8587 Y-9.8001
N8130 X4.8735 Y-9.7878
N8140 X4.8855 Y-9.7735
N8150 X4.8953 Y-9.7581
N8160 G80
N8170 G0 Z0.4506
N8190 M5 M9

(DRILL2 2)
N8200 S10000 M3 M9
N8210 G0 X1.4127 Y-9.8033
N8220 G0 Z0.4506
N8240 G0 Z0.0506
N8250 G98 G81 X1.4127 Y-9.8033 Z-0.01 R0.05 F4.
N8260 Y-9.7874
N8270 Y-9.7676
N8280 Y-9.7495
N8290 X1.4124 Y-9.7322
N8300 Y-9.7142
N8310 Y-9.6951
N8320 X1.4119 Y-9.6782
N8330 X1.4124 Y-9.6585
N8340 X1.4119 Y-9.641
N8350 Y-9.6236
N8360 X1.4124 Y-9.605
N8370 Y-9.587
N8380 Y-9.5701
N8390 X1.4119 Y-9.5515
N8400 X1.4124 Y-9.5329
N8410 Y-9.5138
N8420 X1.4113 Y-9.4958
N8430 X1.3999 Y-9.5116
N8440 X1.3939 Y-9.5275
N8450 X1.3868 Y-9.5433
N8460 X1.3807 Y-9.5619
N8470 X1.3731 Y-9.5782
N8480 X1.3682 Y-9.5952
N8490 X1.3611 Y-9.6115
N8500 X1.3551 Y-9.6279
N8510 X1.3485 Y-9.6449
N8520 X1.3425 Y-9.6618
N8530 X1.3354 Y-9.6793
N8540 X1.3294 Y-9.6951
N8550 X1.318 Y-9.7113
N8560 X1.3113 Y-9.6928
N8570 X1.3051 Y-9.6767
N8580 X1.2982 Y-9.6584
N8590 X1.2919 Y-9.6423
N8600 X1.2852 Y-9.6253
N8610 X1.2789 Y-9.6083
N8620 X1.2727 Y-9.5916
N8630 X1.2666 Y-9.5759
N8640 X1.2602 Y-9.5576
N8650 X1.2537 Y-9.5413
N8660 X1.2474 Y-9.525
N8670 X1.2409 Y-9.5077
N8680 X1.2268 Y-9.4966
N8690 X1.2271 Y-9.5149
N8700 X1.2273 Y-9.5332
N8710 X1.2271 Y-9.5504
N8720 X1.2273 Y-9.5699
N8730 X1.2271 Y-9.5871
N8740 Y-9.6059
N8750 X1.2268 Y-9.6229
N8760 X1.2271 Y-9.6412
N8770 X1.2268 Y-9.6586
N8780 Y-9.6781
N8790 X1.228 Y-9.6953
N8800 X1.2271 Y-9.7145
N8810 X1.2266 Y-9.7324
N8820 X1.2273 Y-9.7501
N8830 X1.2271 Y-9.7675
N8840 X1.2273 Y-9.7869
N8850 Y-9.8042
N8860 X1.1279 Y-9.7404
N8870 X1.1331 Y-9.7229
N8880 X1.1375 Y-9.7041
N8890 X1.1393 Y-9.6853
N8900 X1.1402 Y-9.6692
N8910 X1.1415 Y-9.6503
N8920 X1.1411 Y-9.6324
N8930 X1.139 Y-9.6127
N8940 X1.1359 Y-9.5952
N8950 X1.1329 Y-9.5768
N8960 X1.127 Y-9.5587
N8970 X1.12 Y-9.5421
N8980 X1.1105 Y-9.5267
N8990 X1.1 Y-9.5137
N9000 X1.0871 Y-9.5024
N9010 X1.0694 Y-9.4917
N9020 X1.0521 Y-9.4888
N9030 X1.0329
N9040 X1.0161 Y-9.4926
N9050 X1.0004 Y-9.5015
N9060 X0.9852 Y-9.5133
N9070 X0.9748 Y-9.5264
N9080 X0.9643 Y-9.5432
N9090 X0.9575 Y-9.5602
N9100 X0.9528 Y-9.5784
N9110 X0.9487 Y-9.5956
N9120 X0.9466 Y-9.6133
N9130 X0.9444 Y-9.6331
N9140 X0.9441 Y-9.651
N9150 X0.9446 Y-9.6689
N9160 X0.9473 Y-9.6873
N9170 X0.9489 Y-9.7055
N9180 X0.9537 Y-9.7243
N9190 X0.9582 Y-9.7388
N9200 X0.9655 Y-9.7561
N9210 X0.9743 Y-9.7726
N9220 X0.9861 Y-9.786
N9230 X0.9995 Y-9.7989
N9240 X1.017 Y-9.8073
N9250 X1.0347 Y-9.8121
N9260 X1.0519
N9270 X1.0701 Y-9.8078
N9280 X1.0844 Y-9.7996
N9290 X1.0991 Y-9.7874
N9300 X1.1111 Y-9.7731
N9310 X1.1209 Y-9.7577
N9320 G80
N9330 G0 Z0.4506
N9350 M5 M9

N9360 G30
N9370 M30
%
