%
(*************************************)
(* Generated by wtopace for EntityX  *)
(* Date: 9/25/2016                   *)
(*************************************)
(1001)
(PROJECT6)
(T1  D=0.0039 CR=0. TAPER=118DEG - ZMIN=-0.01 - DRILL)
N10 G90 G54 G64 G50 G17 G40 G80 G94 G91.1 G49
N20 G20 (Inch)
N30 G30

(DRILL1 3)
N50 G30
N60 T1 G43 H1 M6
N70 S10000 M3 M8
N80 G54
N90 G0 X3.7237 Y-2.0925
N100 G0 Z0.5006
N120 G0 Z0.1006
N130 G98 G81 X3.7237 Y-2.0925 Z-0.01 R0.1 F4.
N140 X3.7117 Y-2.108
N150 X3.6962 Y-2.1214
N160 X3.6791 Y-2.1316
N170 X3.6617 Y-2.1405
N180 X3.6436 Y-2.1462
N190 X3.6259 Y-2.1499
N200 X3.6066 Y-2.1527
N210 X3.5875 Y-2.1536
N220 X3.5693 Y-2.1543
N230 X3.5515 Y-2.1546
N240 X3.5337 Y-2.1525
N250 X3.5158 Y-2.1489
N260 X3.4981 Y-2.1445
N270 X3.4819 Y-2.1382
N280 X3.4657 Y-2.1309
N290 X3.4493 Y-2.1222
N300 X3.4337 Y-2.113
N310 X3.4188 Y-2.103
N320 X3.4042 Y-2.0923
N330 X3.3893 Y-2.0813
N340 X3.3759 Y-2.0704
N350 X3.3627 Y-2.0585
N360 X3.3854 Y-2.0145
N370 X3.4016 Y-2.0093
N380 X3.4188 Y-2.0046
N390 X3.4367 Y-1.9996
N400 X3.4539 Y-1.9954
N410 X3.4719 Y-1.9922
N420 X3.4895 Y-1.992
N430 X3.5072 Y-1.9895
N440 X3.5266 Y-1.9909
N450 X3.5434 Y-1.9917
N460 X3.5616 Y-1.9954
N470 X3.58 Y-1.9987
N480 X3.5976 Y-2.0021
N490 X3.6153 Y-2.0073
N500 X3.6325 Y-2.0133
N510 X3.6498 Y-2.019
N520 X3.6674 Y-2.0259
N530 X3.685 Y-2.0339
N540 X3.7016 Y-2.0432
N550 X3.7183 Y-2.0518
N560 X3.7344 Y-2.0623
N570 X3.7507 Y-2.0725
N580 X3.7697 Y-2.0806
N590 X3.7869 Y-2.0865
N600 X3.8051 Y-2.0899
N610 X3.79 Y-2.1051
N620 X3.7774 Y-2.121
N630 X3.7665 Y-2.1387
N640 X3.7506 Y-2.1532
N650 X3.7352 Y-2.1656
N660 X3.718 Y-2.1747
N670 X3.6982 Y-2.1775
N680 X3.6795 Y-2.1779
N690 X3.661 Y-2.1768
N700 X3.6417 Y-2.1761
N710 X3.6231 Y-2.1769
N720 X3.605 Y-2.1761
N730 X3.5866 Y-2.1757
N740 X3.5673 Y-2.176
N750 X3.5505 Y-2.1758
N760 X3.5318 Y-2.1755
N770 X3.5136 Y-2.1756
N780 X3.4966 Y-2.1762
N790 X3.477 Y-2.1756
N800 X3.4599 Y-2.1759
N810 X3.4419 Y-2.1757
N820 X3.4246 Y-2.1761
N830 X3.4056 Y-2.1764
N840 X3.3889 Y-2.1754
N850 X3.3711 Y-2.1756
N860 X3.3541 Y-2.1748
N870 X3.3367 Y-2.1756
N880 X3.32 Y-2.1752
N890 X3.3031 Y-2.1747
N900 X3.2861 Y-2.1729
N910 X3.2688 Y-2.1683
N920 X3.2535 Y-2.1611
N930 X3.2386 Y-2.152
N940 X3.226 Y-2.1406
N950 X3.2152 Y-2.1248
N960 X3.2119 Y-2.106
N970 X3.2123 Y-2.0863
N980 X3.2175 Y-2.0669
N990 X3.2282 Y-2.052
N1000 X3.2408 Y-2.0388
N1010 X3.2616 Y-1.9902
N1020 X3.2492 Y-1.9752
N1030 X3.2348 Y-1.9664
N1040 X3.2193 Y-1.961
N1050 X3.2024 Y-1.9556
N1060 X3.1875 Y-1.9515
N1070 X3.171 Y-1.9486
N1080 X3.1558 Y-1.9476
N1090 X3.138 Y-1.9456
N1100 X3.122 Y-1.945
N1110 X3.1055 Y-1.9451
N1120 X3.09 Y-1.9441
N1130 X3.0881 Y-1.931
N1140 X3.0727 Y-1.9379
N1150 X3.0558 Y-1.9442
N1160 X3.1041 Y-1.9242
N1170 X3.1196 Y-1.9184
N1180 X3.1353 Y-1.9117
N1190 X3.151 Y-1.9064
N1200 X3.1656 Y-1.8994
N1210 X3.1798 Y-1.8868
N1220 X3.1918 Y-1.8713
N1230 X3.2058 Y-1.8612
N1240 X3.2223 Y-1.8545
N1250 X3.239 Y-1.8543
N1260 X3.2555 Y-1.8559
N1270 X3.2716 Y-1.8612
N1280 X3.2867 Y-1.8665
N1290 X3.3022 Y-1.8741
N1300 X3.3171 Y-1.8844
N1310 X3.3298 Y-1.8951
N1320 X3.3409 Y-1.9106
N1330 X3.3485 Y-1.9286
N1340 X3.3539 Y-1.9481
N1350 X3.358 Y-1.9673
N1360 X3.3578 Y-1.9866
N1370 X3.3469 Y-1.9989
N1380 X3.3563 Y-2.0069
N1390 X3.3672 Y-2.0209
N1400 X3.3489 Y-2.0257
N1410 X3.3411 Y-2.043
N1420 X3.3326 Y-2.0596
N1430 X3.3206 Y-2.0755
N1440 X3.3062 Y-2.0867
N1450 X3.3164 Y-2.0451
N1460 X3.3001 Y-2.0466
N1470 X3.2829 Y-2.0438
N1480 X3.2681 Y-2.036
N1490 X3.2536 Y-2.0243
N1500 X3.2636 Y-2.0088
N1510 X3.2808 Y-2.0144
N1520 X3.2972 Y-2.0142
N1530 X3.3149 Y-2.0133
N1540 X3.3315 Y-2.0071
N1550 G80
N1560 G0 Z0.5006
N1580 M5 M9

(DRILL1 3)
N1590 S10000 M3 M8
N1600 G0 X7.6065 Y-2.0924
N1610 G0 Z0.5006
N1630 G0 Z0.1006
N1640 G98 G81 X7.6065 Y-2.0924 Z-0.01 R0.1 F4.
N1650 X7.5945 Y-2.1079
N1660 X7.5789 Y-2.1213
N1670 X7.5618 Y-2.1315
N1680 X7.5445 Y-2.1405
N1690 X7.5263 Y-2.1461
N1700 X7.5087 Y-2.1498
N1710 X7.4894 Y-2.1527
N1720 X7.4703 Y-2.1535
N1730 X7.4521 Y-2.1543
N1740 X7.4343 Y-2.1545
N1750 X7.4165 Y-2.1524
N1760 X7.3986 Y-2.1488
N1770 X7.3809 Y-2.1445
N1780 X7.3646 Y-2.1382
N1790 X7.3485 Y-2.1309
N1800 X7.3321 Y-2.1222
N1810 X7.3165 Y-2.113
N1820 X7.3016 Y-2.103
N1830 X7.287 Y-2.0923
N1840 X7.2721 Y-2.0813
N1850 X7.2587 Y-2.0704
N1860 X7.2454 Y-2.0585
N1870 X7.2681 Y-2.0145
N1880 X7.2844 Y-2.0092
N1890 X7.3016 Y-2.0046
N1900 X7.3194 Y-1.9996
N1910 X7.3367 Y-1.9953
N1920 X7.3547 Y-1.9921
N1930 X7.3723 Y-1.9919
N1940 X7.39 Y-1.9894
N1950 X7.4094 Y-1.9908
N1960 X7.4262 Y-1.9916
N1970 X7.4443 Y-1.9953
N1980 X7.4628 Y-1.9987
N1990 X7.4804 Y-2.0021
N2000 X7.498 Y-2.0073
N2010 X7.5153 Y-2.0132
N2020 X7.5326 Y-2.0189
N2030 X7.5502 Y-2.0258
N2040 X7.5677 Y-2.0339
N2050 X7.5844 Y-2.0431
N2060 X7.601 Y-2.0517
N2070 X7.6172 Y-2.0623
N2080 X7.6335 Y-2.0724
N2090 X7.6524 Y-2.0806
N2100 X7.6697 Y-2.0865
N2110 X7.6878 Y-2.0898
N2120 X7.6728 Y-2.1051
N2130 X7.6602 Y-2.121
N2140 X7.6493 Y-2.1386
N2150 X7.6334 Y-2.1531
N2160 X7.6179 Y-2.1655
N2170 X7.6008 Y-2.1747
N2180 X7.581 Y-2.1775
N2190 X7.5623 Y-2.1778
N2200 X7.5438 Y-2.1767
N2210 X7.5245 Y-2.1761
N2220 X7.5059 Y-2.1768
N2230 X7.4878 Y-2.1761
N2240 X7.4694 Y-2.1756
N2250 X7.4501 Y-2.176
N2260 X7.4332 Y-2.1758
N2270 X7.4146 Y-2.1754
N2280 X7.3964 Y-2.1755
N2290 X7.3793 Y-2.1762
N2300 X7.3597 Y-2.1755
N2310 X7.3426 Y-2.1759
N2320 X7.3247 Y-2.1756
N2330 X7.3074 Y-2.1761
N2340 X7.2884 Y-2.1764
N2350 X7.2716 Y-2.1753
N2360 X7.2538 Y-2.1755
N2370 X7.2369 Y-2.1747
N2380 X7.2195 Y-2.1755
N2390 X7.2028 Y-2.1752
N2400 X7.1859 Y-2.1746
N2410 X7.1688 Y-2.1728
N2420 X7.1516 Y-2.1683
N2430 X7.1363 Y-2.1611
N2440 X7.1213 Y-2.152
N2450 X7.1088 Y-2.1405
N2460 X7.098 Y-2.1247
N2470 X7.0946 Y-2.1059
N2480 X7.0951 Y-2.0863
N2490 X7.1003 Y-2.0669
N2500 X7.111 Y-2.0519
N2510 X7.1236 Y-2.0387
N2520 X7.1444 Y-1.9902
N2530 X7.132 Y-1.9752
N2540 X7.1175 Y-1.9664
N2550 X7.1021 Y-1.961
N2560 X7.0852 Y-1.9555
N2570 X7.0703 Y-1.9515
N2580 X7.0538 Y-1.9486
N2590 X7.0385 Y-1.9476
N2600 X7.0208 Y-1.9455
N2610 X7.0048 Y-1.945
N2620 X6.9883 Y-1.9451
N2630 X6.9727 Y-1.9441
N2640 X6.9708 Y-1.931
N2650 X6.9555 Y-1.9378
N2660 X6.9386 Y-1.9442
N2670 X6.9868 Y-1.9242
N2680 X7.0024 Y-1.9184
N2690 X7.0181 Y-1.9116
N2700 X7.0337 Y-1.9064
N2710 X7.0484 Y-1.8993
N2720 X7.0626 Y-1.8868
N2730 X7.0746 Y-1.8712
N2740 X7.0886 Y-1.8611
N2750 X7.1051 Y-1.8545
N2760 X7.1218 Y-1.8542
N2770 X7.1382 Y-1.8559
N2780 X7.1544 Y-1.8612
N2790 X7.1695 Y-1.8665
N2800 X7.185 Y-1.874
N2810 X7.1999 Y-1.8843
N2820 X7.2126 Y-1.8951
N2830 X7.2237 Y-1.9106
N2840 X7.2313 Y-1.9286
N2850 X7.2367 Y-1.948
N2860 X7.2408 Y-1.9672
N2870 X7.2406 Y-1.9866
N2880 X7.2297 Y-1.9988
N2890 X7.2391 Y-2.0069
N2900 X7.25 Y-2.0209
N2910 X7.2317 Y-2.0257
N2920 X7.2239 Y-2.043
N2930 X7.2154 Y-2.0596
N2940 X7.2034 Y-2.0754
N2950 X7.189 Y-2.0866
N2960 X7.1992 Y-2.0451
N2970 X7.1828 Y-2.0465
N2980 X7.1657 Y-2.0437
N2990 X7.1508 Y-2.036
N3000 X7.1364 Y-2.0243
N3010 X7.1464 Y-2.0088
N3020 X7.1635 Y-2.0144
N3030 X7.18 Y-2.0141
N3040 X7.1977 Y-2.0133
N3050 X7.2142 Y-2.0071
N3060 G80
N3070 G0 Z0.5006
N3090 M5 M9

(DRILL1 3)
N3100 S10000 M3 M8
N3110 G0 X7.6022 Y-4.5916
N3120 G0 Z0.5006
N3140 G0 Z0.1006
N3150 G98 G81 X7.6022 Y-4.5916 Z-0.01 R0.1 F4.
N3160 X7.5902 Y-4.6072
N3170 X7.5747 Y-4.6206
N3180 X7.5576 Y-4.6307
N3190 X7.5402 Y-4.6397
N3200 X7.5221 Y-4.6454
N3210 X7.5044 Y-4.649
N3220 X7.4851 Y-4.6519
N3230 X7.4661 Y-4.6527
N3240 X7.4478 Y-4.6535
N3250 X7.43 Y-4.6538
N3260 X7.4122 Y-4.6516
N3270 X7.3943 Y-4.648
N3280 X7.3767 Y-4.6437
N3290 X7.3604 Y-4.6374
N3300 X7.3442 Y-4.6301
N3310 X7.3278 Y-4.6214
N3320 X7.3122 Y-4.6122
N3330 X7.2973 Y-4.6022
N3340 X7.2827 Y-4.5915
N3350 X7.2678 Y-4.5805
N3360 X7.2544 Y-4.5696
N3370 X7.2412 Y-4.5577
N3380 X7.2639 Y-4.5137
N3390 X7.2801 Y-4.5084
N3400 X7.2973 Y-4.5038
N3410 X7.3152 Y-4.4988
N3420 X7.3325 Y-4.4946
N3430 X7.3504 Y-4.4913
N3440 X7.3681 Y-4.4912
N3450 X7.3857 Y-4.4887
N3460 X7.4051 Y-4.49
N3470 X7.422 Y-4.4909
N3480 X7.4401 Y-4.4946
N3490 X7.4586 Y-4.4979
N3500 X7.4761 Y-4.5013
N3510 X7.4938 Y-4.5065
N3520 X7.511 Y-4.5125
N3530 X7.5283 Y-4.5181
N3540 X7.546 Y-4.5251
N3550 X7.5635 Y-4.5331
N3560 X7.5801 Y-4.5424
N3570 X7.5968 Y-4.551
N3580 X7.6129 Y-4.5615
N3590 X7.6292 Y-4.5717
N3600 X7.6482 Y-4.5798
N3610 X7.6655 Y-4.5857
N3620 X7.6836 Y-4.5891
N3630 X7.6685 Y-4.6043
N3640 X7.6559 Y-4.6202
N3650 X7.645 Y-4.6379
N3660 X7.6291 Y-4.6524
N3670 X7.6137 Y-4.6648
N3680 X7.5965 Y-4.6739
N3690 X7.5767 Y-4.6767
N3700 X7.558 Y-4.6771
N3710 X7.5395 Y-4.676
N3720 X7.5202 Y-4.6753
N3730 X7.5016 Y-4.676
N3740 X7.4835 Y-4.6753
N3750 X7.4651 Y-4.6748
N3760 X7.4458 Y-4.6752
N3770 X7.429 Y-4.675
N3780 X7.4103 Y-4.6747
N3790 X7.3921 Y-4.6748
N3800 X7.3751 Y-4.6754
N3810 X7.3555 Y-4.6748
N3820 X7.3384 Y-4.6751
N3830 X7.3204 Y-4.6748
N3840 X7.3032 Y-4.6753
N3850 X7.2841 Y-4.6756
N3860 X7.2674 Y-4.6746
N3870 X7.2496 Y-4.6747
N3880 X7.2327 Y-4.674
N3890 X7.2152 Y-4.6747
N3900 X7.1985 Y-4.6744
N3910 X7.1816 Y-4.6739
N3920 X7.1646 Y-4.672
N3930 X7.1473 Y-4.6675
N3940 X7.132 Y-4.6603
N3950 X7.1171 Y-4.6512
N3960 X7.1045 Y-4.6397
N3970 X7.0937 Y-4.6239
N3980 X7.0904 Y-4.6051
N3990 X7.0908 Y-4.5855
N4000 X7.096 Y-4.5661
N4010 X7.1067 Y-4.5512
N4020 X7.1193 Y-4.538
N4030 X7.1401 Y-4.4894
N4040 X7.1277 Y-4.4744
N4050 X7.1133 Y-4.4656
N4060 X7.0978 Y-4.4602
N4070 X7.081 Y-4.4547
N4080 X7.0661 Y-4.4507
N4090 X7.0495 Y-4.4478
N4100 X7.0343 Y-4.4468
N4110 X7.0165 Y-4.4448
N4120 X7.0005 Y-4.4442
N4130 X6.984 Y-4.4443
N4140 X6.9685 Y-4.4433
N4150 X6.9666 Y-4.4302
N4160 X6.9513 Y-4.4371
N4170 X6.9344 Y-4.4434
N4180 X6.9826 Y-4.4234
N4190 X6.9981 Y-4.4176
N4200 X7.0138 Y-4.4109
N4210 X7.0295 Y-4.4056
N4220 X7.0441 Y-4.3986
N4230 X7.0583 Y-4.386
N4240 X7.0703 Y-4.3705
N4250 X7.0843 Y-4.3604
N4260 X7.1009 Y-4.3537
N4270 X7.1175 Y-4.3534
N4280 X7.134 Y-4.3551
N4290 X7.1501 Y-4.3604
N4300 X7.1652 Y-4.3657
N4310 X7.1807 Y-4.3733
N4320 X7.1956 Y-4.3836
N4330 X7.2084 Y-4.3943
N4340 X7.2195 Y-4.4098
N4350 X7.227 Y-4.4278
N4360 X7.2325 Y-4.4473
N4370 X7.2366 Y-4.4665
N4380 X7.2363 Y-4.4858
N4390 X7.2254 Y-4.498
N4400 X7.2348 Y-4.5061
N4410 X7.2457 Y-4.5201
N4420 X7.2274 Y-4.5249
N4430 X7.2196 Y-4.5422
N4440 X7.2112 Y-4.5588
N4450 X7.1992 Y-4.5747
N4460 X7.1847 Y-4.5858
N4470 X7.195 Y-4.5443
N4480 X7.1786 Y-4.5457
N4490 X7.1615 Y-4.5429
N4500 X7.1466 Y-4.5352
N4510 X7.1321 Y-4.5235
N4520 X7.1421 Y-4.508
N4530 X7.1593 Y-4.5136
N4540 X7.1758 Y-4.5134
N4550 X7.1934 Y-4.5125
N4560 X7.21 Y-4.5063
N4570 G80
N4580 G0 Z0.5006
N4600 M5 M9

(DRILL1 3)
N4610 S10000 M3 M8
N4620 G0 X7.6065 Y-7.0936
N4630 G0 Z0.5006
N4650 G0 Z0.1006
N4660 G98 G81 X7.6065 Y-7.0936 Z-0.01 R0.1 F4.
N4670 X7.5944 Y-7.1091
N4680 X7.5789 Y-7.1225
N4690 X7.5618 Y-7.1327
N4700 X7.5444 Y-7.1416
N4710 X7.5263 Y-7.1473
N4720 X7.5086 Y-7.151
N4730 X7.4893 Y-7.1538
N4740 X7.4703 Y-7.1547
N4750 X7.4521 Y-7.1554
N4760 X7.4342 Y-7.1557
N4770 X7.4165 Y-7.1536
N4780 X7.3985 Y-7.15
N4790 X7.3809 Y-7.1456
N4800 X7.3646 Y-7.1393
N4810 X7.3484 Y-7.132
N4820 X7.3321 Y-7.1234
N4830 X7.3164 Y-7.1141
N4840 X7.3015 Y-7.1041
N4850 X7.287 Y-7.0934
N4860 X7.2721 Y-7.0824
N4870 X7.2587 Y-7.0715
N4880 X7.2454 Y-7.0596
N4890 X7.2681 Y-7.0156
N4900 X7.2844 Y-7.0104
N4910 X7.3016 Y-7.0057
N4920 X7.3194 Y-7.0007
N4930 X7.3367 Y-6.9965
N4940 X7.3546 Y-6.9933
N4950 X7.3723 Y-6.9931
N4960 X7.3899 Y-6.9906
N4970 X7.4094 Y-6.992
N4980 X7.4262 Y-6.9928
N4990 X7.4443 Y-6.9965
N5000 X7.4628 Y-6.9998
N5010 X7.4804 Y-7.0032
N5020 X7.498 Y-7.0084
N5030 X7.5152 Y-7.0144
N5040 X7.5325 Y-7.0201
N5050 X7.5502 Y-7.027
N5060 X7.5677 Y-7.035
N5070 X7.5844 Y-7.0443
N5080 X7.601 Y-7.0529
N5090 X7.6172 Y-7.0634
N5100 X7.6334 Y-7.0736
N5110 X7.6524 Y-7.0817
N5120 X7.6697 Y-7.0876
N5130 X7.6878 Y-7.091
N5140 X7.6727 Y-7.1062
N5150 X7.6602 Y-7.1221
N5160 X7.6493 Y-7.1398
N5170 X7.6334 Y-7.1543
N5180 X7.6179 Y-7.1667
N5190 X7.6007 Y-7.1758
N5200 X7.5809 Y-7.1786
N5210 X7.5623 Y-7.179
N5220 X7.5438 Y-7.1779
N5230 X7.5245 Y-7.1772
N5240 X7.5059 Y-7.178
N5250 X7.4877 Y-7.1772
N5260 X7.4694 Y-7.1768
N5270 X7.45 Y-7.1771
N5280 X7.4332 Y-7.177
N5290 X7.4145 Y-7.1766
N5300 X7.3963 Y-7.1767
N5310 X7.3793 Y-7.1773
N5320 X7.3597 Y-7.1767
N5330 X7.3426 Y-7.177
N5340 X7.3247 Y-7.1768
N5350 X7.3074 Y-7.1772
N5360 X7.2883 Y-7.1775
N5370 X7.2716 Y-7.1765
N5380 X7.2538 Y-7.1767
N5390 X7.2369 Y-7.1759
N5400 X7.2194 Y-7.1767
N5410 X7.2028 Y-7.1763
N5420 X7.1858 Y-7.1758
N5430 X7.1688 Y-7.174
N5440 X7.1515 Y-7.1695
N5450 X7.1362 Y-7.1622
N5460 X7.1213 Y-7.1531
N5470 X7.1087 Y-7.1417
N5480 X7.098 Y-7.1259
N5490 X7.0946 Y-7.1071
N5500 X7.0951 Y-7.0874
N5510 X7.1002 Y-7.068
N5520 X7.111 Y-7.0531
N5530 X7.1235 Y-7.0399
N5540 X7.1444 Y-6.9913
N5550 X7.132 Y-6.9764
N5560 X7.1175 Y-6.9675
N5570 X7.1021 Y-6.9621
N5580 X7.0852 Y-6.9567
N5590 X7.0703 Y-6.9526
N5600 X7.0537 Y-6.9497
N5610 X7.0385 Y-6.9487
N5620 X7.0207 Y-6.9467
N5630 X7.0047 Y-6.9461
N5640 X6.9883 Y-6.9463
N5650 X6.9727 Y-6.9452
N5660 X6.9708 Y-6.9322
N5670 X6.9555 Y-6.939
N5680 X6.9386 Y-6.9454
N5690 X6.9868 Y-6.9253
N5700 X7.0024 Y-6.9195
N5710 X7.018 Y-6.9128
N5720 X7.0337 Y-6.9075
N5730 X7.0484 Y-6.9005
N5740 X7.0626 Y-6.888
N5750 X7.0745 Y-6.8724
N5760 X7.0886 Y-6.8623
N5770 X7.1051 Y-6.8556
N5780 X7.1217 Y-6.8554
N5790 X7.1382 Y-6.8571
N5800 X7.1544 Y-6.8624
N5810 X7.1695 Y-6.8677
N5820 X7.185 Y-6.8752
N5830 X7.1998 Y-6.8855
N5840 X7.2126 Y-6.8963
N5850 X7.2237 Y-6.9118
N5860 X7.2312 Y-6.9298
N5870 X7.2367 Y-6.9492
N5880 X7.2408 Y-6.9684
N5890 X7.2405 Y-6.9877
N5900 X7.2296 Y-7.
N5910 X7.2391 Y-7.0081
N5920 X7.25 Y-7.022
N5930 X7.2316 Y-7.0269
N5940 X7.2239 Y-7.0441
N5950 X7.2154 Y-7.0607
N5960 X7.2034 Y-7.0766
N5970 X7.1889 Y-7.0878
N5980 X7.1992 Y-7.0462
N5990 X7.1828 Y-7.0477
N6000 X7.1657 Y-7.0449
N6010 X7.1508 Y-7.0372
N6020 X7.1364 Y-7.0254
N6030 X7.1463 Y-7.0099
N6040 X7.1635 Y-7.0155
N6050 X7.18 Y-7.0153
N6060 X7.1977 Y-7.0144
N6070 X7.2142 Y-7.0082
N6080 G80
N6090 G0 Z0.5006
N6110 M5 M9

(DRILL1 3)
N6120 S10000 M3 M8
N6130 G0 X7.6022 Y-9.5889
N6140 G0 Z0.5006
N6160 G0 Z0.1006
N6170 G98 G81 X7.6022 Y-9.5889 Z-0.01 R0.1 F4.
N6180 X7.5902 Y-9.6044
N6190 X7.5747 Y-9.6178
N6200 X7.5576 Y-9.628
N6210 X7.5402 Y-9.6369
N6220 X7.5221 Y-9.6426
N6230 X7.5044 Y-9.6463
N6240 X7.4851 Y-9.6491
N6250 X7.4661 Y-9.65
N6260 X7.4479 Y-9.6507
N6270 X7.43 Y-9.651
N6280 X7.4123 Y-9.6489
N6290 X7.3943 Y-9.6452
N6300 X7.3767 Y-9.6409
N6310 X7.3604 Y-9.6346
N6320 X7.3442 Y-9.6273
N6330 X7.3279 Y-9.6186
N6340 X7.3122 Y-9.6094
N6350 X7.2973 Y-9.5994
N6360 X7.2827 Y-9.5887
N6370 X7.2679 Y-9.5777
N6380 X7.2545 Y-9.5668
N6390 X7.2412 Y-9.5549
N6400 X7.2639 Y-9.5109
N6410 X7.2802 Y-9.5057
N6420 X7.2974 Y-9.501
N6430 X7.3152 Y-9.496
N6440 X7.3325 Y-9.4918
N6450 X7.3504 Y-9.4886
N6460 X7.3681 Y-9.4884
N6470 X7.3857 Y-9.4859
N6480 X7.4051 Y-9.4873
N6490 X7.422 Y-9.4881
N6500 X7.4401 Y-9.4918
N6510 X7.4586 Y-9.4951
N6520 X7.4761 Y-9.4985
N6530 X7.4938 Y-9.5037
N6540 X7.511 Y-9.5097
N6550 X7.5283 Y-9.5153
N6560 X7.546 Y-9.5223
N6570 X7.5635 Y-9.5303
N6580 X7.5801 Y-9.5396
N6590 X7.5968 Y-9.5482
N6600 X7.613 Y-9.5587
N6610 X7.6292 Y-9.5689
N6620 X7.6482 Y-9.577
N6630 X7.6655 Y-9.5829
N6640 X7.6836 Y-9.5863
N6650 X7.6685 Y-9.6015
N6660 X7.656 Y-9.6174
N6670 X7.645 Y-9.6351
N6680 X7.6291 Y-9.6496
N6690 X7.6137 Y-9.662
N6700 X7.5965 Y-9.6711
N6710 X7.5767 Y-9.6739
N6720 X7.5581 Y-9.6743
N6730 X7.5396 Y-9.6732
N6740 X7.5202 Y-9.6725
N6750 X7.5017 Y-9.6733
N6760 X7.4835 Y-9.6725
N6770 X7.4651 Y-9.6721
N6780 X7.4458 Y-9.6724
N6790 X7.429 Y-9.6722
N6800 X7.4103 Y-9.6719
N6810 X7.3921 Y-9.672
N6820 X7.3751 Y-9.6726
N6830 X7.3555 Y-9.672
N6840 X7.3384 Y-9.6723
N6850 X7.3205 Y-9.6721
N6860 X7.3032 Y-9.6725
N6870 X7.2841 Y-9.6728
N6880 X7.2674 Y-9.6718
N6890 X7.2496 Y-9.672
N6900 X7.2327 Y-9.6712
N6910 X7.2152 Y-9.672
N6920 X7.1986 Y-9.6716
N6930 X7.1816 Y-9.6711
N6940 X7.1646 Y-9.6693
N6950 X7.1473 Y-9.6647
N6960 X7.132 Y-9.6575
N6970 X7.1171 Y-9.6484
N6980 X7.1045 Y-9.637
N6990 X7.0938 Y-9.6212
N7000 X7.0904 Y-9.6024
N7010 X7.0909 Y-9.5827
N7020 X7.096 Y-9.5633
N7030 X7.1067 Y-9.5484
N7040 X7.1193 Y-9.5352
N7050 X7.1402 Y-9.4866
N7060 X7.1277 Y-9.4716
N7070 X7.1133 Y-9.4628
N7080 X7.0979 Y-9.4574
N7090 X7.081 Y-9.4519
N7100 X7.0661 Y-9.4479
N7110 X7.0495 Y-9.445
N7120 X7.0343 Y-9.444
N7130 X7.0165 Y-9.442
N7140 X7.0005 Y-9.4414
N7150 X6.9841 Y-9.4415
N7160 X6.9685 Y-9.4405
N7170 X6.9666 Y-9.4274
N7180 X6.9513 Y-9.4343
N7190 X6.9344 Y-9.4406
N7200 X6.9826 Y-9.4206
N7210 X6.9982 Y-9.4148
N7220 X7.0138 Y-9.4081
N7230 X7.0295 Y-9.4028
N7240 X7.0442 Y-9.3958
N7250 X7.0584 Y-9.3832
N7260 X7.0703 Y-9.3677
N7270 X7.0844 Y-9.3576
N7280 X7.1009 Y-9.3509
N7290 X7.1175 Y-9.3506
N7300 X7.134 Y-9.3523
N7310 X7.1501 Y-9.3576
N7320 X7.1652 Y-9.3629
N7330 X7.1808 Y-9.3705
N7340 X7.1956 Y-9.3808
N7350 X7.2084 Y-9.3915
N7360 X7.2195 Y-9.407
N7370 X7.227 Y-9.425
N7380 X7.2325 Y-9.4445
N7390 X7.2366 Y-9.4637
N7400 X7.2363 Y-9.483
N7410 X7.2254 Y-9.4952
N7420 X7.2349 Y-9.5033
N7430 X7.2458 Y-9.5173
N7440 X7.2274 Y-9.5221
N7450 X7.2197 Y-9.5394
N7460 X7.2112 Y-9.556
N7470 X7.1992 Y-9.5719
N7480 X7.1847 Y-9.5831
N7490 X7.195 Y-9.5415
N7500 X7.1786 Y-9.543
N7510 X7.1615 Y-9.5402
N7520 X7.1466 Y-9.5324
N7530 X7.1322 Y-9.5207
N7540 X7.1421 Y-9.5052
N7550 X7.1593 Y-9.5108
N7560 X7.1758 Y-9.5106
N7570 X7.1934 Y-9.5097
N7580 X7.21 Y-9.5035
N7590 G80
N7600 G0 Z0.5006
N7620 M5 M9

(DRILL1 3)
N7630 S10000 M3 M8
N7640 G0 X3.7237 Y-9.5888
N7650 G0 Z0.5006
N7670 G0 Z0.1006
N7680 G98 G81 X3.7237 Y-9.5888 Z-0.01 R0.1 F4.
N7690 X3.7117 Y-9.6043
N7700 X3.6962 Y-9.6177
N7710 X3.6791 Y-9.6279
N7720 X3.6617 Y-9.6368
N7730 X3.6436 Y-9.6425
N7740 X3.6259 Y-9.6462
N7750 X3.6066 Y-9.649
N7760 X3.5876 Y-9.6499
N7770 X3.5693 Y-9.6506
N7780 X3.5515 Y-9.6509
N7790 X3.5338 Y-9.6488
N7800 X3.5158 Y-9.6452
N7810 X3.4982 Y-9.6408
N7820 X3.4819 Y-9.6345
N7830 X3.4657 Y-9.6272
N7840 X3.4494 Y-9.6186
N7850 X3.4337 Y-9.6093
N7860 X3.4188 Y-9.5993
N7870 X3.4042 Y-9.5886
N7880 X3.3894 Y-9.5776
N7890 X3.376 Y-9.5667
N7900 X3.3627 Y-9.5548
N7910 X3.3854 Y-9.5108
N7920 X3.4017 Y-9.5056
N7930 X3.4188 Y-9.5009
N7940 X3.4367 Y-9.496
N7950 X3.454 Y-9.4917
N7960 X3.4719 Y-9.4885
N7970 X3.4896 Y-9.4883
N7980 X3.5072 Y-9.4858
N7990 X3.5266 Y-9.4872
N8000 X3.5435 Y-9.488
N8010 X3.5616 Y-9.4917
N8020 X3.5801 Y-9.495
N8030 X3.5976 Y-9.4984
N8040 X3.6153 Y-9.5036
N8050 X3.6325 Y-9.5096
N8060 X3.6498 Y-9.5153
N8070 X3.6675 Y-9.5222
N8080 X3.685 Y-9.5303
N8090 X3.7016 Y-9.5395
N8100 X3.7183 Y-9.5481
N8110 X3.7345 Y-9.5586
N8120 X3.7507 Y-9.5688
N8130 X3.7697 Y-9.5769
N8140 X3.787 Y-9.5829
N8150 X3.8051 Y-9.5862
N8160 X3.79 Y-9.6014
N8170 X3.7774 Y-9.6173
N8180 X3.7665 Y-9.635
N8190 X3.7506 Y-9.6495
N8200 X3.7352 Y-9.6619
N8210 X3.718 Y-9.671
N8220 X3.6982 Y-9.6738
N8230 X3.6795 Y-9.6742
N8240 X3.6611 Y-9.6731
N8250 X3.6417 Y-9.6724
N8260 X3.6232 Y-9.6732
N8270 X3.605 Y-9.6724
N8280 X3.5866 Y-9.672
N8290 X3.5673 Y-9.6723
N8300 X3.5505 Y-9.6722
N8310 X3.5318 Y-9.6718
N8320 X3.5136 Y-9.6719
N8330 X3.4966 Y-9.6725
N8340 X3.477 Y-9.6719
N8350 X3.4599 Y-9.6722
N8360 X3.442 Y-9.672
N8370 X3.4247 Y-9.6724
N8380 X3.4056 Y-9.6727
N8390 X3.3889 Y-9.6717
N8400 X3.3711 Y-9.6719
N8410 X3.3542 Y-9.6711
N8420 X3.3367 Y-9.6719
N8430 X3.32 Y-9.6715
N8440 X3.3031 Y-9.671
N8450 X3.2861 Y-9.6692
N8460 X3.2688 Y-9.6647
N8470 X3.2535 Y-9.6575
N8480 X3.2386 Y-9.6483
N8490 X3.226 Y-9.6369
N8500 X3.2152 Y-9.6211
N8510 X3.2119 Y-9.6023
N8520 X3.2124 Y-9.5826
N8530 X3.2175 Y-9.5632
N8540 X3.2282 Y-9.5483
N8550 X3.2408 Y-9.5351
N8560 X3.2617 Y-9.4866
N8570 X3.2492 Y-9.4716
N8580 X3.2348 Y-9.4627
N8590 X3.2194 Y-9.4573
N8600 X3.2025 Y-9.4519
N8610 X3.1876 Y-9.4478
N8620 X3.171 Y-9.4449
N8630 X3.1558 Y-9.4439
N8640 X3.138 Y-9.4419
N8650 X3.122 Y-9.4413
N8660 X3.1056 Y-9.4415
N8670 X3.09 Y-9.4404
N8680 X3.0881 Y-9.4274
N8690 X3.0728 Y-9.4342
N8700 X3.0559 Y-9.4406
N8710 X3.1041 Y-9.4205
N8720 X3.1197 Y-9.4147
N8730 X3.1353 Y-9.408
N8740 X3.151 Y-9.4027
N8750 X3.1656 Y-9.3957
N8760 X3.1799 Y-9.3832
N8770 X3.1918 Y-9.3676
N8780 X3.2058 Y-9.3575
N8790 X3.2224 Y-9.3508
N8800 X3.239 Y-9.3506
N8810 X3.2555 Y-9.3523
N8820 X3.2716 Y-9.3576
N8830 X3.2867 Y-9.3629
N8840 X3.3022 Y-9.3704
N8850 X3.3171 Y-9.3807
N8860 X3.3299 Y-9.3915
N8870 X3.341 Y-9.407
N8880 X3.3485 Y-9.425
N8890 X3.354 Y-9.4444
N8900 X3.3581 Y-9.4636
N8910 X3.3578 Y-9.483
N8920 X3.3469 Y-9.4952
N8930 X3.3564 Y-9.5033
N8940 X3.3673 Y-9.5172
N8950 X3.3489 Y-9.5221
N8960 X3.3411 Y-9.5393
N8970 X3.3327 Y-9.5559
N8980 X3.3207 Y-9.5718
N8990 X3.3062 Y-9.583
N9000 X3.3165 Y-9.5414
N9010 X3.3001 Y-9.5429
N9020 X3.283 Y-9.5401
N9030 X3.2681 Y-9.5324
N9040 X3.2536 Y-9.5206
N9050 X3.2636 Y-9.5051
N9060 X3.2808 Y-9.5107
N9070 X3.2973 Y-9.5105
N9080 X3.3149 Y-9.5096
N9090 X3.3315 Y-9.5034
N9100 G80
N9110 G0 Z0.5006
N9130 M5 M9

(DRILL1 3)
N9140 S10000 M3 M8
N9150 G0 X3.7237 Y-7.0936
N9160 G0 Z0.5006
N9180 G0 Z0.1006
N9190 G98 G81 X3.7237 Y-7.0936 Z-0.01 R0.1 F4.
N9200 X3.7117 Y-7.1091
N9210 X3.6962 Y-7.1225
N9220 X3.6791 Y-7.1327
N9230 X3.6617 Y-7.1416
N9240 X3.6436 Y-7.1473
N9250 X3.6259 Y-7.151
N9260 X3.6066 Y-7.1538
N9270 X3.5876 Y-7.1547
N9280 X3.5693 Y-7.1554
N9290 X3.5515 Y-7.1557
N9300 X3.5338 Y-7.1536
N9310 X3.5158 Y-7.15
N9320 X3.4982 Y-7.1456
N9330 X3.4819 Y-7.1393
N9340 X3.4657 Y-7.132
N9350 X3.4494 Y-7.1234
N9360 X3.4337 Y-7.1141
N9370 X3.4188 Y-7.1041
N9380 X3.4042 Y-7.0934
N9390 X3.3894 Y-7.0824
N9400 X3.376 Y-7.0715
N9410 X3.3627 Y-7.0596
N9420 X3.3854 Y-7.0156
N9430 X3.4017 Y-7.0104
N9440 X3.4188 Y-7.0057
N9450 X3.4367 Y-7.0007
N9460 X3.454 Y-6.9965
N9470 X3.4719 Y-6.9933
N9480 X3.4896 Y-6.9931
N9490 X3.5072 Y-6.9906
N9500 X3.5266 Y-6.992
N9510 X3.5435 Y-6.9928
N9520 X3.5616 Y-6.9965
N9530 X3.5801 Y-6.9998
N9540 X3.5976 Y-7.0032
N9550 X3.6153 Y-7.0084
N9560 X3.6325 Y-7.0144
N9570 X3.6498 Y-7.0201
N9580 X3.6675 Y-7.027
N9590 X3.685 Y-7.035
N9600 X3.7016 Y-7.0443
N9610 X3.7183 Y-7.0529
N9620 X3.7345 Y-7.0634
N9630 X3.7507 Y-7.0736
N9640 X3.7697 Y-7.0817
N9650 X3.787 Y-7.0876
N9660 X3.8051 Y-7.091
N9670 X3.79 Y-7.1062
N9680 X3.7774 Y-7.1221
N9690 X3.7665 Y-7.1398
N9700 X3.7506 Y-7.1543
N9710 X3.7352 Y-7.1667
N9720 X3.718 Y-7.1758
N9730 X3.6982 Y-7.1786
N9740 X3.6795 Y-7.179
N9750 X3.6611 Y-7.1779
N9760 X3.6417 Y-7.1772
N9770 X3.6232 Y-7.178
N9780 X3.605 Y-7.1772
N9790 X3.5866 Y-7.1768
N9800 X3.5673 Y-7.1771
N9810 X3.5505 Y-7.177
N9820 X3.5318 Y-7.1766
N9830 X3.5136 Y-7.1767
N9840 X3.4966 Y-7.1773
N9850 X3.477 Y-7.1767
N9860 X3.4599 Y-7.177
N9870 X3.442 Y-7.1768
N9880 X3.4247 Y-7.1772
N9890 X3.4056 Y-7.1775
N9900 X3.3889 Y-7.1765
N9910 X3.3711 Y-7.1767
N9920 X3.3542 Y-7.1759
N9930 X3.3367 Y-7.1767
N9940 X3.32 Y-7.1763
N9950 X3.3031 Y-7.1758
N9960 X3.2861 Y-7.174
N9970 X3.2688 Y-7.1695
N9980 X3.2535 Y-7.1622
N9990 X3.2386 Y-7.1531
N10000 X3.226 Y-7.1417
N10010 X3.2152 Y-7.1259
N10020 X3.2119 Y-7.1071
N10030 X3.2124 Y-7.0874
N10040 X3.2175 Y-7.068
N10050 X3.2282 Y-7.0531
N10060 X3.2408 Y-7.0399
N10070 X3.2617 Y-6.9913
N10080 X3.2492 Y-6.9764
N10090 X3.2348 Y-6.9675
N10100 X3.2194 Y-6.9621
N10110 X3.2025 Y-6.9567
N10120 X3.1876 Y-6.9526
N10130 X3.171 Y-6.9497
N10140 X3.1558 Y-6.9487
N10150 X3.138 Y-6.9467
N10160 X3.122 Y-6.9461
N10170 X3.1056 Y-6.9463
N10180 X3.09 Y-6.9452
N10190 X3.0881 Y-6.9322
N10200 X3.0728 Y-6.939
N10210 X3.0559 Y-6.9454
N10220 X3.1041 Y-6.9253
N10230 X3.1197 Y-6.9195
N10240 X3.1353 Y-6.9128
N10250 X3.151 Y-6.9075
N10260 X3.1656 Y-6.9005
N10270 X3.1799 Y-6.888
N10280 X3.1918 Y-6.8724
N10290 X3.2058 Y-6.8623
N10300 X3.2224 Y-6.8556
N10310 X3.239 Y-6.8554
N10320 X3.2555 Y-6.8571
N10330 X3.2716 Y-6.8624
N10340 X3.2867 Y-6.8677
N10350 X3.3022 Y-6.8752
N10360 X3.3171 Y-6.8855
N10370 X3.3299 Y-6.8963
N10380 X3.341 Y-6.9118
N10390 X3.3485 Y-6.9298
N10400 X3.354 Y-6.9492
N10410 X3.3581 Y-6.9684
N10420 X3.3578 Y-6.9877
N10430 X3.3469 Y-7.
N10440 X3.3564 Y-7.0081
N10450 X3.3673 Y-7.022
N10460 X3.3489 Y-7.0269
N10470 X3.3411 Y-7.0441
N10480 X3.3327 Y-7.0607
N10490 X3.3207 Y-7.0766
N10500 X3.3062 Y-7.0878
N10510 X3.3165 Y-7.0462
N10520 X3.3001 Y-7.0477
N10530 X3.283 Y-7.0449
N10540 X3.2681 Y-7.0372
N10550 X3.2536 Y-7.0254
N10560 X3.2636 Y-7.0099
N10570 X3.2808 Y-7.0155
N10580 X3.2973 Y-7.0153
N10590 X3.3149 Y-7.0144
N10600 X3.3315 Y-7.0082
N10610 G80
N10620 G0 Z0.5006
N10640 M5 M9

(DRILL1 3)
N10650 S10000 M3 M8
N10660 G0 X3.7237 Y-4.5915
N10670 G0 Z0.5006
N10690 G0 Z0.1006
N10700 G98 G81 X3.7237 Y-4.5915 Z-0.01 R0.1 F4.
N10710 X3.7117 Y-4.6071
N10720 X3.6962 Y-4.6205
N10730 X3.6791 Y-4.6306
N10740 X3.6617 Y-4.6396
N10750 X3.6436 Y-4.6453
N10760 X3.6259 Y-4.6489
N10770 X3.6066 Y-4.6518
N10780 X3.5876 Y-4.6526
N10790 X3.5693 Y-4.6534
N10800 X3.5515 Y-4.6537
N10810 X3.5338 Y-4.6515
N10820 X3.5158 Y-4.6479
N10830 X3.4982 Y-4.6436
N10840 X3.4819 Y-4.6373
N10850 X3.4657 Y-4.63
N10860 X3.4494 Y-4.6213
N10870 X3.4337 Y-4.6121
N10880 X3.4188 Y-4.6021
N10890 X3.4042 Y-4.5914
N10900 X3.3894 Y-4.5804
N10910 X3.376 Y-4.5695
N10920 X3.3627 Y-4.5576
N10930 X3.3854 Y-4.5136
N10940 X3.4017 Y-4.5083
N10950 X3.4188 Y-4.5037
N10960 X3.4367 Y-4.4987
N10970 X3.454 Y-4.4945
N10980 X3.4719 Y-4.4912
N10990 X3.4896 Y-4.4911
N11000 X3.5072 Y-4.4886
N11010 X3.5266 Y-4.4899
N11020 X3.5435 Y-4.4908
N11030 X3.5616 Y-4.4945
N11040 X3.5801 Y-4.4978
N11050 X3.5976 Y-4.5012
N11060 X3.6153 Y-4.5064
N11070 X3.6325 Y-4.5124
N11080 X3.6498 Y-4.518
N11090 X3.6675 Y-4.525
N11100 X3.685 Y-4.533
N11110 X3.7016 Y-4.5423
N11120 X3.7183 Y-4.5509
N11130 X3.7345 Y-4.5614
N11140 X3.7507 Y-4.5716
N11150 X3.7697 Y-4.5797
N11160 X3.787 Y-4.5856
N11170 X3.8051 Y-4.589
N11180 X3.79 Y-4.6042
N11190 X3.7774 Y-4.6201
N11200 X3.7665 Y-4.6378
N11210 X3.7506 Y-4.6523
N11220 X3.7352 Y-4.6647
N11230 X3.718 Y-4.6738
N11240 X3.6982 Y-4.6766
N11250 X3.6795 Y-4.677
N11260 X3.6611 Y-4.6759
N11270 X3.6417 Y-4.6752
N11280 X3.6232 Y-4.6759
N11290 X3.605 Y-4.6752
N11300 X3.5866 Y-4.6747
N11310 X3.5673 Y-4.6751
N11320 X3.5505 Y-4.6749
N11330 X3.5318 Y-4.6746
N11340 X3.5136 Y-4.6747
N11350 X3.4966 Y-4.6753
N11360 X3.477 Y-4.6747
N11370 X3.4599 Y-4.675
N11380 X3.442 Y-4.6747
N11390 X3.4247 Y-4.6752
N11400 X3.4056 Y-4.6755
N11410 X3.3889 Y-4.6745
N11420 X3.3711 Y-4.6746
N11430 X3.3542 Y-4.6739
N11440 X3.3367 Y-4.6746
N11450 X3.32 Y-4.6743
N11460 X3.3031 Y-4.6738
N11470 X3.2861 Y-4.6719
N11480 X3.2688 Y-4.6674
N11490 X3.2535 Y-4.6602
N11500 X3.2386 Y-4.6511
N11510 X3.226 Y-4.6396
N11520 X3.2152 Y-4.6238
N11530 X3.2119 Y-4.605
N11540 X3.2124 Y-4.5854
N11550 X3.2175 Y-4.566
N11560 X3.2282 Y-4.5511
N11570 X3.2408 Y-4.5379
N11580 X3.2617 Y-4.4893
N11590 X3.2492 Y-4.4743
N11600 X3.2348 Y-4.4655
N11610 X3.2194 Y-4.4601
N11620 X3.2025 Y-4.4546
N11630 X3.1876 Y-4.4506
N11640 X3.171 Y-4.4477
N11650 X3.1558 Y-4.4467
N11660 X3.138 Y-4.4447
N11670 X3.122 Y-4.4441
N11680 X3.1056 Y-4.4442
N11690 X3.09 Y-4.4432
N11700 X3.0881 Y-4.4301
N11710 X3.0728 Y-4.437
N11720 X3.0559 Y-4.4433
N11730 X3.1041 Y-4.4233
N11740 X3.1197 Y-4.4175
N11750 X3.1353 Y-4.4108
N11760 X3.151 Y-4.4055
N11770 X3.1656 Y-4.3985
N11780 X3.1799 Y-4.3859
N11790 X3.1918 Y-4.3704
N11800 X3.2058 Y-4.3603
N11810 X3.2224 Y-4.3536
N11820 X3.239 Y-4.3533
N11830 X3.2555 Y-4.355
N11840 X3.2716 Y-4.3603
N11850 X3.2867 Y-4.3656
N11860 X3.3022 Y-4.3732
N11870 X3.3171 Y-4.3835
N11880 X3.3299 Y-4.3942
N11890 X3.341 Y-4.4097
N11900 X3.3485 Y-4.4277
N11910 X3.354 Y-4.4472
N11920 X3.3581 Y-4.4664
N11930 X3.3578 Y-4.4857
N11940 X3.3469 Y-4.4979
N11950 X3.3564 Y-4.506
N11960 X3.3673 Y-4.52
N11970 X3.3489 Y-4.5248
N11980 X3.3411 Y-4.5421
N11990 X3.3327 Y-4.5587
N12000 X3.3207 Y-4.5746
N12010 X3.3062 Y-4.5857
N12020 X3.3165 Y-4.5442
N12030 X3.3001 Y-4.5456
N12040 X3.283 Y-4.5428
N12050 X3.2681 Y-4.5351
N12060 X3.2536 Y-4.5234
N12070 X3.2636 Y-4.5079
N12080 X3.2808 Y-4.5135
N12090 X3.2973 Y-4.5133
N12100 X3.3149 Y-4.5124
N12110 X3.3315 Y-4.5062
N12120 G80
N12130 G0 Z0.5006
N12150 M5 M9

N12160 G30
N12170 M30
%
