%
(*************************************)
(* Generated by wtopace for EntityX  *)
(* Date: 9/25/2016                   *)
(*************************************)
(1001)
(PROJECT6-REVERSED)
(T1  D=0.0039 CR=0. TAPER=118DEG - ZMIN=-0.01 - DRILL)
N10 G90 G54 G64 G50 G17 G40 G80 G94 G91.1 G49
N20 G20 (Inch)
N30 G30

(DRILL1 4)
N50 G30
N60 T1 G43 H1 M6
N70 S10000 M3 M8
N80 G54
N90 G0 X4.7765 Y-2.0925
N100 G0 Z0.5006
N120 G0 Z0.1006
N130 G98 G81 X4.7765 Y-2.0925 Z-0.01 R0.1 F4.
N140 X4.7886 Y-2.108
N150 X4.8041 Y-2.1214
N160 X4.8212 Y-2.1316
N170 X4.8386 Y-2.1406
N180 X4.8567 Y-2.1462
N190 X4.8743 Y-2.1499
N200 X4.8937 Y-2.1528
N210 X4.9127 Y-2.1536
N220 X4.9309 Y-2.1543
N230 X4.9488 Y-2.1546
N240 X4.9665 Y-2.1525
N250 X4.9845 Y-2.1489
N260 X5.0021 Y-2.1445
N270 X5.0184 Y-2.1382
N280 X5.0346 Y-2.1309
N290 X5.0509 Y-2.1223
N300 X5.0666 Y-2.113
N310 X5.0814 Y-2.1031
N320 X5.096 Y-2.0923
N330 X5.1109 Y-2.0813
N340 X5.1243 Y-2.0705
N350 X5.1376 Y-2.0586
N360 X5.1149 Y-2.0146
N370 X5.0986 Y-2.0093
N380 X5.0814 Y-2.0047
N390 X5.0636 Y-1.9997
N400 X5.0463 Y-1.9954
N410 X5.0284 Y-1.9922
N420 X5.0107 Y-1.992
N430 X4.9931 Y-1.9895
N440 X4.9736 Y-1.9909
N450 X4.9568 Y-1.9917
N460 X4.9387 Y-1.9954
N470 X4.9202 Y-1.9987
N480 X4.9026 Y-2.0022
N490 X4.885 Y-2.0073
N500 X4.8678 Y-2.0133
N510 X4.8505 Y-2.019
N520 X4.8328 Y-2.0259
N530 X4.8153 Y-2.034
N540 X4.7986 Y-2.0432
N550 X4.782 Y-2.0518
N560 X4.7658 Y-2.0624
N570 X4.7495 Y-2.0725
N580 X4.7306 Y-2.0807
N590 X4.7133 Y-2.0866
N600 X4.6952 Y-2.0899
N610 X4.7103 Y-2.1052
N620 X4.7228 Y-2.1211
N630 X4.7337 Y-2.1387
N640 X4.7496 Y-2.1532
N650 X4.7651 Y-2.1656
N660 X4.7823 Y-2.1748
N670 X4.8021 Y-2.1775
N680 X4.8207 Y-2.1779
N690 X4.8392 Y-2.1768
N700 X4.8585 Y-2.1762
N710 X4.8771 Y-2.1769
N720 X4.8952 Y-2.1762
N730 X4.9136 Y-2.1757
N740 X4.933 Y-2.1761
N750 X4.9498 Y-2.1759
N760 X4.9685 Y-2.1755
N770 X4.9867 Y-2.1756
N780 X5.0037 Y-2.1762
N790 X5.0233 Y-2.1756
N800 X5.0404 Y-2.176
N810 X5.0583 Y-2.1757
N820 X5.0756 Y-2.1762
N830 X5.0946 Y-2.1764
N840 X5.1114 Y-2.1754
N850 X5.1292 Y-2.1756
N860 X5.1461 Y-2.1748
N870 X5.1636 Y-2.1756
N880 X5.1802 Y-2.1752
N890 X5.1972 Y-2.1747
N900 X5.2142 Y-2.1729
N910 X5.2315 Y-2.1684
N920 X5.2467 Y-2.1612
N930 X5.2617 Y-2.1521
N940 X5.2743 Y-2.1406
N950 X5.285 Y-2.1248
N960 X5.2884 Y-2.106
N970 X5.2879 Y-2.0863
N980 X5.2827 Y-2.0669
N990 X5.272 Y-2.052
N1000 X5.2595 Y-2.0388
N1010 X5.2386 Y-1.9903
N1020 X5.251 Y-1.9753
N1030 X5.2655 Y-1.9664
N1040 X5.2809 Y-1.9611
N1050 X5.2978 Y-1.9556
N1060 X5.3127 Y-1.9516
N1070 X5.3293 Y-1.9486
N1080 X5.3445 Y-1.9476
N1090 X5.3623 Y-1.9456
N1100 X5.3783 Y-1.9451
N1110 X5.3947 Y-1.9452
N1120 X5.4103 Y-1.9442
N1130 X5.4122 Y-1.9311
N1140 X5.4275 Y-1.9379
N1150 X5.4444 Y-1.9443
N1160 X5.3962 Y-1.9242
N1170 X5.3806 Y-1.9184
N1180 X5.365 Y-1.9117
N1190 X5.3493 Y-1.9065
N1200 X5.3346 Y-1.8994
N1210 X5.3204 Y-1.8869
N1220 X5.3084 Y-1.8713
N1230 X5.2944 Y-1.8612
N1240 X5.2779 Y-1.8545
N1250 X5.2612 Y-1.8543
N1260 X5.2448 Y-1.856
N1270 X5.2286 Y-1.8613
N1280 X5.2135 Y-1.8666
N1290 X5.198 Y-1.8741
N1300 X5.1832 Y-1.8844
N1310 X5.1704 Y-1.8952
N1320 X5.1593 Y-1.9107
N1330 X5.1518 Y-1.9287
N1340 X5.1463 Y-1.9481
N1350 X5.1422 Y-1.9673
N1360 X5.1424 Y-1.9867
N1370 X5.1534 Y-1.9989
N1380 X5.1439 Y-2.007
N1390 X5.133 Y-2.021
N1400 X5.1514 Y-2.0258
N1410 X5.1591 Y-2.0431
N1420 X5.1676 Y-2.0596
N1430 X5.1796 Y-2.0755
N1440 X5.1941 Y-2.0867
N1450 X5.1838 Y-2.0452
N1460 X5.2002 Y-2.0466
N1470 X5.2173 Y-2.0438
N1480 X5.2322 Y-2.0361
N1490 X5.2466 Y-2.0243
N1500 X5.2367 Y-2.0088
N1510 X5.2195 Y-2.0145
N1520 X5.203 Y-2.0142
N1530 X5.1853 Y-2.0133
N1540 X5.1688 Y-2.0072
N1550 G80
N1560 G0 Z0.5006
N1580 M5 M9

(DRILL1 4)
N1590 S10000 M3 M8
N1600 G0 X0.8938 Y-2.0924
N1610 G0 Z0.5006
N1630 G0 Z0.1006
N1640 G98 G81 X0.8938 Y-2.0924 Z-0.01 R0.1 F4.
N1650 X0.9058 Y-2.108
N1660 X0.9213 Y-2.1214
N1670 X0.9384 Y-2.1315
N1680 X0.9558 Y-2.1405
N1690 X0.9739 Y-2.1462
N1700 X0.9916 Y-2.1498
N1710 X1.0109 Y-2.1527
N1720 X1.0299 Y-2.1535
N1730 X1.0482 Y-2.1543
N1740 X1.066 Y-2.1546
N1750 X1.0837 Y-2.1524
N1760 X1.1017 Y-2.1488
N1770 X1.1193 Y-2.1445
N1780 X1.1356 Y-2.1382
N1790 X1.1518 Y-2.1309
N1800 X1.1681 Y-2.1222
N1810 X1.1838 Y-2.113
N1820 X1.1987 Y-2.103
N1830 X1.2133 Y-2.0923
N1840 X1.2281 Y-2.0813
N1850 X1.2415 Y-2.0704
N1860 X1.2548 Y-2.0585
N1870 X1.2321 Y-2.0145
N1880 X1.2158 Y-2.0092
N1890 X1.1987 Y-2.0046
N1900 X1.1808 Y-1.9996
N1910 X1.1635 Y-1.9954
N1920 X1.1456 Y-1.9921
N1930 X1.1279 Y-1.992
N1940 X1.1103 Y-1.9895
N1950 X1.0909 Y-1.9908
N1960 X1.074 Y-1.9917
N1970 X1.0559 Y-1.9954
N1980 X1.0374 Y-1.9987
N1990 X1.0199 Y-2.0021
N2000 X1.0022 Y-2.0073
N2010 X0.985 Y-2.0133
N2020 X0.9677 Y-2.0189
N2030 X0.95 Y-2.0259
N2040 X0.9325 Y-2.0339
N2050 X0.9159 Y-2.0432
N2060 X0.8992 Y-2.0518
N2070 X0.883 Y-2.0623
N2080 X0.8668 Y-2.0725
N2090 X0.8478 Y-2.0806
N2100 X0.8305 Y-2.0865
N2110 X0.8124 Y-2.0899
N2120 X0.8275 Y-2.1051
N2130 X0.8401 Y-2.121
N2140 X0.851 Y-2.1387
N2150 X0.8669 Y-2.1532
N2160 X0.8823 Y-2.1656
N2170 X0.8995 Y-2.1747
N2180 X0.9193 Y-2.1775
N2190 X0.938 Y-2.1779
N2200 X0.9564 Y-2.1768
N2210 X0.9758 Y-2.1761
N2220 X0.9943 Y-2.1768
N2230 X1.0125 Y-2.1761
N2240 X1.0309 Y-2.1756
N2250 X1.0502 Y-2.176
N2260 X1.067 Y-2.1758
N2270 X1.0857 Y-2.1755
N2280 X1.1039
N2290 X1.1209 Y-2.1762
N2300 X1.1405 Y-2.1755
N2310 X1.1576 Y-2.1759
N2320 X1.1755 Y-2.1756
N2330 X1.1928 Y-2.1761
N2340 X1.2119 Y-2.1764
N2350 X1.2286 Y-2.1754
N2360 X1.2464 Y-2.1755
N2370 X1.2633 Y-2.1748
N2380 X1.2808 Y-2.1755
N2390 X1.2975 Y-2.1752
N2400 X1.3144 Y-2.1747
N2410 X1.3314 Y-2.1728
N2420 X1.3487 Y-2.1683
N2430 X1.364 Y-2.1611
N2440 X1.3789 Y-2.152
N2450 X1.3915 Y-2.1405
N2460 X1.4023 Y-2.1247
N2470 X1.4056 Y-2.1059
N2480 X1.4051 Y-2.0863
N2490 X1.4 Y-2.0669
N2500 X1.3893 Y-2.052
N2510 X1.3767 Y-2.0388
N2520 X1.3558 Y-1.9902
N2530 X1.3683 Y-1.9752
N2540 X1.3827 Y-1.9664
N2550 X1.3981 Y-1.961
N2560 X1.415 Y-1.9555
N2570 X1.4299 Y-1.9515
N2580 X1.4465 Y-1.9486
N2590 X1.4617 Y-1.9476
N2600 X1.4795 Y-1.9456
N2610 X1.4955 Y-1.945
N2620 X1.5119 Y-1.9451
N2630 X1.5275 Y-1.9441
N2640 X1.5294 Y-1.931
N2650 X1.5447 Y-1.9379
N2660 X1.5616 Y-1.9442
N2670 X1.5134 Y-1.9242
N2680 X1.4978 Y-1.9184
N2690 X1.4822 Y-1.9117
N2700 X1.4665 Y-1.9064
N2710 X1.4519 Y-1.8994
N2720 X1.4376 Y-1.8868
N2730 X1.4257 Y-1.8713
N2740 X1.4117 Y-1.8612
N2750 X1.3951 Y-1.8545
N2760 X1.3785 Y-1.8542
N2770 X1.362 Y-1.8559
N2780 X1.3459 Y-1.8612
N2790 X1.3308 Y-1.8665
N2800 X1.3153 Y-1.8741
N2810 X1.3004 Y-1.8844
N2820 X1.2876 Y-1.8951
N2830 X1.2765 Y-1.9106
N2840 X1.269 Y-1.9286
N2850 X1.2635 Y-1.9481
N2860 X1.2594 Y-1.9673
N2870 X1.2597 Y-1.9866
N2880 X1.2706 Y-1.9988
N2890 X1.2611 Y-2.0069
N2900 X1.2502 Y-2.0209
N2910 X1.2686 Y-2.0257
N2920 X1.2764 Y-2.043
N2930 X1.2848 Y-2.0596
N2940 X1.2968 Y-2.0755
N2950 X1.3113 Y-2.0866
N2960 X1.301 Y-2.0451
N2970 X1.3174 Y-2.0465
N2980 X1.3345 Y-2.0437
N2990 X1.3494 Y-2.036
N3000 X1.3639 Y-2.0243
N3010 X1.3539 Y-2.0088
N3020 X1.3367 Y-2.0144
N3030 X1.3202 Y-2.0142
N3040 X1.3026 Y-2.0133
N3050 X1.286 Y-2.0071
N3060 G80
N3070 G0 Z0.5006
N3090 M5 M9

(DRILL1 4)
N3100 S10000 M3 M8
N3110 G0 X0.898 Y-4.5917
N3120 G0 Z0.5006
N3140 G0 Z0.1006
N3150 G98 G81 X0.898 Y-4.5917 Z-0.01 R0.1 F4.
N3160 X0.91 Y-4.6072
N3170 X0.9256 Y-4.6206
N3180 X0.9427 Y-4.6308
N3190 X0.9601 Y-4.6397
N3200 X0.9782 Y-4.6454
N3210 X0.9958 Y-4.6491
N3220 X1.0152 Y-4.6519
N3230 X1.0342 Y-4.6528
N3240 X1.0524 Y-4.6535
N3250 X1.0703 Y-4.6538
N3260 X1.088 Y-4.6517
N3270 X1.1059 Y-4.6481
N3280 X1.1236 Y-4.6437
N3290 X1.1399 Y-4.6374
N3300 X1.156 Y-4.6301
N3310 X1.1724 Y-4.6215
N3320 X1.188 Y-4.6122
N3330 X1.2029 Y-4.6023
N3340 X1.2175 Y-4.5915
N3350 X1.2324 Y-4.5805
N3360 X1.2458 Y-4.5696
N3370 X1.2591 Y-4.5577
N3380 X1.2364 Y-4.5137
N3390 X1.2201 Y-4.5085
N3400 X1.2029 Y-4.5038
N3410 X1.1851 Y-4.4989
N3420 X1.1678 Y-4.4946
N3430 X1.1498 Y-4.4914
N3440 X1.1322 Y-4.4912
N3450 X1.1145 Y-4.4887
N3460 X1.0951 Y-4.4901
N3470 X1.0783 Y-4.4909
N3480 X1.0602 Y-4.4946
N3490 X1.0417 Y-4.4979
N3500 X1.0241 Y-4.5014
N3510 X1.0065 Y-4.5065
N3520 X0.9892 Y-4.5125
N3530 X0.972 Y-4.5182
N3540 X0.9543 Y-4.5251
N3550 X0.9368 Y-4.5332
N3560 X0.9201 Y-4.5424
N3570 X0.9035 Y-4.551
N3580 X0.8873 Y-4.5615
N3590 X0.871 Y-4.5717
N3600 X0.8521 Y-4.5798
N3610 X0.8348 Y-4.5858
N3620 X0.8167 Y-4.5891
N3630 X0.8317 Y-4.6043
N3640 X0.8443 Y-4.6202
N3650 X0.8552 Y-4.6379
N3660 X0.8711 Y-4.6524
N3670 X0.8866 Y-4.6648
N3680 X0.9038 Y-4.6739
N3690 X0.9235 Y-4.6767
N3700 X0.9422 Y-4.6771
N3710 X0.9607 Y-4.676
N3720 X0.98 Y-4.6753
N3730 X0.9986 Y-4.6761
N3740 X1.0167 Y-4.6753
N3750 X1.0351 Y-4.6749
N3760 X1.0544 Y-4.6752
N3770 X1.0713 Y-4.6751
N3780 X1.0899 Y-4.6747
N3790 X1.1082 Y-4.6748
N3800 X1.1252 Y-4.6754
N3810 X1.1448 Y-4.6748
N3820 X1.1619 Y-4.6752
N3830 X1.1798 Y-4.6749
N3840 X1.1971 Y-4.6753
N3850 X1.2161 Y-4.6756
N3860 X1.2329 Y-4.6746
N3870 X1.2507 Y-4.6748
N3880 X1.2676 Y-4.674
N3890 X1.285 Y-4.6748
N3900 X1.3017 Y-4.6744
N3910 X1.3186 Y-4.6739
N3920 X1.3357 Y-4.6721
N3930 X1.3529 Y-4.6676
N3940 X1.3682 Y-4.6604
N3950 X1.3832 Y-4.6512
N3960 X1.3957 Y-4.6398
N3970 X1.4065 Y-4.624
N3980 X1.4099 Y-4.6052
N3990 X1.4094 Y-4.5855
N4000 X1.4042 Y-4.5661
N4010 X1.3935 Y-4.5512
N4020 X1.3809 Y-4.538
N4030 X1.3601 Y-4.4895
N4040 X1.3725 Y-4.4745
N4050 X1.387 Y-4.4656
N4060 X1.4024 Y-4.4602
N4070 X1.4193 Y-4.4548
N4080 X1.4342 Y-4.4507
N4090 X1.4507 Y-4.4478
N4100 X1.466 Y-4.4468
N4110 X1.4838 Y-4.4448
N4120 X1.4998 Y-4.4442
N4130 X1.5162 Y-4.4444
N4140 X1.5318 Y-4.4434
N4150 X1.5337 Y-4.4303
N4160 X1.549 Y-4.4371
N4170 X1.5659 Y-4.4435
N4180 X1.5177 Y-4.4234
N4190 X1.5021 Y-4.4176
N4200 X1.4864 Y-4.4109
N4210 X1.4708 Y-4.4056
N4220 X1.4561 Y-4.3986
N4230 X1.4419 Y-4.3861
N4240 X1.4299 Y-4.3705
N4250 X1.4159 Y-4.3604
N4260 X1.3994 Y-4.3537
N4270 X1.3827 Y-4.3535
N4280 X1.3663 Y-4.3552
N4290 X1.3501 Y-4.3605
N4300 X1.335 Y-4.3658
N4310 X1.3195 Y-4.3733
N4320 X1.3047 Y-4.3836
N4330 X1.2919 Y-4.3944
N4340 X1.2808 Y-4.4099
N4350 X1.2732 Y-4.4279
N4360 X1.2678 Y-4.4473
N4370 X1.2637 Y-4.4665
N4380 X1.2639 Y-4.4859
N4390 X1.2749 Y-4.4981
N4400 X1.2654 Y-4.5062
N4410 X1.2545 Y-4.5201
N4420 X1.2729 Y-4.525
N4430 X1.2806 Y-4.5422
N4440 X1.2891 Y-4.5588
N4450 X1.3011 Y-4.5747
N4460 X1.3155 Y-4.5859
N4470 X1.3053 Y-4.5443
N4480 X1.3217 Y-4.5458
N4490 X1.3388 Y-4.543
N4500 X1.3537 Y-4.5353
N4510 X1.3681 Y-4.5235
N4520 X1.3582 Y-4.508
N4530 X1.341 Y-4.5136
N4540 X1.3245 Y-4.5134
N4550 X1.3068 Y-4.5125
N4560 X1.2903 Y-4.5063
N4570 G80
N4580 G0 Z0.5006
N4600 M5 M9

(DRILL1 4)
N4610 S10000 M3 M8
N4620 G0 X0.8938 Y-7.0936
N4630 G0 Z0.5006
N4650 G0 Z0.1006
N4660 G98 G81 X0.8938 Y-7.0936 Z-0.01 R0.1 F4.
N4670 X0.9058 Y-7.1091
N4680 X0.9213 Y-7.1225
N4690 X0.9384 Y-7.1327
N4700 X0.9558 Y-7.1417
N4710 X0.9739 Y-7.1473
N4720 X0.9916 Y-7.151
N4730 X1.0109 Y-7.1539
N4740 X1.03 Y-7.1547
N4750 X1.0482 Y-7.1554
N4760 X1.066 Y-7.1557
N4770 X1.0838 Y-7.1536
N4780 X1.1017 Y-7.15
N4790 X1.1194 Y-7.1456
N4800 X1.1356 Y-7.1394
N4810 X1.1518 Y-7.1321
N4820 X1.1682 Y-7.1234
N4830 X1.1838 Y-7.1142
N4840 X1.1987 Y-7.1042
N4850 X1.2133 Y-7.0935
N4860 X1.2282 Y-7.0824
N4870 X1.2416 Y-7.0716
N4880 X1.2548 Y-7.0597
N4890 X1.2322 Y-7.0157
N4900 X1.2159 Y-7.0104
N4910 X1.1987 Y-7.0058
N4920 X1.1808 Y-7.0008
N4930 X1.1636 Y-6.9965
N4940 X1.1456 Y-6.9933
N4950 X1.128 Y-6.9931
N4960 X1.1103 Y-6.9906
N4970 X1.0909 Y-6.992
N4980 X1.0741 Y-6.9928
N4990 X1.0559 Y-6.9965
N5000 X1.0375 Y-6.9999
N5010 X1.0199 Y-7.0033
N5020 X1.0022 Y-7.0085
N5030 X0.985 Y-7.0144
N5040 X0.9677 Y-7.0201
N5050 X0.9501 Y-7.027
N5060 X0.9325 Y-7.0351
N5070 X0.9159 Y-7.0443
N5080 X0.8993 Y-7.0529
N5090 X0.8831 Y-7.0635
N5100 X0.8668 Y-7.0736
N5110 X0.8479 Y-7.0818
N5120 X0.8306 Y-7.0877
N5130 X0.8124 Y-7.091
N5140 X0.8275 Y-7.1063
N5150 X0.8401 Y-7.1222
N5160 X0.851 Y-7.1398
N5170 X0.8669 Y-7.1543
N5180 X0.8823 Y-7.1667
N5190 X0.8995 Y-7.1759
N5200 X0.9193 Y-7.1786
N5210 X0.938 Y-7.179
N5220 X0.9565 Y-7.1779
N5230 X0.9758 Y-7.1773
N5240 X0.9944 Y-7.178
N5250 X1.0125 Y-7.1773
N5260 X1.0309 Y-7.1768
N5270 X1.0502 Y-7.1772
N5280 X1.067 Y-7.177
N5290 X1.0857 Y-7.1766
N5300 X1.1039 Y-7.1767
N5310 X1.1209 Y-7.1774
N5320 X1.1405 Y-7.1767
N5330 X1.1576 Y-7.1771
N5340 X1.1756 Y-7.1768
N5350 X1.1929 Y-7.1773
N5360 X1.2119 Y-7.1775
N5370 X1.2286 Y-7.1765
N5380 X1.2464 Y-7.1767
N5390 X1.2634 Y-7.1759
N5400 X1.2808 Y-7.1767
N5410 X1.2975 Y-7.1763
N5420 X1.3144 Y-7.1758
N5430 X1.3314 Y-7.174
N5440 X1.3487 Y-7.1695
N5450 X1.364 Y-7.1623
N5460 X1.3789 Y-7.1532
N5470 X1.3915 Y-7.1417
N5480 X1.4023 Y-7.1259
N5490 X1.4056 Y-7.1071
N5500 X1.4052 Y-7.0875
N5510 X1.4 Y-7.068
N5520 X1.3893 Y-7.0531
N5530 X1.3767 Y-7.0399
N5540 X1.3559 Y-6.9914
N5550 X1.3683 Y-6.9764
N5560 X1.3827 Y-6.9675
N5570 X1.3982 Y-6.9622
N5580 X1.4151 Y-6.9567
N5590 X1.43 Y-6.9527
N5600 X1.4465 Y-6.9498
N5610 X1.4617 Y-6.9487
N5620 X1.4795 Y-6.9467
N5630 X1.4955 Y-6.9462
N5640 X1.512 Y-6.9463
N5650 X1.5275 Y-6.9453
N5660 X1.5294 Y-6.9322
N5670 X1.5448 Y-6.939
N5680 X1.5617 Y-6.9454
N5690 X1.5134 Y-6.9254
N5700 X1.4979 Y-6.9195
N5710 X1.4822 Y-6.9128
N5720 X1.4665 Y-6.9076
N5730 X1.4519 Y-6.9005
N5740 X1.4377 Y-6.888
N5750 X1.4257 Y-6.8724
N5760 X1.4117 Y-6.8623
N5770 X1.3952 Y-6.8556
N5780 X1.3785 Y-6.8554
N5790 X1.362 Y-6.8571
N5800 X1.3459 Y-6.8624
N5810 X1.3308 Y-6.8677
N5820 X1.3153 Y-6.8752
N5830 X1.3004 Y-6.8855
N5840 X1.2877 Y-6.8963
N5850 X1.2766 Y-6.9118
N5860 X1.269 Y-6.9298
N5870 X1.2636 Y-6.9492
N5880 X1.2595 Y-6.9684
N5890 X1.2597 Y-6.9878
N5900 X1.2706 Y-7.
N5910 X1.2612 Y-7.0081
N5920 X1.2503 Y-7.0221
N5930 X1.2686 Y-7.0269
N5940 X1.2764 Y-7.0442
N5950 X1.2849 Y-7.0608
N5960 X1.2969 Y-7.0766
N5970 X1.3113 Y-7.0878
N5980 X1.3011 Y-7.0463
N5990 X1.3174 Y-7.0477
N6000 X1.3346 Y-7.0449
N6010 X1.3494 Y-7.0372
N6020 X1.3639 Y-7.0255
N6030 X1.3539 Y-7.01
N6040 X1.3367 Y-7.0156
N6050 X1.3203 Y-7.0153
N6060 X1.3026 Y-7.0144
N6070 X1.286 Y-7.0083
N6080 G80
N6090 G0 Z0.5006
N6110 M5 M9

(DRILL1 4)
N6120 S10000 M3 M8
N6130 G0 X0.898 Y-9.5889
N6140 G0 Z0.5006
N6160 G0 Z0.1006
N6170 G98 G81 X0.898 Y-9.5889 Z-0.01 R0.1 F4.
N6180 X0.91 Y-9.6044
N6190 X0.9256 Y-9.6178
N6200 X0.9427 Y-9.628
N6210 X0.96 Y-9.637
N6220 X0.9782 Y-9.6426
N6230 X0.9958 Y-9.6463
N6240 X1.0151 Y-9.6492
N6250 X1.0342 Y-9.65
N6260 X1.0524 Y-9.6507
N6270 X1.0702 Y-9.651
N6280 X1.088 Y-9.6489
N6290 X1.1059 Y-9.6453
N6300 X1.1236 Y-9.6409
N6310 X1.1398 Y-9.6346
N6320 X1.156 Y-9.6273
N6330 X1.1724 Y-9.6187
N6340 X1.188 Y-9.6094
N6350 X1.2029 Y-9.5995
N6360 X1.2175 Y-9.5887
N6370 X1.2324 Y-9.5777
N6380 X1.2458 Y-9.5669
N6390 X1.259 Y-9.5549
N6400 X1.2364 Y-9.511
N6410 X1.2201 Y-9.5057
N6420 X1.2029 Y-9.5011
N6430 X1.185 Y-9.4961
N6440 X1.1678 Y-9.4918
N6450 X1.1498 Y-9.4886
N6460 X1.1322 Y-9.4884
N6470 X1.1145 Y-9.4859
N6480 X1.0951 Y-9.4873
N6490 X1.0783 Y-9.4881
N6500 X1.0602 Y-9.4918
N6510 X1.0417 Y-9.4951
N6520 X1.0241 Y-9.4986
N6530 X1.0064 Y-9.5037
N6540 X0.9892 Y-9.5097
N6550 X0.9719 Y-9.5154
N6560 X0.9543 Y-9.5223
N6570 X0.9367 Y-9.5304
N6580 X0.9201 Y-9.5396
N6590 X0.9035 Y-9.5482
N6600 X0.8873 Y-9.5587
N6610 X0.871 Y-9.5689
N6620 X0.8521 Y-9.5771
N6630 X0.8348 Y-9.583
N6640 X0.8167 Y-9.5863
N6650 X0.8317 Y-9.6016
N6660 X0.8443 Y-9.6175
N6670 X0.8552 Y-9.6351
N6680 X0.8711 Y-9.6496
N6690 X0.8865 Y-9.662
N6700 X0.9037 Y-9.6712
N6710 X0.9235 Y-9.6739
N6720 X0.9422 Y-9.6743
N6730 X0.9607 Y-9.6732
N6740 X0.98 Y-9.6725
N6750 X0.9986 Y-9.6733
N6760 X1.0167 Y-9.6725
N6770 X1.0351 Y-9.6721
N6780 X1.0544 Y-9.6725
N6790 X1.0712 Y-9.6723
N6800 X1.0899 Y-9.6719
N6810 X1.1081 Y-9.672
N6820 X1.1251 Y-9.6726
N6830 X1.1447 Y-9.672
N6840 X1.1618 Y-9.6724
N6850 X1.1798 Y-9.6721
N6860 X1.1971 Y-9.6725
N6870 X1.2161 Y-9.6728
N6880 X1.2328 Y-9.6718
N6890 X1.2506 Y-9.672
N6900 X1.2676 Y-9.6712
N6910 X1.285 Y-9.672
N6920 X1.3017 Y-9.6716
N6930 X1.3186 Y-9.6711
N6940 X1.3356 Y-9.6693
N6950 X1.3529 Y-9.6648
N6960 X1.3682 Y-9.6576
N6970 X1.3831 Y-9.6485
N6980 X1.3957 Y-9.637
N6990 X1.4065 Y-9.6212
N7000 X1.4099 Y-9.6024
N7010 X1.4094 Y-9.5827
N7020 X1.4042 Y-9.5633
N7030 X1.3935 Y-9.5484
N7040 X1.3809 Y-9.5352
N7050 X1.3601 Y-9.4867
N7060 X1.3725 Y-9.4717
N7070 X1.3869 Y-9.4628
N7080 X1.4024 Y-9.4575
N7090 X1.4193 Y-9.452
N7100 X1.4342 Y-9.448
N7110 X1.4507 Y-9.445
N7120 X1.4659 Y-9.444
N7130 X1.4837 Y-9.442
N7140 X1.4997 Y-9.4415
N7150 X1.5162 Y-9.4416
N7160 X1.5317 Y-9.4406
N7170 X1.5336 Y-9.4275
N7180 X1.549 Y-9.4343
N7190 X1.5659 Y-9.4407
N7200 X1.5176 Y-9.4206
N7210 X1.5021 Y-9.4148
N7220 X1.4864 Y-9.4081
N7230 X1.4708 Y-9.4029
N7240 X1.4561 Y-9.3958
N7250 X1.4419 Y-9.3833
N7260 X1.4299 Y-9.3677
N7270 X1.4159 Y-9.3576
N7280 X1.3994 Y-9.3509
N7290 X1.3827 Y-9.3507
N7300 X1.3662 Y-9.3524
N7310 X1.3501 Y-9.3577
N7320 X1.335 Y-9.363
N7330 X1.3195 Y-9.3705
N7340 X1.3046 Y-9.3808
N7350 X1.2919 Y-9.3916
N7360 X1.2808 Y-9.4071
N7370 X1.2732 Y-9.4251
N7380 X1.2678 Y-9.4445
N7390 X1.2637 Y-9.4637
N7400 X1.2639 Y-9.4831
N7410 X1.2748 Y-9.4953
N7420 X1.2654 Y-9.5034
N7430 X1.2545 Y-9.5173
N7440 X1.2728 Y-9.5222
N7450 X1.2806 Y-9.5395
N7460 X1.2891 Y-9.556
N7470 X1.3011 Y-9.5719
N7480 X1.3155 Y-9.5831
N7490 X1.3053 Y-9.5415
N7500 X1.3216 Y-9.543
N7510 X1.3388 Y-9.5402
N7520 X1.3536 Y-9.5325
N7530 X1.3681 Y-9.5207
N7540 X1.3581 Y-9.5052
N7550 X1.3409 Y-9.5109
N7560 X1.3245 Y-9.5106
N7570 X1.3068 Y-9.5097
N7580 X1.2903 Y-9.5036
N7590 G80
N7600 G0 Z0.5006
N7620 M5 M9

(DRILL1 4)
N7630 S10000 M3 M8
N7640 G0 X4.7765 Y-9.5888
N7650 G0 Z0.5006
N7670 G0 Z0.1006
N7680 G98 G81 X4.7765 Y-9.5888 Z-0.01 R0.1 F4.
N7690 X4.7885 Y-9.6043
N7700 X4.8041 Y-9.6177
N7710 X4.8212 Y-9.6279
N7720 X4.8385 Y-9.6369
N7730 X4.8567 Y-9.6425
N7740 X4.8743 Y-9.6462
N7750 X4.8936 Y-9.6491
N7760 X4.9127 Y-9.6499
N7770 X4.9309 Y-9.6506
N7780 X4.9487 Y-9.6509
N7790 X4.9665 Y-9.6488
N7800 X4.9844 Y-9.6452
N7810 X5.0021 Y-9.6408
N7820 X5.0184 Y-9.6346
N7830 X5.0345 Y-9.6273
N7840 X5.0509 Y-9.6186
N7850 X5.0665 Y-9.6094
N7860 X5.0814 Y-9.5994
N7870 X5.096 Y-9.5887
N7880 X5.1109 Y-9.5776
N7890 X5.1243 Y-9.5668
N7900 X5.1375 Y-9.5549
N7910 X5.1149 Y-9.5109
N7920 X5.0986 Y-9.5056
N7930 X5.0814 Y-9.501
N7940 X5.0636 Y-9.496
N7950 X5.0463 Y-9.4917
N7960 X5.0283 Y-9.4885
N7970 X5.0107 Y-9.4883
N7980 X4.993 Y-9.4858
N7990 X4.9736 Y-9.4872
N8000 X4.9568 Y-9.488
N8010 X4.9387 Y-9.4917
N8020 X4.9202 Y-9.4951
N8030 X4.9026 Y-9.4985
N8040 X4.885 Y-9.5037
N8050 X4.8677 Y-9.5096
N8060 X4.8504 Y-9.5153
N8070 X4.8328 Y-9.5222
N8080 X4.8152 Y-9.5303
N8090 X4.7986 Y-9.5395
N8100 X4.782 Y-9.5481
N8110 X4.7658 Y-9.5587
N8120 X4.7495 Y-9.5688
N8130 X4.7306 Y-9.577
N8140 X4.7133 Y-9.5829
N8150 X4.6952 Y-9.5862
N8160 X4.7102 Y-9.6015
N8170 X4.7228 Y-9.6174
N8180 X4.7337 Y-9.635
N8190 X4.7496 Y-9.6495
N8200 X4.7651 Y-9.6619
N8210 X4.7822 Y-9.6711
N8220 X4.802 Y-9.6738
N8230 X4.8207 Y-9.6742
N8240 X4.8392 Y-9.6731
N8250 X4.8585 Y-9.6725
N8260 X4.8771 Y-9.6732
N8270 X4.8952 Y-9.6725
N8280 X4.9136 Y-9.672
N8290 X4.9329 Y-9.6724
N8300 X4.9498 Y-9.6722
N8310 X4.9684 Y-9.6718
N8320 X4.9866 Y-9.6719
N8330 X5.0037 Y-9.6726
N8340 X5.0233 Y-9.6719
N8350 X5.0404 Y-9.6723
N8360 X5.0583 Y-9.672
N8370 X5.0756 Y-9.6725
N8380 X5.0946 Y-9.6727
N8390 X5.1114 Y-9.6717
N8400 X5.1291 Y-9.6719
N8410 X5.1461 Y-9.6711
N8420 X5.1635 Y-9.6719
N8430 X5.1802 Y-9.6715
N8440 X5.1971 Y-9.671
N8450 X5.2142 Y-9.6692
N8460 X5.2314 Y-9.6647
N8470 X5.2467 Y-9.6575
N8480 X5.2616 Y-9.6484
N8490 X5.2742 Y-9.6369
N8500 X5.285 Y-9.6211
N8510 X5.2884 Y-9.6023
N8520 X5.2879 Y-9.5827
N8530 X5.2827 Y-9.5632
N8540 X5.272 Y-9.5483
N8550 X5.2594 Y-9.5351
N8560 X5.2386 Y-9.4866
N8570 X5.251 Y-9.4716
N8580 X5.2654 Y-9.4627
N8590 X5.2809 Y-9.4574
N8600 X5.2978 Y-9.4519
N8610 X5.3127 Y-9.4479
N8620 X5.3292 Y-9.445
N8630 X5.3444 Y-9.4439
N8640 X5.3622 Y-9.4419
N8650 X5.3782 Y-9.4414
N8660 X5.3947 Y-9.4415
N8670 X5.4102 Y-9.4405
N8680 X5.4121 Y-9.4274
N8690 X5.4275 Y-9.4342
N8700 X5.4444 Y-9.4406
N8710 X5.3961 Y-9.4206
N8720 X5.3806 Y-9.4147
N8730 X5.3649 Y-9.408
N8740 X5.3493 Y-9.4028
N8750 X5.3346 Y-9.3957
N8760 X5.3204 Y-9.3832
N8770 X5.3084 Y-9.3676
N8780 X5.2944 Y-9.3575
N8790 X5.2779 Y-9.3508
N8800 X5.2612 Y-9.3506
N8810 X5.2448 Y-9.3523
N8820 X5.2286 Y-9.3576
N8830 X5.2135 Y-9.3629
N8840 X5.198 Y-9.3704
N8850 X5.1831 Y-9.3807
N8860 X5.1704 Y-9.3915
N8870 X5.1593 Y-9.407
N8880 X5.1517 Y-9.425
N8890 X5.1463 Y-9.4444
N8900 X5.1422 Y-9.4636
N8910 X5.1424 Y-9.483
N8920 X5.1533 Y-9.4952
N8930 X5.1439 Y-9.5033
N8940 X5.133 Y-9.5173
N8950 X5.1513 Y-9.5221
N8960 X5.1591 Y-9.5394
N8970 X5.1676 Y-9.556
N8980 X5.1796 Y-9.5718
N8990 X5.194 Y-9.583
N9000 X5.1838 Y-9.5415
N9010 X5.2002 Y-9.5429
N9020 X5.2173 Y-9.5401
N9030 X5.2321 Y-9.5324
N9040 X5.2466 Y-9.5207
N9050 X5.2366 Y-9.5052
N9060 X5.2195 Y-9.5108
N9070 X5.203 Y-9.5105
N9080 X5.1853 Y-9.5097
N9090 X5.1688 Y-9.5035
N9100 G80
N9110 G0 Z0.5006
N9130 M5 M9

(DRILL1 4)
N9140 S10000 M3 M8
N9150 G0 X4.7765 Y-7.0936
N9160 G0 Z0.5006
N9180 G0 Z0.1006
N9190 G98 G81 X4.7765 Y-7.0936 Z-0.01 R0.1 F4.
N9200 X4.7885 Y-7.1091
N9210 X4.8041 Y-7.1225
N9220 X4.8212 Y-7.1327
N9230 X4.8385 Y-7.1417
N9240 X4.8567 Y-7.1473
N9250 X4.8743 Y-7.151
N9260 X4.8936 Y-7.1539
N9270 X4.9127 Y-7.1547
N9280 X4.9309 Y-7.1554
N9290 X4.9487 Y-7.1557
N9300 X4.9665 Y-7.1536
N9310 X4.9844 Y-7.15
N9320 X5.0021 Y-7.1456
N9330 X5.0184 Y-7.1394
N9340 X5.0345 Y-7.1321
N9350 X5.0509 Y-7.1234
N9360 X5.0665 Y-7.1142
N9370 X5.0814 Y-7.1042
N9380 X5.096 Y-7.0935
N9390 X5.1109 Y-7.0824
N9400 X5.1243 Y-7.0716
N9410 X5.1375 Y-7.0597
N9420 X5.1149 Y-7.0157
N9430 X5.0986 Y-7.0104
N9440 X5.0814 Y-7.0058
N9450 X5.0636 Y-7.0008
N9460 X5.0463 Y-6.9965
N9470 X5.0283 Y-6.9933
N9480 X5.0107 Y-6.9931
N9490 X4.993 Y-6.9906
N9500 X4.9736 Y-6.992
N9510 X4.9568 Y-6.9928
N9520 X4.9387 Y-6.9965
N9530 X4.9202 Y-6.9999
N9540 X4.9026 Y-7.0033
N9550 X4.885 Y-7.0085
N9560 X4.8677 Y-7.0144
N9570 X4.8504 Y-7.0201
N9580 X4.8328 Y-7.027
N9590 X4.8152 Y-7.0351
N9600 X4.7986 Y-7.0443
N9610 X4.782 Y-7.0529
N9620 X4.7658 Y-7.0635
N9630 X4.7495 Y-7.0736
N9640 X4.7306 Y-7.0818
N9650 X4.7133 Y-7.0877
N9660 X4.6952 Y-7.091
N9670 X4.7102 Y-7.1063
N9680 X4.7228 Y-7.1222
N9690 X4.7337 Y-7.1398
N9700 X4.7496 Y-7.1543
N9710 X4.7651 Y-7.1667
N9720 X4.7822 Y-7.1759
N9730 X4.802 Y-7.1786
N9740 X4.8207 Y-7.179
N9750 X4.8392 Y-7.1779
N9760 X4.8585 Y-7.1773
N9770 X4.8771 Y-7.178
N9780 X4.8952 Y-7.1773
N9790 X4.9136 Y-7.1768
N9800 X4.9329 Y-7.1772
N9810 X4.9498 Y-7.177
N9820 X4.9684 Y-7.1766
N9830 X4.9866 Y-7.1767
N9840 X5.0037 Y-7.1774
N9850 X5.0233 Y-7.1767
N9860 X5.0404 Y-7.1771
N9870 X5.0583 Y-7.1768
N9880 X5.0756 Y-7.1773
N9890 X5.0946 Y-7.1775
N9900 X5.1114 Y-7.1765
N9910 X5.1291 Y-7.1767
N9920 X5.1461 Y-7.1759
N9930 X5.1635 Y-7.1767
N9940 X5.1802 Y-7.1763
N9950 X5.1971 Y-7.1758
N9960 X5.2142 Y-7.174
N9970 X5.2314 Y-7.1695
N9980 X5.2467 Y-7.1623
N9990 X5.2616 Y-7.1532
N10000 X5.2742 Y-7.1417
N10010 X5.285 Y-7.1259
N10020 X5.2884 Y-7.1071
N10030 X5.2879 Y-7.0875
N10040 X5.2827 Y-7.068
N10050 X5.272 Y-7.0531
N10060 X5.2594 Y-7.0399
N10070 X5.2386 Y-6.9914
N10080 X5.251 Y-6.9764
N10090 X5.2654 Y-6.9675
N10100 X5.2809 Y-6.9622
N10110 X5.2978 Y-6.9567
N10120 X5.3127 Y-6.9527
N10130 X5.3292 Y-6.9498
N10140 X5.3444 Y-6.9487
N10150 X5.3622 Y-6.9467
N10160 X5.3782 Y-6.9462
N10170 X5.3947 Y-6.9463
N10180 X5.4102 Y-6.9453
N10190 X5.4121 Y-6.9322
N10200 X5.4275 Y-6.939
N10210 X5.4444 Y-6.9454
N10220 X5.3961 Y-6.9254
N10230 X5.3806 Y-6.9195
N10240 X5.3649 Y-6.9128
N10250 X5.3493 Y-6.9076
N10260 X5.3346 Y-6.9005
N10270 X5.3204 Y-6.888
N10280 X5.3084 Y-6.8724
N10290 X5.2944 Y-6.8623
N10300 X5.2779 Y-6.8556
N10310 X5.2612 Y-6.8554
N10320 X5.2448 Y-6.8571
N10330 X5.2286 Y-6.8624
N10340 X5.2135 Y-6.8677
N10350 X5.198 Y-6.8752
N10360 X5.1831 Y-6.8855
N10370 X5.1704 Y-6.8963
N10380 X5.1593 Y-6.9118
N10390 X5.1517 Y-6.9298
N10400 X5.1463 Y-6.9492
N10410 X5.1422 Y-6.9684
N10420 X5.1424 Y-6.9878
N10430 X5.1533 Y-7.
N10440 X5.1439 Y-7.0081
N10450 X5.133 Y-7.0221
N10460 X5.1513 Y-7.0269
N10470 X5.1591 Y-7.0442
N10480 X5.1676 Y-7.0608
N10490 X5.1796 Y-7.0766
N10500 X5.194 Y-7.0878
N10510 X5.1838 Y-7.0463
N10520 X5.2002 Y-7.0477
N10530 X5.2173 Y-7.0449
N10540 X5.2321 Y-7.0372
N10550 X5.2466 Y-7.0255
N10560 X5.2366 Y-7.01
N10570 X5.2195 Y-7.0156
N10580 X5.203 Y-7.0153
N10590 X5.1853 Y-7.0144
N10600 X5.1688 Y-7.0083
N10610 G80
N10620 G0 Z0.5006
N10640 M5 M9

(DRILL1 4)
N10650 S10000 M3 M8
N10660 G0 X4.7765 Y-4.5916
N10670 G0 Z0.5006
N10690 G0 Z0.1006
N10700 G98 G81 X4.7765 Y-4.5916 Z-0.01 R0.1 F4.
N10710 X4.7885 Y-4.6071
N10720 X4.8041 Y-4.6205
N10730 X4.8212 Y-4.6307
N10740 X4.8385 Y-4.6396
N10750 X4.8567 Y-4.6453
N10760 X4.8743 Y-4.649
N10770 X4.8936 Y-4.6518
N10780 X4.9127 Y-4.6527
N10790 X4.9309 Y-4.6534
N10800 X4.9487 Y-4.6537
N10810 X4.9665 Y-4.6516
N10820 X4.9844 Y-4.648
N10830 X5.0021 Y-4.6436
N10840 X5.0184 Y-4.6373
N10850 X5.0345 Y-4.63
N10860 X5.0509 Y-4.6214
N10870 X5.0665 Y-4.6121
N10880 X5.0814 Y-4.6022
N10890 X5.096 Y-4.5914
N10900 X5.1109 Y-4.5804
N10910 X5.1243 Y-4.5695
N10920 X5.1375 Y-4.5576
N10930 X5.1149 Y-4.5136
N10940 X5.0986 Y-4.5084
N10950 X5.0814 Y-4.5037
N10960 X5.0636 Y-4.4988
N10970 X5.0463 Y-4.4945
N10980 X5.0283 Y-4.4913
N10990 X5.0107 Y-4.4911
N11000 X4.993 Y-4.4886
N11010 X4.9736 Y-4.49
N11020 X4.9568 Y-4.4908
N11030 X4.9387 Y-4.4945
N11040 X4.9202 Y-4.4978
N11050 X4.9026 Y-4.5013
N11060 X4.885 Y-4.5064
N11070 X4.8677 Y-4.5124
N11080 X4.8504 Y-4.5181
N11090 X4.8328 Y-4.525
N11100 X4.8152 Y-4.5331
N11110 X4.7986 Y-4.5423
N11120 X4.782 Y-4.5509
N11130 X4.7658 Y-4.5614
N11140 X4.7495 Y-4.5716
N11150 X4.7306 Y-4.5797
N11160 X4.7133 Y-4.5857
N11170 X4.6952 Y-4.589
N11180 X4.7102 Y-4.6042
N11190 X4.7228 Y-4.6201
N11200 X4.7337 Y-4.6378
N11210 X4.7496 Y-4.6523
N11220 X4.7651 Y-4.6647
N11230 X4.7822 Y-4.6738
N11240 X4.802 Y-4.6766
N11250 X4.8207 Y-4.677
N11260 X4.8392 Y-4.6759
N11270 X4.8585 Y-4.6752
N11280 X4.8771 Y-4.676
N11290 X4.8952 Y-4.6752
N11300 X4.9136 Y-4.6748
N11310 X4.9329 Y-4.6751
N11320 X4.9498 Y-4.675
N11330 X4.9684 Y-4.6746
N11340 X4.9866 Y-4.6747
N11350 X5.0037 Y-4.6753
N11360 X5.0233 Y-4.6747
N11370 X5.0404 Y-4.6751
N11380 X5.0583 Y-4.6748
N11390 X5.0756 Y-4.6752
N11400 X5.0946 Y-4.6755
N11410 X5.1114 Y-4.6745
N11420 X5.1291 Y-4.6747
N11430 X5.1461 Y-4.6739
N11440 X5.1635 Y-4.6747
N11450 X5.1802 Y-4.6743
N11460 X5.1971 Y-4.6738
N11470 X5.2142 Y-4.672
N11480 X5.2314 Y-4.6675
N11490 X5.2467 Y-4.6603
N11500 X5.2616 Y-4.6511
N11510 X5.2742 Y-4.6397
N11520 X5.285 Y-4.6239
N11530 X5.2884 Y-4.6051
N11540 X5.2879 Y-4.5854
N11550 X5.2827 Y-4.566
N11560 X5.272 Y-4.5511
N11570 X5.2594 Y-4.5379
N11580 X5.2386 Y-4.4894
N11590 X5.251 Y-4.4744
N11600 X5.2654 Y-4.4655
N11610 X5.2809 Y-4.4601
N11620 X5.2978 Y-4.4547
N11630 X5.3127 Y-4.4506
N11640 X5.3292 Y-4.4477
N11650 X5.3444 Y-4.4467
N11660 X5.3622 Y-4.4447
N11670 X5.3782 Y-4.4441
N11680 X5.3947 Y-4.4443
N11690 X5.4102 Y-4.4433
N11700 X5.4121 Y-4.4302
N11710 X5.4275 Y-4.437
N11720 X5.4444 Y-4.4434
N11730 X5.3961 Y-4.4233
N11740 X5.3806 Y-4.4175
N11750 X5.3649 Y-4.4108
N11760 X5.3493 Y-4.4055
N11770 X5.3346 Y-4.3985
N11780 X5.3204 Y-4.386
N11790 X5.3084 Y-4.3704
N11800 X5.2944 Y-4.3603
N11810 X5.2779 Y-4.3536
N11820 X5.2612 Y-4.3534
N11830 X5.2448 Y-4.3551
N11840 X5.2286 Y-4.3604
N11850 X5.2135 Y-4.3657
N11860 X5.198 Y-4.3732
N11870 X5.1831 Y-4.3835
N11880 X5.1704 Y-4.3943
N11890 X5.1593 Y-4.4098
N11900 X5.1517 Y-4.4278
N11910 X5.1463 Y-4.4472
N11920 X5.1422 Y-4.4664
N11930 X5.1424 Y-4.4858
N11940 X5.1533 Y-4.498
N11950 X5.1439 Y-4.5061
N11960 X5.133 Y-4.52
N11970 X5.1513 Y-4.5249
N11980 X5.1591 Y-4.5421
N11990 X5.1676 Y-4.5587
N12000 X5.1796 Y-4.5746
N12010 X5.194 Y-4.5858
N12020 X5.1838 Y-4.5442
N12030 X5.2002 Y-4.5457
N12040 X5.2173 Y-4.5429
N12050 X5.2321 Y-4.5352
N12060 X5.2466 Y-4.5234
N12070 X5.2366 Y-4.5079
N12080 X5.2195 Y-4.5135
N12090 X5.203 Y-4.5133
N12100 X5.1853 Y-4.5124
N12110 X5.1688 Y-4.5062
N12120 G80
N12130 G0 Z0.5006
N12150 M5 M9

N12160 G30
N12170 M30
%
