%
(*************************************)
(* Generated by wtopace for EntityX  *)
(* Date: 2/21/2016                   *)
(*************************************)
(1001)
(PROJECT 2 - REVERSED)
(T1  D=0.0039 CR=0. TAPER=118DEG - ZMIN=-0.0112 - DRILL)
N10 G90 G54 G64 G50 G17 G40 G80 G94 G91.1 G49
N20 G20 (Inch)
N30 G30

(DRILL1 2)
N50 G30
N60 T1 G43 H1 M6
N70 S10000 M3 M9
N80 G54
N90 G0 X4.6466 Y-2.1591
N100 G0 Z0.4506
N120 G0 Z0.0506
N130 G98 G81 X4.6466 Y-2.1591 Z-0.0112 R0.05 F4.
N140 X4.9573 Y-1.8989
N150 Y-1.9097
N160 Y-1.9215
N170 X4.958 Y-1.9333
N180 Y-1.9454
N190 X4.957 Y-1.9568
N200 X4.9586 Y-1.9695
N210 X4.958 Y-1.9813
N220 X4.9586 Y-1.9931
N230 X4.9592 Y-2.0045
N240 Y-2.0147
N250 X4.9538 Y-2.0265
N260 X4.9545 Y-2.0373
N270 X4.9487 Y-2.049
N280 X4.9389 Y-2.0576
N290 X4.9332 Y-2.0659
N300 X4.9319 Y-2.0767
N310 X4.937 Y-2.0872
N320 X4.9443 Y-2.0967
N330 X4.9452 Y-2.1076
N340 X4.9522 Y-2.1177
N350 X4.9538 Y-2.1292
N360 X4.9596 Y-2.1406
N370 X4.9672 Y-2.1499
N380 X4.9742 Y-2.1594
N390 X4.9758 Y-2.1712
N400 X4.9697 Y-2.1807
N410 X4.9599 Y-2.1842
N420 X4.9611 Y-2.1963
N430 X4.9631 Y-2.2093
N440 X4.9659 Y-2.2211
N450 X4.9656 Y-2.2329
N460 X4.9669 Y-2.243
N470 X4.9678 Y-2.2554
N480 X4.9679 Y-2.2661
N490 X4.9668 Y-2.279
N500 X4.9679 Y-2.2906
N510 X4.9683 Y-2.3025
N520 X4.9694 Y-2.3148
N530 X4.9691 Y-2.3273
N540 X4.9702 Y-2.3393
N550 X4.9709 Y-2.3508
N560 X4.9722 Y-2.362
N570 X4.9583 Y-2.3608
N580 X4.9471 Y-2.3603
N590 X4.935 Y-2.3612
N600 X4.9237 Y-2.3617
N610 X4.9119 Y-2.363
N620 X4.9017
N630 X4.8888 Y-2.3629
N640 X4.8774 Y-2.3627
N650 X4.8651 Y-2.3626
N660 X4.8531 Y-2.3624
N670 X4.8408 Y-2.3627
N680 X4.8303 Y-2.363
N690 X4.8184 Y-2.3633
N700 X4.8057 Y-2.3632
N710 X4.7943 Y-2.363
N720 X4.7842 Y-2.3629
N730 X4.7719 Y-2.3626
N740 X4.7592 Y-2.3627
N750 X4.7485 Y-2.3617
N760 X4.7358 Y-2.3632
N770 X4.7247 Y-2.3636
N780 X4.7134
N790 X4.7011 Y-2.3629
N800 X4.6893 Y-2.3624
N810 X4.6794 Y-2.3608
N820 X4.6669
N830 X4.6558 Y-2.3611
N840 X4.6439 Y-2.3614
N850 X4.6322 Y-2.3609
N860 X4.6201 Y-2.3603
N870 X4.6204 Y-2.3486
N880 Y-2.3368
N890 X4.622 Y-2.3249
N900 X4.621 Y-2.3126
N910 X4.6214 Y-2.2996
N920 X4.6222 Y-2.2883
N930 X4.6231 Y-2.2766
N940 X4.6247 Y-2.2646
N950 X4.6243 Y-2.2529
N960 X4.6246 Y-2.243
N970 Y-2.2299
N980 X4.6243 Y-2.2196
N990 X4.6244 Y-2.2062
N1000 X4.6246 Y-2.1954
N1010 X4.6244 Y-2.1826
N1020 X4.624 Y-2.1702
N1030 X4.6282 Y-2.1594
N1040 X4.6352 Y-2.1483
N1050 X4.6425 Y-2.1394
N1060 X4.6511 Y-2.1473
N1070 X4.6587 Y-2.1562
N1080 X4.6705 Y-2.1591
N1090 X4.6813 Y-2.1575
N1100 X4.693 Y-2.1546
N1110 X4.7004 Y-2.1658
N1120 X4.7118 Y-2.1623
N1130 X4.7229 Y-2.1629
N1140 X4.7353 Y-2.1661
N1150 X4.7395 Y-2.1556
N1160 X4.7408 Y-2.1438
N1170 X4.75 Y-2.1375
N1180 X4.7608 Y-2.1317
N1190 X4.7624 Y-2.1209
N1200 X4.7684 Y-2.1117
N1210 X4.7748 Y-2.1006
N1220 X4.7789 Y-2.0891
N1230 X4.7837 Y-2.078
N1240 X4.7878 Y-2.0665
N1250 X4.798 Y-2.0729
N1260 X4.8075 Y-2.0808
N1270 X4.8206 Y-2.0767
N1280 X4.8209 Y-2.0675
N1290 X4.8193 Y-2.0554
N1300 X4.818 Y-2.0436
N1310 X4.8215 Y-2.0306
N1320 X4.8174 Y-2.0195
N1330 X4.8155 Y-2.0064
N1340 X4.812 Y-1.995
N1350 X4.8218 Y-1.9883
N1360 X4.8311 Y-1.9816
N1370 X4.8425 Y-1.9772
N1380 X4.847 Y-1.966
N1390 X4.8543 Y-1.9578
N1400 X4.8616 Y-1.9489
N1410 X4.8699 Y-1.9409
N1420 X4.8794 Y-1.9342
N1430 X4.8848 Y-1.9234
N1440 X4.8867 Y-1.9104
N1450 X4.8915 Y-1.9012
N1460 X4.8982 Y-1.89
N1470 X4.9049 Y-1.8805
N1480 X4.9052 Y-1.8687
N1490 X4.9043 Y-1.8571
N1500 Y-1.846
N1510 X4.9034 Y-1.8347
N1520 Y-1.8235
N1530 X4.9029 Y-1.8118
N1540 X4.9077 Y-1.7994
N1550 X4.9201 Y-1.8009
N1560 X4.9314 Y-1.7994
N1570 X4.9434
N1580 X4.9556 Y-1.8009
N1590 X4.9546 Y-1.8132
N1600 Y-1.8256
N1610 X4.9556 Y-1.8377
N1620 X4.9574 Y-1.8502
N1630 X4.958 Y-1.862
N1640 Y-1.8728
N1650 X4.9573 Y-1.8837
N1660 G80
N1670 G0 Z0.4506
N1690 M5 M9

(DRILL1 2)
N1700 S10000 M3 M9
N1710 G0 X0.8684 Y-2.1587
N1720 G0 Z0.4506
N1740 G0 Z0.0506
N1750 G98 G81 X0.8684 Y-2.1587 Z-0.0112 R0.05 F4.
N1760 X1.1791 Y-1.8986
N1770 Y-1.9094
N1780 Y-1.9211
N1790 X1.1798 Y-1.9329
N1800 Y-1.945
N1810 X1.1788 Y-1.9564
N1820 X1.1804 Y-1.9692
N1830 X1.1798 Y-1.9809
N1840 X1.1804 Y-1.9927
N1850 X1.1811 Y-2.0041
N1860 Y-2.0143
N1870 X1.1756 Y-2.0261
N1880 X1.1763 Y-2.0369
N1890 X1.1706 Y-2.0487
N1900 X1.1607 Y-2.0573
N1910 X1.155 Y-2.0655
N1920 X1.1537 Y-2.0763
N1930 X1.1588 Y-2.0868
N1940 X1.1661 Y-2.0964
N1950 X1.1671 Y-2.1072
N1960 X1.1741 Y-2.1174
N1970 X1.1756 Y-2.1288
N1980 X1.1814 Y-2.1403
N1990 X1.189 Y-2.1495
N2000 X1.196 Y-2.159
N2010 X1.1976 Y-2.1708
N2020 X1.1915 Y-2.1803
N2030 X1.1817 Y-2.1838
N2040 X1.183 Y-2.1959
N2050 X1.1849 Y-2.209
N2060 X1.1877 Y-2.2207
N2070 X1.1874 Y-2.2325
N2080 X1.1887 Y-2.2427
N2090 X1.1896 Y-2.2551
N2100 X1.1897 Y-2.2657
N2110 X1.1886 Y-2.2786
N2120 X1.1897 Y-2.2902
N2130 X1.1901 Y-2.3021
N2140 X1.1913 Y-2.3144
N2150 X1.1909 Y-2.3269
N2160 X1.192 Y-2.339
N2170 X1.1927 Y-2.3504
N2180 X1.194 Y-2.3616
N2190 X1.1801 Y-2.3604
N2200 X1.169 Y-2.3599
N2210 X1.1568 Y-2.3608
N2220 X1.1456 Y-2.3613
N2230 X1.1337 Y-2.3626
N2240 X1.1235
N2250 X1.1106 Y-2.3625
N2260 X1.0992 Y-2.3623
N2270 X1.0869 Y-2.3622
N2280 X1.0749 Y-2.362
N2290 X1.0626 Y-2.3623
N2300 X1.0521 Y-2.3626
N2310 X1.0402 Y-2.3629
N2320 X1.0275 Y-2.3628
N2330 X1.0161 Y-2.3626
N2340 X1.006 Y-2.3625
N2350 X0.9937 Y-2.3622
N2360 X0.981 Y-2.3623
N2370 X0.9703 Y-2.3613
N2380 X0.9576 Y-2.3628
N2390 X0.9465 Y-2.3632
N2400 X0.9352
N2410 X0.9229 Y-2.3625
N2420 X0.9111 Y-2.362
N2430 X0.9012 Y-2.3604
N2440 X0.8887
N2450 X0.8776 Y-2.3607
N2460 X0.8658 Y-2.361
N2470 X0.8541 Y-2.3605
N2480 X0.8419 Y-2.3599
N2490 X0.8422 Y-2.3482
N2500 Y-2.3364
N2510 X0.8439 Y-2.3245
N2520 X0.8428 Y-2.3122
N2530 X0.8433 Y-2.2992
N2540 X0.844 Y-2.2879
N2550 X0.8449 Y-2.2762
N2560 X0.8466 Y-2.2642
N2570 X0.8461 Y-2.2525
N2580 X0.8464 Y-2.2426
N2590 Y-2.2296
N2600 X0.8461 Y-2.2192
N2610 X0.8463 Y-2.2059
N2620 X0.8464 Y-2.195
N2630 X0.8462 Y-2.1822
N2640 X0.8458 Y-2.1698
N2650 X0.85 Y-2.159
N2660 X0.857 Y-2.1479
N2670 X0.8643 Y-2.139
N2680 X0.8729 Y-2.1469
N2690 X0.8805 Y-2.1558
N2700 X0.8923 Y-2.1587
N2710 X0.9031 Y-2.1571
N2720 X0.9149 Y-2.1543
N2730 X0.9222 Y-2.1654
N2740 X0.9336 Y-2.1619
N2750 X0.9448 Y-2.1625
N2760 X0.9572 Y-2.1657
N2770 X0.9613 Y-2.1552
N2780 X0.9626 Y-2.1434
N2790 X0.9718 Y-2.1371
N2800 X0.9826 Y-2.1314
N2810 X0.9842 Y-2.1205
N2820 X0.9902 Y-2.1113
N2830 X0.9966 Y-2.1002
N2840 X1.0007 Y-2.0887
N2850 X1.0055 Y-2.0776
N2860 X1.0096 Y-2.0662
N2870 X1.0198 Y-2.0725
N2880 X1.0294 Y-2.0805
N2890 X1.0424 Y-2.0763
N2900 X1.0427 Y-2.0671
N2910 X1.0411 Y-2.055
N2920 X1.0398 Y-2.0433
N2930 X1.0433 Y-2.0302
N2940 X1.0392 Y-2.0191
N2950 X1.0373 Y-2.0061
N2960 X1.0338 Y-1.9946
N2970 X1.0437 Y-1.9879
N2980 X1.0529 Y-1.9812
N2990 X1.0643 Y-1.9768
N3000 X1.0688 Y-1.9657
N3010 X1.0761 Y-1.9574
N3020 X1.0834 Y-1.9485
N3030 X1.0917 Y-1.9405
N3040 X1.1012 Y-1.9339
N3050 X1.1066 Y-1.923
N3060 X1.1085 Y-1.91
N3070 X1.1133 Y-1.9008
N3080 X1.12 Y-1.8897
N3090 X1.1267 Y-1.8801
N3100 X1.127 Y-1.8683
N3110 X1.1261 Y-1.8567
N3120 Y-1.8456
N3130 X1.1252 Y-1.8344
N3140 Y-1.8231
N3150 X1.1247 Y-1.8115
N3160 X1.1295 Y-1.799
N3170 X1.1419 Y-1.8006
N3180 X1.1532 Y-1.799
N3190 X1.1652
N3200 X1.1774 Y-1.8006
N3210 X1.1764 Y-1.8128
N3220 Y-1.8252
N3230 X1.1774 Y-1.8374
N3240 X1.1792 Y-1.8498
N3250 X1.1798 Y-1.8617
N3260 Y-1.8725
N3270 X1.1791 Y-1.8833
N3280 G80
N3290 G0 Z0.4506
N3310 M5 M9

(DRILL1 2)
N3320 S10000 M3 M9
N3330 G0 X4.648 Y-4.659
N3340 G0 Z0.4506
N3360 G0 Z0.0506
N3370 G98 G81 X4.648 Y-4.659 Z-0.0112 R0.05 F4.
N3380 X4.9587 Y-4.3989
N3390 Y-4.4097
N3400 Y-4.4215
N3410 X4.9593 Y-4.4332
N3420 Y-4.4453
N3430 X4.9584 Y-4.4568
N3440 X4.96 Y-4.4695
N3450 X4.9593 Y-4.4813
N3460 X4.96 Y-4.493
N3470 X4.9606 Y-4.5045
N3480 Y-4.5146
N3490 X4.9552 Y-4.5264
N3500 X4.9558 Y-4.5372
N3510 X4.9501 Y-4.549
N3520 X4.9403 Y-4.5576
N3530 X4.9345 Y-4.5659
N3540 X4.9333 Y-4.5767
N3550 X4.9384 Y-4.5872
N3560 X4.9457 Y-4.5967
N3570 X4.9466 Y-4.6075
N3580 X4.9536 Y-4.6177
N3590 X4.9552 Y-4.6291
N3600 X4.9609 Y-4.6406
N3610 X4.9686 Y-4.6498
N3620 X4.9756 Y-4.6594
N3630 X4.9772 Y-4.6711
N3640 X4.9711 Y-4.6807
N3650 X4.9613 Y-4.6842
N3660 X4.9625 Y-4.6962
N3670 X4.9644 Y-4.7093
N3680 X4.9673 Y-4.7211
N3690 X4.967 Y-4.7328
N3700 X4.9682 Y-4.743
N3710 X4.9692 Y-4.7554
N3720 Y-4.7661
N3730 X4.9682 Y-4.779
N3740 X4.9692 Y-4.7905
N3750 X4.9697 Y-4.8025
N3760 X4.9708 Y-4.8147
N3770 X4.9705 Y-4.8272
N3780 X4.9716 Y-4.8393
N3790 X4.9723 Y-4.8508
N3800 X4.9736 Y-4.8619
N3810 X4.9596 Y-4.8607
N3820 X4.9485 Y-4.8603
N3830 X4.9364 Y-4.8612
N3840 X4.9251 Y-4.8616
N3850 X4.9133 Y-4.863
N3860 X4.9031
N3870 X4.8902 Y-4.8628
N3880 X4.8788 Y-4.8627
N3890 X4.8665 Y-4.8625
N3900 X4.8545 Y-4.8624
N3910 X4.8422 Y-4.8627
N3920 X4.8317 Y-4.863
N3930 X4.8198 Y-4.8633
N3940 X4.8071 Y-4.8631
N3950 X4.7956 Y-4.863
N3960 X4.7856 Y-4.8628
N3970 X4.7733 Y-4.8625
N3980 X4.7605 Y-4.8627
N3990 X4.7499 Y-4.8616
N4000 X4.7371 Y-4.8631
N4010 X4.726 Y-4.8636
N4020 X4.7148
N4030 X4.7025 Y-4.8628
N4040 X4.6906 Y-4.8624
N4050 X4.6807 Y-4.8607
N4060 X4.6683
N4070 X4.6572 Y-4.861
N4080 X4.6453 Y-4.8613
N4090 X4.6336 Y-4.8609
N4100 X4.6215 Y-4.8603
N4110 X4.6218 Y-4.8486
N4120 Y-4.8367
N4130 X4.6234 Y-4.8249
N4140 X4.6224 Y-4.8126
N4150 X4.6228 Y-4.7995
N4160 X4.6236 Y-4.7883
N4170 X4.6245 Y-4.7766
N4180 X4.6261 Y-4.7646
N4190 X4.6257 Y-4.7529
N4200 X4.626 Y-4.7429
N4210 Y-4.7299
N4220 X4.6257 Y-4.7195
N4230 X4.6258 Y-4.7062
N4240 X4.6259 Y-4.6954
N4250 X4.6257 Y-4.6826
N4260 X4.6254 Y-4.6702
N4270 X4.6295 Y-4.6594
N4280 X4.6365 Y-4.6482
N4290 X4.6439 Y-4.6393
N4300 X4.6524 Y-4.6473
N4310 X4.6601 Y-4.6562
N4320 X4.6718 Y-4.659
N4330 X4.6827 Y-4.6574
N4340 X4.6944 Y-4.6546
N4350 X4.7017 Y-4.6657
N4360 X4.7132 Y-4.6622
N4370 X4.7243 Y-4.6629
N4380 X4.7367 Y-4.666
N4390 X4.7409 Y-4.6555
N4400 X4.7421 Y-4.6438
N4410 X4.7513 Y-4.6374
N4420 X4.7622 Y-4.6317
N4430 X4.7638 Y-4.6209
N4440 X4.7698 Y-4.6116
N4450 X4.7762 Y-4.6005
N4460 X4.7803 Y-4.5891
N4470 X4.7851 Y-4.5779
N4480 X4.7892 Y-4.5665
N4490 X4.7994 Y-4.5728
N4500 X4.8089 Y-4.5808
N4510 X4.822 Y-4.5767
N4520 X4.8223 Y-4.5674
N4530 X4.8207 Y-4.5554
N4540 X4.8194 Y-4.5436
N4550 X4.8229 Y-4.5305
N4560 X4.8188 Y-4.5194
N4570 X4.8169 Y-4.5064
N4580 X4.8134 Y-4.4949
N4590 X4.8232 Y-4.4883
N4600 X4.8324 Y-4.4816
N4610 X4.8439 Y-4.4771
N4620 X4.8483 Y-4.466
N4630 X4.8557 Y-4.4577
N4640 X4.863 Y-4.4488
N4650 X4.8712 Y-4.4409
N4660 X4.8808 Y-4.4342
N4670 X4.8862 Y-4.4234
N4680 X4.8881 Y-4.4103
N4690 X4.8929 Y-4.4011
N4700 X4.8996 Y-4.39
N4710 X4.9062 Y-4.3804
N4720 X4.9066 Y-4.3687
N4730 X4.9057 Y-4.357
N4740 Y-4.346
N4750 X4.9048 Y-4.3347
N4760 Y-4.3234
N4770 X4.9043 Y-4.3118
N4780 X4.909 Y-4.2994
N4790 X4.9214 Y-4.3009
N4800 X4.9328 Y-4.2994
N4810 X4.9447
N4820 X4.9569 Y-4.3009
N4830 X4.956 Y-4.3131
N4840 Y-4.3256
N4850 X4.9569 Y-4.3377
N4860 X4.9588 Y-4.3501
N4870 X4.9593 Y-4.362
N4880 Y-4.3728
N4890 X4.9587 Y-4.3836
N4900 G80
N4910 G0 Z0.4506
N4930 M5 M9

(DRILL1 2)
N4940 S10000 M3 M9
N4950 G0 X0.8698 Y-4.6584
N4960 G0 Z0.4506
N4980 G0 Z0.0506
N4990 G98 G81 X0.8698 Y-4.6584 Z-0.0112 R0.05 F4.
N5000 X1.1805 Y-4.3983
N5010 Y-4.4091
N5020 Y-4.4208
N5030 X1.1811 Y-4.4326
N5040 Y-4.4447
N5050 X1.1802 Y-4.4561
N5060 X1.1818 Y-4.4689
N5070 X1.1811 Y-4.4806
N5080 X1.1818 Y-4.4924
N5090 X1.1824 Y-4.5039
N5100 Y-4.514
N5110 X1.177 Y-4.5258
N5120 X1.1776 Y-4.5366
N5130 X1.1719 Y-4.5484
N5140 X1.1621 Y-4.557
N5150 X1.1563 Y-4.5652
N5160 X1.1551 Y-4.576
N5170 X1.1601 Y-4.5865
N5180 X1.1675 Y-4.5961
N5190 X1.1684 Y-4.6069
N5200 X1.1754 Y-4.6171
N5210 X1.177 Y-4.6285
N5220 X1.1827 Y-4.64
N5230 X1.1904 Y-4.6492
N5240 X1.1974 Y-4.6587
N5250 X1.1989 Y-4.6705
N5260 X1.1929 Y-4.68
N5270 X1.183 Y-4.6835
N5280 X1.1843 Y-4.6956
N5290 X1.1862 Y-4.7087
N5300 X1.1891 Y-4.7204
N5310 X1.1888 Y-4.7322
N5320 X1.19 Y-4.7424
N5330 X1.191 Y-4.7548
N5340 Y-4.7654
N5350 X1.19 Y-4.7783
N5360 X1.191 Y-4.7899
N5370 X1.1915 Y-4.8018
N5380 X1.1926 Y-4.8141
N5390 X1.1923 Y-4.8266
N5400 X1.1934 Y-4.8387
N5410 X1.1941 Y-4.8501
N5420 X1.1954 Y-4.8613
N5430 X1.1814 Y-4.8601
N5440 X1.1703 Y-4.8597
N5450 X1.1582 Y-4.8606
N5460 X1.1469 Y-4.861
N5470 X1.1351 Y-4.8624
N5480 X1.1249
N5490 X1.112 Y-4.8622
N5500 X1.1006 Y-4.8621
N5510 X1.0883 Y-4.8619
N5520 X1.0763 Y-4.8618
N5530 X1.0639 Y-4.8621
N5540 X1.0534 Y-4.8624
N5550 X1.0416 Y-4.8627
N5560 X1.0288 Y-4.8625
N5570 X1.0174 Y-4.8624
N5580 X1.0074 Y-4.8622
N5590 X0.9951 Y-4.8619
N5600 X0.9823 Y-4.8621
N5610 X0.9717 Y-4.861
N5620 X0.9589 Y-4.8625
N5630 X0.9478 Y-4.863
N5640 X0.9366
N5650 X0.9243 Y-4.8622
N5660 X0.9124 Y-4.8618
N5670 X0.9025 Y-4.8601
N5680 X0.8901
N5690 X0.879 Y-4.8604
N5700 X0.8671 Y-4.8607
N5710 X0.8554 Y-4.8603
N5720 X0.8433 Y-4.8597
N5730 X0.8436 Y-4.8479
N5740 Y-4.8361
N5750 X0.8452 Y-4.8242
N5760 X0.8442 Y-4.8119
N5770 X0.8446 Y-4.7989
N5780 X0.8454 Y-4.7876
N5790 X0.8463 Y-4.7759
N5800 X0.8479 Y-4.7639
N5810 X0.8475 Y-4.7522
N5820 X0.8478 Y-4.7423
N5830 Y-4.7293
N5840 X0.8475 Y-4.7189
N5850 X0.8476 Y-4.7056
N5860 X0.8477 Y-4.6947
N5870 X0.8475 Y-4.682
N5880 X0.8472 Y-4.6695
N5890 X0.8513 Y-4.6587
N5900 X0.8583 Y-4.6476
N5910 X0.8656 Y-4.6387
N5920 X0.8742 Y-4.6466
N5930 X0.8819 Y-4.6556
N5940 X0.8936 Y-4.6584
N5950 X0.9044 Y-4.6568
N5960 X0.9162 Y-4.654
N5970 X0.9235 Y-4.6651
N5980 X0.935 Y-4.6616
N5990 X0.9461 Y-4.6622
N6000 X0.9585 Y-4.6654
N6010 X0.9626 Y-4.6549
N6020 X0.9639 Y-4.6432
N6030 X0.9731 Y-4.6368
N6040 X0.984 Y-4.6311
N6050 X0.9855 Y-4.6203
N6060 X0.9916 Y-4.611
N6070 X0.9979 Y-4.5999
N6080 X1.0021 Y-4.5884
N6090 X1.0069 Y-4.5773
N6100 X1.011 Y-4.5659
N6110 X1.0212 Y-4.5722
N6120 X1.0307 Y-4.5802
N6130 X1.0437 Y-4.576
N6140 X1.0441 Y-4.5668
N6150 X1.0425 Y-4.5547
N6160 X1.0412 Y-4.543
N6170 X1.0447 Y-4.5299
N6180 X1.0406 Y-4.5188
N6190 X1.0387 Y-4.5058
N6200 X1.0352 Y-4.4943
N6210 X1.045 Y-4.4876
N6220 X1.0542 Y-4.481
N6230 X1.0657 Y-4.4765
N6240 X1.0701 Y-4.4654
N6250 X1.0775 Y-4.4571
N6260 X1.0848 Y-4.4482
N6270 X1.093 Y-4.4402
N6280 X1.1026 Y-4.4336
N6290 X1.108 Y-4.4228
N6300 X1.1099 Y-4.4097
N6310 X1.1147 Y-4.4005
N6320 X1.1213 Y-4.3894
N6330 X1.128 Y-4.3798
N6340 X1.1283 Y-4.3681
N6350 X1.1275 Y-4.3564
N6360 Y-4.3453
N6370 X1.1266 Y-4.3341
N6380 Y-4.3228
N6390 X1.1261 Y-4.3112
N6400 X1.1308 Y-4.2988
N6410 X1.1432 Y-4.3003
N6420 X1.1546 Y-4.2988
N6430 X1.1665
N6440 X1.1787 Y-4.3003
N6450 X1.1778 Y-4.3125
N6460 Y-4.3249
N6470 X1.1787 Y-4.3371
N6480 X1.1806 Y-4.3495
N6490 X1.1811 Y-4.3614
N6500 Y-4.3722
N6510 X1.1805 Y-4.383
N6520 G80
N6530 G0 Z0.4506
N6550 M5 M9

(DRILL1 2)
N6560 S10000 M3 M9
N6570 G0 X0.868 Y-7.1597
N6580 G0 Z0.4506
N6600 G0 Z0.0506
N6610 G98 G81 X0.868 Y-7.1597 Z-0.0112 R0.05 F4.
N6620 X1.1788 Y-6.8995
N6630 Y-6.9103
N6640 Y-6.9221
N6650 X1.1794 Y-6.9339
N6660 Y-6.9459
N6670 X1.1784 Y-6.9574
N6680 X1.18 Y-6.9701
N6690 X1.1794 Y-6.9819
N6700 X1.18 Y-6.9936
N6710 X1.1807 Y-7.0051
N6720 Y-7.0153
N6730 X1.1753 Y-7.027
N6740 X1.1759 Y-7.0379
N6750 X1.1702 Y-7.0496
N6760 X1.1603 Y-7.0582
N6770 X1.1546 Y-7.0665
N6780 X1.1533 Y-7.0773
N6790 X1.1584 Y-7.0878
N6800 X1.1657 Y-7.0973
N6810 X1.1667 Y-7.1081
N6820 X1.1737 Y-7.1183
N6830 X1.1753 Y-7.1298
N6840 X1.181 Y-7.1412
N6850 X1.1886 Y-7.1504
N6860 X1.1956 Y-7.16
N6870 X1.1972 Y-7.1717
N6880 X1.1912 Y-7.1813
N6890 X1.1813 Y-7.1848
N6900 X1.1826 Y-7.1969
N6910 X1.1845 Y-7.2099
N6920 X1.1873 Y-7.2217
N6930 X1.187 Y-7.2334
N6940 X1.1883 Y-7.2436
N6950 X1.1892 Y-7.256
N6960 X1.1893 Y-7.2667
N6970 X1.1882 Y-7.2796
N6980 X1.1893 Y-7.2911
N6990 X1.1897 Y-7.3031
N7000 X1.1909 Y-7.3153
N7010 X1.1905 Y-7.3278
N7020 X1.1916 Y-7.3399
N7030 X1.1923 Y-7.3514
N7040 X1.1936 Y-7.3625
N7050 X1.1797 Y-7.3613
N7060 X1.1686 Y-7.3609
N7070 X1.1564 Y-7.3618
N7080 X1.1452 Y-7.3622
N7090 X1.1333 Y-7.3636
N7100 X1.1231
N7110 X1.1102 Y-7.3634
N7120 X1.0988 Y-7.3633
N7130 X1.0865 Y-7.3631
N7140 X1.0745 Y-7.363
N7150 X1.0622 Y-7.3633
N7160 X1.0517 Y-7.3636
N7170 X1.0398 Y-7.3639
N7180 X1.0271 Y-7.3637
N7190 X1.0157 Y-7.3636
N7200 X1.0056 Y-7.3634
N7210 X0.9933 Y-7.3631
N7220 X0.9806 Y-7.3633
N7230 X0.9699 Y-7.3622
N7240 X0.9572 Y-7.3637
N7250 X0.9461 Y-7.3642
N7260 X0.9348
N7270 X0.9225 Y-7.3634
N7280 X0.9107 Y-7.363
N7290 X0.9008 Y-7.3613
N7300 X0.8883
N7310 X0.8772 Y-7.3616
N7320 X0.8654 Y-7.3619
N7330 X0.8537 Y-7.3615
N7340 X0.8415 Y-7.3609
N7350 X0.8418 Y-7.3492
N7360 Y-7.3373
N7370 X0.8435 Y-7.3255
N7380 X0.8424 Y-7.3132
N7390 X0.8429 Y-7.3001
N7400 X0.8436 Y-7.2889
N7410 X0.8445 Y-7.2772
N7420 X0.8462 Y-7.2652
N7430 X0.8457 Y-7.2535
N7440 X0.846 Y-7.2436
N7450 Y-7.2305
N7460 X0.8457 Y-7.2202
N7470 X0.8459 Y-7.2068
N7480 X0.846 Y-7.196
N7490 X0.8458 Y-7.1832
N7500 X0.8455 Y-7.1708
N7510 X0.8496 Y-7.16
N7520 X0.8566 Y-7.1488
N7530 X0.8639 Y-7.1399
N7540 X0.8725 Y-7.1479
N7550 X0.8801 Y-7.1568
N7560 X0.8919 Y-7.1597
N7570 X0.9027 Y-7.1581
N7580 X0.9145 Y-7.1552
N7590 X0.9218 Y-7.1663
N7600 X0.9332 Y-7.1628
N7610 X0.9444 Y-7.1635
N7620 X0.9568 Y-7.1667
N7630 X0.9609 Y-7.1562
N7640 X0.9622 Y-7.1444
N7650 X0.9714 Y-7.138
N7660 X0.9822 Y-7.1323
N7670 X0.9838 Y-7.1215
N7680 X0.9898 Y-7.1123
N7690 X0.9962 Y-7.1011
N7700 X1.0003 Y-7.0897
N7710 X1.0051 Y-7.0786
N7720 X1.0092 Y-7.0671
N7730 X1.0194 Y-7.0735
N7740 X1.029 Y-7.0814
N7750 X1.042 Y-7.0773
N7760 X1.0423 Y-7.0681
N7770 X1.0407 Y-7.056
N7780 X1.0395 Y-7.0442
N7790 X1.043 Y-7.0312
N7800 X1.0388 Y-7.02
N7810 X1.0369 Y-7.007
N7820 X1.0334 Y-6.9956
N7830 X1.0433 Y-6.9889
N7840 X1.0525 Y-6.9822
N7850 X1.0639 Y-6.9777
N7860 X1.0684 Y-6.9666
N7870 X1.0757 Y-6.9583
N7880 X1.083 Y-6.9494
N7890 X1.0913 Y-6.9415
N7900 X1.1008 Y-6.9348
N7910 X1.1062 Y-6.924
N7920 X1.1081 Y-6.911
N7930 X1.1129 Y-6.9017
N7940 X1.1196 Y-6.8906
N7950 X1.1263 Y-6.8811
N7960 X1.1266 Y-6.8693
N7970 X1.1257 Y-6.8577
N7980 Y-6.8466
N7990 X1.1248 Y-6.8353
N8000 Y-6.824
N8010 X1.1243 Y-6.8124
N8020 X1.1291 Y-6.8
N8030 X1.1415 Y-6.8015
N8040 X1.1528 Y-6.8
N8050 X1.1648
N8060 X1.177 Y-6.8015
N8070 X1.176 Y-6.8137
N8080 Y-6.8262
N8090 X1.177 Y-6.8383
N8100 X1.1788 Y-6.8508
N8110 X1.1794 Y-6.8626
N8120 Y-6.8734
N8130 X1.1788 Y-6.8842
N8140 G80
N8150 G0 Z0.4506
N8170 M5 M9

(DRILL1 2)
N8180 S10000 M3 M9
N8190 G0 X4.6465 Y-7.1592
N8200 G0 Z0.4506
N8220 G0 Z0.0506
N8230 G98 G81 X4.6465 Y-7.1592 Z-0.0112 R0.05 F4.
N8240 X4.9572 Y-6.8991
N8250 Y-6.9099
N8260 Y-6.9217
N8270 X4.9578 Y-6.9334
N8280 Y-6.9455
N8290 X4.9569 Y-6.957
N8300 X4.9584 Y-6.9697
N8310 X4.9578 Y-6.9815
N8320 X4.9584 Y-6.9932
N8330 X4.9591 Y-7.0047
N8340 Y-7.0149
N8350 X4.9537 Y-7.0266
N8360 X4.9543 Y-7.0374
N8370 X4.9486 Y-7.0492
N8380 X4.9387 Y-7.0578
N8390 X4.933 Y-7.0661
N8400 X4.9317 Y-7.0769
N8410 X4.9368 Y-7.0874
N8420 X4.9441 Y-7.0969
N8430 X4.9451 Y-7.1077
N8440 X4.9521 Y-7.1179
N8450 X4.9537 Y-7.1294
N8460 X4.9594 Y-7.1408
N8470 X4.967 Y-7.15
N8480 X4.974 Y-7.1596
N8490 X4.9756 Y-7.1713
N8500 X4.9696 Y-7.1809
N8510 X4.9597 Y-7.1844
N8520 X4.961 Y-7.1965
N8530 X4.9629 Y-7.2095
N8540 X4.9658 Y-7.2213
N8550 X4.9654 Y-7.233
N8560 X4.9667 Y-7.2432
N8570 X4.9677 Y-7.2556
N8580 Y-7.2663
N8590 X4.9666 Y-7.2792
N8600 X4.9677 Y-7.2907
N8610 X4.9682 Y-7.3027
N8620 X4.9693 Y-7.3149
N8630 X4.9689 Y-7.3274
N8640 X4.9701 Y-7.3395
N8650 X4.9708 Y-7.351
N8660 X4.972 Y-7.3621
N8670 X4.9581 Y-7.3609
N8680 X4.947 Y-7.3605
N8690 X4.9348 Y-7.3614
N8700 X4.9236 Y-7.3618
N8710 X4.9117 Y-7.3632
N8720 X4.9015
N8730 X4.8886 Y-7.363
N8740 X4.8772 Y-7.3629
N8750 X4.8649 Y-7.3627
N8760 X4.8529 Y-7.3626
N8770 X4.8406 Y-7.3629
N8780 X4.8301 Y-7.3632
N8790 X4.8183 Y-7.3635
N8800 X4.8055 Y-7.3633
N8810 X4.7941 Y-7.3632
N8820 X4.7841 Y-7.363
N8830 X4.7718 Y-7.3627
N8840 X4.759 Y-7.3629
N8850 X4.7484 Y-7.3618
N8860 X4.7356 Y-7.3633
N8870 X4.7245 Y-7.3638
N8880 X4.7133
N8890 X4.701 Y-7.363
N8900 X4.6891 Y-7.3626
N8910 X4.6792 Y-7.3609
N8920 X4.6667
N8930 X4.6556 Y-7.3612
N8940 X4.6438 Y-7.3615
N8950 X4.6321 Y-7.3611
N8960 X4.6199 Y-7.3605
N8970 X4.6202 Y-7.3488
N8980 Y-7.3369
N8990 X4.6219 Y-7.3251
N9000 X4.6208 Y-7.3128
N9010 X4.6213 Y-7.2997
N9020 X4.622 Y-7.2885
N9030 X4.6229 Y-7.2768
N9040 X4.6246 Y-7.2648
N9050 X4.6241 Y-7.2531
N9060 X4.6244 Y-7.2432
N9070 Y-7.2301
N9080 X4.6241 Y-7.2198
N9090 X4.6243 Y-7.2064
N9100 X4.6244 Y-7.1956
N9110 X4.6242 Y-7.1828
N9120 X4.6239 Y-7.1704
N9130 X4.628 Y-7.1596
N9140 X4.635 Y-7.1484
N9150 X4.6423 Y-7.1395
N9160 X4.6509 Y-7.1475
N9170 X4.6585 Y-7.1564
N9180 X4.6703 Y-7.1592
N9190 X4.6811 Y-7.1577
N9200 X4.6929 Y-7.1548
N9210 X4.7002 Y-7.1659
N9220 X4.7117 Y-7.1624
N9230 X4.7228 Y-7.1631
N9240 X4.7352 Y-7.1662
N9250 X4.7393 Y-7.1558
N9260 X4.7406 Y-7.144
N9270 X4.7498 Y-7.1376
N9280 X4.7606 Y-7.1319
N9290 X4.7622 Y-7.1211
N9300 X4.7683 Y-7.1119
N9310 X4.7746 Y-7.1007
N9320 X4.7788 Y-7.0893
N9330 X4.7835 Y-7.0782
N9340 X4.7877 Y-7.0667
N9350 X4.7978 Y-7.0731
N9360 X4.8074 Y-7.081
N9370 X4.8204 Y-7.0769
N9380 X4.8207 Y-7.0677
N9390 X4.8191 Y-7.0556
N9400 X4.8179 Y-7.0438
N9410 X4.8214 Y-7.0308
N9420 X4.8172 Y-7.0196
N9430 X4.8153 Y-7.0066
N9440 X4.8118 Y-6.9951
N9450 X4.8217 Y-6.9885
N9460 X4.8309 Y-6.9818
N9470 X4.8424 Y-6.9773
N9480 X4.8468 Y-6.9662
N9490 X4.8541 Y-6.9579
N9500 X4.8614 Y-6.949
N9510 X4.8697 Y-6.9411
N9520 X4.8793 Y-6.9344
N9530 X4.8847 Y-6.9236
N9540 X4.8866 Y-6.9105
N9550 X4.8913 Y-6.9013
N9560 X4.898 Y-6.8902
N9570 X4.9047 Y-6.8807
N9580 X4.905 Y-6.8689
N9590 X4.9042 Y-6.8572
N9600 Y-6.8462
N9610 X4.9032 Y-6.8349
N9620 Y-6.8236
N9630 X4.9028 Y-6.812
N9640 X4.9075 Y-6.7996
N9650 X4.9199 Y-6.8011
N9660 X4.9313 Y-6.7996
N9670 X4.9432
N9680 X4.9554 Y-6.8011
N9690 X4.9545 Y-6.8133
N9700 Y-6.8258
N9710 X4.9554 Y-6.8379
N9720 X4.9573 Y-6.8503
N9730 X4.9578 Y-6.8622
N9740 Y-6.873
N9750 X4.9572 Y-6.8838
N9760 G80
N9770 G0 Z0.4506
N9790 M5 M9

(DRILL1 2)
N9800 S10000 M3 M9
N9810 G0 X4.6473 Y-9.6595
N9820 G0 Z0.4506
N9840 G0 Z0.0506
N9850 G98 G81 X4.6473 Y-9.6595 Z-0.0112 R0.05 F4.
N9860 X4.958 Y-9.3993
N9870 Y-9.4102
N9880 Y-9.4219
N9890 X4.9586 Y-9.4337
N9900 Y-9.4458
N9910 X4.9577 Y-9.4572
N9920 X4.9592 Y-9.4699
N9930 X4.9586 Y-9.4817
N9940 X4.9592 Y-9.4935
N9950 X4.9599 Y-9.5049
N9960 Y-9.5151
N9970 X4.9545 Y-9.5269
N9980 X4.9551 Y-9.5377
N9990 X4.9494 Y-9.5495
N10000 X4.9395 Y-9.558
N10010 X4.9338 Y-9.5663
N10020 X4.9325 Y-9.5771
N10030 X4.9376 Y-9.5876
N10040 X4.9449 Y-9.5972
N10050 X4.9459 Y-9.608
N10060 X4.9529 Y-9.6181
N10070 X4.9545 Y-9.6296
N10080 X4.9602 Y-9.641
N10090 X4.9678 Y-9.6503
N10100 X4.9748 Y-9.6598
N10110 X4.9764 Y-9.6716
N10120 X4.9704 Y-9.6811
N10130 X4.9605 Y-9.6846
N10140 X4.9618 Y-9.6967
N10150 X4.9637 Y-9.7097
N10160 X4.9666 Y-9.7215
N10170 X4.9662 Y-9.7333
N10180 X4.9675 Y-9.7435
N10190 X4.9685 Y-9.7559
N10200 Y-9.7665
N10210 X4.9674 Y-9.7794
N10220 X4.9685 Y-9.791
N10230 X4.969 Y-9.8029
N10240 X4.9701 Y-9.8152
N10250 X4.9697 Y-9.8277
N10260 X4.9709 Y-9.8397
N10270 X4.9716 Y-9.8512
N10280 X4.9729 Y-9.8624
N10290 X4.9589 Y-9.8612
N10300 X4.9478 Y-9.8607
N10310 X4.9356 Y-9.8616
N10320 X4.9244 Y-9.8621
N10330 X4.9125 Y-9.8634
N10340 X4.9023
N10350 X4.8894 Y-9.8633
N10360 X4.878 Y-9.8631
N10370 X4.8657 Y-9.863
N10380 X4.8537 Y-9.8628
N10390 X4.8414 Y-9.8631
N10400 X4.8309 Y-9.8634
N10410 X4.8191 Y-9.8637
N10420 X4.8063 Y-9.8636
N10430 X4.7949 Y-9.8634
N10440 X4.7849 Y-9.8633
N10450 X4.7726 Y-9.863
N10460 X4.7598 Y-9.8631
N10470 X4.7492 Y-9.8621
N10480 X4.7364 Y-9.8636
N10490 X4.7253 Y-9.864
N10500 X4.7141
N10510 X4.7018 Y-9.8633
N10520 X4.6899 Y-9.8628
N10530 X4.68 Y-9.8612
N10540 X4.6675
N10550 X4.6564 Y-9.8615
N10560 X4.6446 Y-9.8618
N10570 X4.6329 Y-9.8613
N10580 X4.6207 Y-9.8607
N10590 X4.621 Y-9.849
N10600 Y-9.8372
N10610 X4.6227 Y-9.8253
N10620 X4.6216 Y-9.813
N10630 X4.6221 Y-9.8
N10640 X4.6228 Y-9.7887
N10650 X4.6237 Y-9.777
N10660 X4.6254 Y-9.765
N10670 X4.6249 Y-9.7533
N10680 X4.6252 Y-9.7434
N10690 Y-9.7304
N10700 X4.6249 Y-9.72
N10710 X4.6251 Y-9.7066
N10720 X4.6252 Y-9.6958
N10730 X4.625 Y-9.683
N10740 X4.6247 Y-9.6706
N10750 X4.6288 Y-9.6598
N10760 X4.6358 Y-9.6487
N10770 X4.6431 Y-9.6398
N10780 X4.6517 Y-9.6477
N10790 X4.6593 Y-9.6566
N10800 X4.6711 Y-9.6595
N10810 X4.6819 Y-9.6579
N10820 X4.6937 Y-9.655
N10830 X4.701 Y-9.6662
N10840 X4.7125 Y-9.6627
N10850 X4.7236 Y-9.6633
N10860 X4.736 Y-9.6665
N10870 X4.7401 Y-9.656
N10880 X4.7414 Y-9.6442
N10890 X4.7506 Y-9.6379
N10900 X4.7614 Y-9.6321
N10910 X4.763 Y-9.6213
N10920 X4.7691 Y-9.6121
N10930 X4.7754 Y-9.601
N10940 X4.7796 Y-9.5895
N10950 X4.7843 Y-9.5784
N10960 X4.7885 Y-9.5669
N10970 X4.7986 Y-9.5733
N10980 X4.8082 Y-9.5813
N10990 X4.8212 Y-9.5771
N11000 X4.8215 Y-9.5679
N11010 X4.82 Y-9.5558
N11020 X4.8187 Y-9.544
N11030 X4.8222 Y-9.531
N11040 X4.818 Y-9.5199
N11050 X4.8161 Y-9.5068
N11060 X4.8126 Y-9.4954
N11070 X4.8225 Y-9.4887
N11080 X4.8317 Y-9.482
N11090 X4.8432 Y-9.4776
N11100 X4.8476 Y-9.4664
N11110 X4.8549 Y-9.4582
N11120 X4.8622 Y-9.4493
N11130 X4.8705 Y-9.4413
N11140 X4.8801 Y-9.4346
N11150 X4.8855 Y-9.4238
N11160 X4.8874 Y-9.4108
N11170 X4.8921 Y-9.4016
N11180 X4.8988 Y-9.3904
N11190 X4.9055 Y-9.3809
N11200 X4.9058 Y-9.3691
N11210 X4.905 Y-9.3575
N11220 Y-9.3464
N11230 X4.904 Y-9.3351
N11240 Y-9.3239
N11250 X4.9036 Y-9.3122
N11260 X4.9083 Y-9.2998
N11270 X4.9207 Y-9.3014
N11280 X4.9321 Y-9.2998
N11290 X4.944
N11300 X4.9562 Y-9.3014
N11310 X4.9553 Y-9.3136
N11320 Y-9.326
N11330 X4.9562 Y-9.3381
N11340 X4.9581 Y-9.3506
N11350 X4.9586 Y-9.3624
N11360 Y-9.3733
N11370 X4.958 Y-9.3841
N11380 G80
N11390 G0 Z0.4506
N11410 M5 M9

(DRILL1 2)
N11420 S10000 M3 M9
N11430 G0 X0.8686 Y-9.6591
N11440 G0 Z0.4506
N11460 G0 Z0.0506
N11470 G98 G81 X0.8686 Y-9.6591 Z-0.0112 R0.05 F4.
N11480 X1.1793 Y-9.399
N11490 Y-9.4098
N11500 Y-9.4216
N11510 X1.1799 Y-9.4333
N11520 Y-9.4454
N11530 X1.179 Y-9.4569
N11540 X1.1806 Y-9.4696
N11550 X1.1799 Y-9.4814
N11560 X1.1806 Y-9.4931
N11570 X1.1812 Y-9.5046
N11580 Y-9.5148
N11590 X1.1758 Y-9.5265
N11600 X1.1764 Y-9.5373
N11610 X1.1707 Y-9.5491
N11620 X1.1608 Y-9.5577
N11630 X1.1551 Y-9.566
N11640 X1.1538 Y-9.5768
N11650 X1.1589 Y-9.5873
N11660 X1.1662 Y-9.5968
N11670 X1.1672 Y-9.6076
N11680 X1.1742 Y-9.6178
N11690 X1.1758 Y-9.6292
N11700 X1.1815 Y-9.6407
N11710 X1.1891 Y-9.6499
N11720 X1.1961 Y-9.6595
N11730 X1.1977 Y-9.6712
N11740 X1.1917 Y-9.6808
N11750 X1.1818 Y-9.6843
N11760 X1.1831 Y-9.6963
N11770 X1.185 Y-9.7094
N11780 X1.1879 Y-9.7212
N11790 X1.1875 Y-9.7329
N11800 X1.1888 Y-9.7431
N11810 X1.1898 Y-9.7555
N11820 Y-9.7662
N11830 X1.1888 Y-9.7791
N11840 X1.1898 Y-9.7906
N11850 X1.1903 Y-9.8026
N11860 X1.1914 Y-9.8148
N11870 X1.191 Y-9.8273
N11880 X1.1922 Y-9.8394
N11890 X1.1929 Y-9.8509
N11900 X1.1942 Y-9.862
N11910 X1.1802 Y-9.8608
N11920 X1.1691 Y-9.8604
N11930 X1.1569 Y-9.8613
N11940 X1.1457 Y-9.8617
N11950 X1.1338 Y-9.8631
N11960 X1.1236
N11970 X1.1107 Y-9.8629
N11980 X1.0993 Y-9.8628
N11990 X1.087 Y-9.8626
N12000 X1.075 Y-9.8625
N12010 X1.0627 Y-9.8628
N12020 X1.0522 Y-9.8631
N12030 X1.0404 Y-9.8634
N12040 X1.0276 Y-9.8632
N12050 X1.0162 Y-9.8631
N12060 X1.0062 Y-9.8629
N12070 X0.9939 Y-9.8626
N12080 X0.9811 Y-9.8628
N12090 X0.9705 Y-9.8617
N12100 X0.9577 Y-9.8632
N12110 X0.9466 Y-9.8637
N12120 X0.9354
N12130 X0.9231 Y-9.8629
N12140 X0.9112 Y-9.8625
N12150 X0.9013 Y-9.8608
N12160 X0.8889
N12170 X0.8777 Y-9.8611
N12180 X0.8659 Y-9.8614
N12190 X0.8542 Y-9.861
N12200 X0.842 Y-9.8604
N12210 X0.8423 Y-9.8487
N12220 Y-9.8368
N12230 X0.844 Y-9.825
N12240 X0.8429 Y-9.8127
N12250 X0.8434 Y-9.7996
N12260 X0.8441 Y-9.7884
N12270 X0.845 Y-9.7767
N12280 X0.8467 Y-9.7647
N12290 X0.8462 Y-9.753
N12300 X0.8465 Y-9.7431
N12310 Y-9.73
N12320 X0.8462 Y-9.7197
N12330 X0.8464 Y-9.7063
N12340 X0.8465 Y-9.6955
N12350 X0.8463 Y-9.6827
N12360 X0.846 Y-9.6703
N12370 X0.8501 Y-9.6595
N12380 X0.8571 Y-9.6483
N12390 X0.8644 Y-9.6394
N12400 X0.873 Y-9.6474
N12410 X0.8806 Y-9.6563
N12420 X0.8924 Y-9.6591
N12430 X0.9032 Y-9.6575
N12440 X0.915 Y-9.6547
N12450 X0.9223 Y-9.6658
N12460 X0.9338 Y-9.6623
N12470 X0.9449 Y-9.663
N12480 X0.9573 Y-9.6661
N12490 X0.9614 Y-9.6556
N12500 X0.9627 Y-9.6439
N12510 X0.9719 Y-9.6375
N12520 X0.9827 Y-9.6318
N12530 X0.9843 Y-9.621
N12540 X0.9904 Y-9.6118
N12550 X0.9967 Y-9.6006
N12560 X1.0009 Y-9.5892
N12570 X1.0056 Y-9.578
N12580 X1.0098 Y-9.5666
N12590 X1.0199 Y-9.573
N12600 X1.0295 Y-9.5809
N12610 X1.0425 Y-9.5768
N12620 X1.0428 Y-9.5675
N12630 X1.0413 Y-9.5555
N12640 X1.04 Y-9.5437
N12650 X1.0435 Y-9.5307
N12660 X1.0393 Y-9.5195
N12670 X1.0374 Y-9.5065
N12680 X1.0339 Y-9.495
N12690 X1.0438 Y-9.4884
N12700 X1.053 Y-9.4817
N12710 X1.0645 Y-9.4772
N12720 X1.0689 Y-9.4661
N12730 X1.0762 Y-9.4578
N12740 X1.0836 Y-9.4489
N12750 X1.0918 Y-9.441
N12760 X1.1014 Y-9.4343
N12770 X1.1068 Y-9.4235
N12780 X1.1087 Y-9.4104
N12790 X1.1134 Y-9.4012
N12800 X1.1201 Y-9.3901
N12810 X1.1268 Y-9.3805
N12820 X1.1271 Y-9.3688
N12830 X1.1263 Y-9.3571
N12840 Y-9.3461
N12850 X1.1253 Y-9.3348
N12860 Y-9.3235
N12870 X1.1249 Y-9.3119
N12880 X1.1296 Y-9.2995
N12890 X1.142 Y-9.301
N12900 X1.1534 Y-9.2995
N12910 X1.1653
N12920 X1.1775 Y-9.301
N12930 X1.1766 Y-9.3132
N12940 Y-9.3257
N12950 X1.1775 Y-9.3378
N12960 X1.1794 Y-9.3502
N12970 X1.1799 Y-9.3621
N12980 Y-9.3729
N12990 X1.1793 Y-9.3837
N13000 G80
N13010 G0 Z0.4506
N13030 M5 M9

N13040 G30
N13050 M30
%
