%
(*************************************)
(* Generated by wtopace for EntityX  *)
(* Date: 2/13/2016                   *)
(*************************************)
(1001)
(PROJECT 2)
(T1  D=0.0039 CR=0. TAPER=118DEG - ZMIN=-0.0112 - DRILL)
N10 G90 G54 G64 G50 G17 G40 G80 G94 G91.1 G49
N20 G20 (Inch)
N30 G30

(DRILL1)
N50 G30
N60 T1 G43 H1 M6
N70 S10000 M3 M9
N80 G54
N90 G0 X3.8532 Y-2.1591
N100 G0 Z0.4506
N120 G0 Z0.0506
N130 G98 G81 X3.8532 Y-2.1591 Z-0.0112 R0.05 F4.
N140 X3.5425 Y-1.8989
N150 Y-1.9097
N160 Y-1.9215
N170 X3.5419 Y-1.9333
N180 Y-1.9453
N190 X3.5428 Y-1.9568
N200 X3.5412 Y-1.9695
N210 X3.5419 Y-1.9813
N220 X3.5412 Y-1.993
N230 X3.5406 Y-2.0045
N240 Y-2.0147
N250 X3.546 Y-2.0264
N260 X3.5454 Y-2.0373
N270 X3.5511 Y-2.049
N280 X3.561 Y-2.0576
N290 X3.5667 Y-2.0659
N300 X3.568 Y-2.0767
N310 X3.5629 Y-2.0872
N320 X3.5555 Y-2.0967
N330 X3.5546 Y-2.1075
N340 X3.5476 Y-2.1177
N350 X3.546 Y-2.1292
N360 X3.5403 Y-2.1406
N370 X3.5326 Y-2.1498
N380 X3.5257 Y-2.1594
N390 X3.5241 Y-2.1711
N400 X3.5301 Y-2.1807
N410 X3.54 Y-2.1842
N420 X3.5387 Y-2.1963
N430 X3.5368 Y-2.2093
N440 X3.5339 Y-2.2211
N450 X3.5342 Y-2.2328
N460 X3.533 Y-2.243
N470 X3.532 Y-2.2554
N480 Y-2.2661
N490 X3.533 Y-2.279
N500 X3.532 Y-2.2905
N510 X3.5315 Y-2.3025
N520 X3.5304 Y-2.3147
N530 X3.5307 Y-2.3272
N540 X3.5296 Y-2.3393
N550 X3.5289 Y-2.3508
N560 X3.5276 Y-2.3619
N570 X3.5416 Y-2.3607
N580 X3.5527 Y-2.3603
N590 X3.5648 Y-2.3612
N600 X3.5761 Y-2.3616
N610 X3.5879 Y-2.363
N620 X3.5981
N630 X3.6111 Y-2.3628
N640 X3.6225 Y-2.3627
N650 X3.6348 Y-2.3625
N660 X3.6468 Y-2.3624
N670 X3.6591 Y-2.3627
N680 X3.6696 Y-2.363
N690 X3.6814 Y-2.3633
N700 X3.6942 Y-2.3631
N710 X3.7056 Y-2.363
N720 X3.7156 Y-2.3628
N730 X3.7279 Y-2.3625
N740 X3.7407 Y-2.3627
N750 X3.7513 Y-2.3616
N760 X3.7641 Y-2.3631
N770 X3.7752 Y-2.3636
N780 X3.7864
N790 X3.7987 Y-2.3628
N800 X3.8106 Y-2.3624
N810 X3.8205 Y-2.3607
N820 X3.8329
N830 X3.844 Y-2.361
N840 X3.8559 Y-2.3613
N850 X3.8676 Y-2.3609
N860 X3.8797 Y-2.3603
N870 X3.8794 Y-2.3486
N880 Y-2.3367
N890 X3.8778 Y-2.3249
N900 X3.8788 Y-2.3126
N910 X3.8784 Y-2.2995
N920 X3.8776 Y-2.2883
N930 X3.8767 Y-2.2766
N940 X3.8751 Y-2.2646
N950 X3.8755 Y-2.2529
N960 X3.8752 Y-2.243
N970 Y-2.2299
N980 X3.8755 Y-2.2196
N990 X3.8754 Y-2.2062
N1000 X3.8753 Y-2.1954
N1010 X3.8755 Y-2.1826
N1020 X3.8758 Y-2.1702
N1030 X3.8717 Y-2.1594
N1040 X3.8647 Y-2.1482
N1050 X3.8574 Y-2.1393
N1060 X3.8488 Y-2.1473
N1070 X3.8411 Y-2.1562
N1080 X3.8294 Y-2.1591
N1090 X3.8186 Y-2.1575
N1100 X3.8068 Y-2.1546
N1110 X3.7995 Y-2.1657
N1120 X3.788 Y-2.1622
N1130 X3.7769 Y-2.1629
N1140 X3.7645 Y-2.1661
N1150 X3.7604 Y-2.1556
N1160 X3.7591 Y-2.1438
N1170 X3.7499 Y-2.1374
N1180 X3.7391 Y-2.1317
N1190 X3.7375 Y-2.1209
N1200 X3.7314 Y-2.1117
N1210 X3.7251 Y-2.1005
N1220 X3.7209 Y-2.0891
N1230 X3.7162 Y-2.078
N1240 X3.712 Y-2.0665
N1250 X3.7018 Y-2.0729
N1260 X3.6923 Y-2.0808
N1270 X3.6793 Y-2.0767
N1280 X3.6789 Y-2.0675
N1290 X3.6805 Y-2.0554
N1300 X3.6818 Y-2.0436
N1310 X3.6783 Y-2.0306
N1320 X3.6824 Y-2.0194
N1330 X3.6844 Y-2.0064
N1340 X3.6878 Y-1.995
N1350 X3.678 Y-1.9883
N1360 X3.6688 Y-1.9816
N1370 X3.6573 Y-1.9771
N1380 X3.6529 Y-1.966
N1390 X3.6456 Y-1.9577
N1400 X3.6382 Y-1.9488
N1410 X3.63 Y-1.9409
N1420 X3.6204 Y-1.9342
N1430 X3.615 Y-1.9234
N1440 X3.6131 Y-1.9104
N1450 X3.6083 Y-1.9011
N1460 X3.6017 Y-1.89
N1470 X3.595 Y-1.8805
N1480 X3.5947 Y-1.8687
N1490 X3.5955 Y-1.8571
N1500 Y-1.846
N1510 X3.5964 Y-1.8347
N1520 Y-1.8234
N1530 X3.5969 Y-1.8118
N1540 X3.5922 Y-1.7994
N1550 X3.5798 Y-1.8009
N1560 X3.5684 Y-1.7994
N1570 X3.5565
N1580 X3.5443 Y-1.8009
N1590 X3.5452 Y-1.8131
N1600 Y-1.8256
N1610 X3.5443 Y-1.8377
N1620 X3.5424 Y-1.8502
N1630 X3.5419 Y-1.862
N1640 Y-1.8728
N1650 X3.5425 Y-1.8836
N1660 G80
N1670 G0 Z0.4506
N1690 M5 M9

(DRILL1)
N1700 S10000 M3 M9
N1710 G0 X7.6314 Y-2.1587
N1720 G0 Z0.4506
N1740 G0 Z0.0506
N1750 G98 G81 X7.6314 Y-2.1587 Z-0.0112 R0.05 F4.
N1760 X7.3207 Y-1.8985
N1770 Y-1.9094
N1780 Y-1.9211
N1790 X7.3201 Y-1.9329
N1800 Y-1.945
N1810 X7.321 Y-1.9564
N1820 X7.3194 Y-1.9691
N1830 X7.3201 Y-1.9809
N1840 X7.3194 Y-1.9927
N1850 X7.3188 Y-2.0041
N1860 Y-2.0143
N1870 X7.3242 Y-2.0261
N1880 X7.3236 Y-2.0369
N1890 X7.3293 Y-2.0487
N1900 X7.3391 Y-2.0572
N1910 X7.3449 Y-2.0655
N1920 X7.3461 Y-2.0763
N1930 X7.341 Y-2.0868
N1940 X7.3337 Y-2.0964
N1950 X7.3328 Y-2.1072
N1960 X7.3258 Y-2.1173
N1970 X7.3242 Y-2.1288
N1980 X7.3185 Y-2.1402
N1990 X7.3108 Y-2.1495
N2000 X7.3038 Y-2.159
N2010 X7.3022 Y-2.1708
N2020 X7.3083 Y-2.1803
N2030 X7.3182 Y-2.1838
N2040 X7.3169 Y-2.1959
N2050 X7.315 Y-2.2089
N2060 X7.3121 Y-2.2207
N2070 X7.3124 Y-2.2325
N2080 X7.3112 Y-2.2427
N2090 X7.3102 Y-2.2551
N2100 Y-2.2657
N2110 X7.3112 Y-2.2786
N2120 X7.3102 Y-2.2902
N2130 X7.3097 Y-2.3021
N2140 X7.3086 Y-2.3144
N2150 X7.3089 Y-2.3269
N2160 X7.3078 Y-2.3389
N2170 X7.3071 Y-2.3504
N2180 X7.3058 Y-2.3616
N2190 X7.3198 Y-2.3604
N2200 X7.3309 Y-2.3599
N2210 X7.343 Y-2.3608
N2220 X7.3543 Y-2.3613
N2230 X7.3661 Y-2.3626
N2240 X7.3763
N2250 X7.3892 Y-2.3625
N2260 X7.4006 Y-2.3623
N2270 X7.4129 Y-2.3622
N2280 X7.4249 Y-2.362
N2290 X7.4372 Y-2.3623
N2300 X7.4477 Y-2.3626
N2310 X7.4596 Y-2.3629
N2320 X7.4724 Y-2.3628
N2330 X7.4838 Y-2.3626
N2340 X7.4938 Y-2.3625
N2350 X7.5061 Y-2.3622
N2360 X7.5189 Y-2.3623
N2370 X7.5295 Y-2.3613
N2380 X7.5423 Y-2.3628
N2390 X7.5534 Y-2.3632
N2400 X7.5646
N2410 X7.5769 Y-2.3625
N2420 X7.5888 Y-2.362
N2430 X7.5987 Y-2.3604
N2440 X7.6111
N2450 X7.6222 Y-2.3607
N2460 X7.6341 Y-2.361
N2470 X7.6458 Y-2.3605
N2480 X7.6579 Y-2.3599
N2490 X7.6576 Y-2.3482
N2500 Y-2.3364
N2510 X7.656 Y-2.3245
N2520 X7.657 Y-2.3122
N2530 X7.6566 Y-2.2992
N2540 X7.6558 Y-2.2879
N2550 X7.6549 Y-2.2762
N2560 X7.6533 Y-2.2642
N2570 X7.6537 Y-2.2525
N2580 X7.6534 Y-2.2426
N2590 Y-2.2296
N2600 X7.6537 Y-2.2192
N2610 X7.6536 Y-2.2059
N2620 X7.6535 Y-2.195
N2630 X7.6537 Y-2.1822
N2640 X7.654 Y-2.1698
N2650 X7.6499 Y-2.159
N2660 X7.6429 Y-2.1479
N2670 X7.6355 Y-2.139
N2680 X7.627 Y-2.1469
N2690 X7.6193 Y-2.1558
N2700 X7.6076 Y-2.1587
N2710 X7.5967 Y-2.1571
N2720 X7.585 Y-2.1542
N2730 X7.5777 Y-2.1654
N2740 X7.5662 Y-2.1619
N2750 X7.5551 Y-2.1625
N2760 X7.5427 Y-2.1657
N2770 X7.5385 Y-2.1552
N2780 X7.5373 Y-2.1434
N2790 X7.5281 Y-2.1371
N2800 X7.5172 Y-2.1313
N2810 X7.5156 Y-2.1205
N2820 X7.5096 Y-2.1113
N2830 X7.5032 Y-2.1002
N2840 X7.4991 Y-2.0887
N2850 X7.4943 Y-2.0776
N2860 X7.4902 Y-2.0661
N2870 X7.48 Y-2.0725
N2880 X7.4705 Y-2.0805
N2890 X7.4574 Y-2.0763
N2900 X7.4571 Y-2.0671
N2910 X7.4587 Y-2.055
N2920 X7.46 Y-2.0432
N2930 X7.4565 Y-2.0302
N2940 X7.4606 Y-2.0191
N2950 X7.4625 Y-2.006
N2960 X7.466 Y-1.9946
N2970 X7.4562 Y-1.9879
N2980 X7.447 Y-1.9812
N2990 X7.4355 Y-1.9768
N3000 X7.4311 Y-1.9656
N3010 X7.4237 Y-1.9574
N3020 X7.4164 Y-1.9485
N3030 X7.4082 Y-1.9405
N3040 X7.3986 Y-1.9338
N3050 X7.3932 Y-1.923
N3060 X7.3913 Y-1.91
N3070 X7.3865 Y-1.9008
N3080 X7.3798 Y-1.8896
N3090 X7.3732 Y-1.8801
N3100 X7.3729 Y-1.8683
N3110 X7.3737 Y-1.8567
N3120 Y-1.8456
N3130 X7.3746 Y-1.8343
N3140 Y-1.8231
N3150 X7.3751 Y-1.8114
N3160 X7.3704 Y-1.799
N3170 X7.358 Y-1.8006
N3180 X7.3466 Y-1.799
N3190 X7.3347
N3200 X7.3225 Y-1.8006
N3210 X7.3234 Y-1.8128
N3220 Y-1.8252
N3230 X7.3225 Y-1.8373
N3240 X7.3206 Y-1.8498
N3250 X7.3201 Y-1.8617
N3260 Y-1.8725
N3270 X7.3207 Y-1.8833
N3280 G80
N3290 G0 Z0.4506
N3310 M5 M9

(DRILL1)
N3320 S10000 M3 M9
N3330 G0 X3.8519 Y-4.659
N3340 G0 Z0.4506
N3360 G0 Z0.0506
N3370 G98 G81 X3.8519 Y-4.659 Z-0.0112 R0.05 F4.
N3380 X3.5411 Y-4.3989
N3390 Y-4.4097
N3400 Y-4.4214
N3410 X3.5405 Y-4.4332
N3420 Y-4.4453
N3430 X3.5415 Y-4.4567
N3440 X3.5399 Y-4.4695
N3450 X3.5405 Y-4.4812
N3460 X3.5399 Y-4.493
N3470 X3.5392 Y-4.5045
N3480 Y-4.5146
N3490 X3.5446 Y-4.5264
N3500 X3.544 Y-4.5372
N3510 X3.5497 Y-4.549
N3520 X3.5596 Y-4.5576
N3530 X3.5653 Y-4.5658
N3540 X3.5666 Y-4.5766
N3550 X3.5615 Y-4.5871
N3560 X3.5542 Y-4.5967
N3570 X3.5532 Y-4.6075
N3580 X3.5462 Y-4.6177
N3590 X3.5446 Y-4.6291
N3600 X3.5389 Y-4.6406
N3610 X3.5313 Y-4.6498
N3620 X3.5243 Y-4.6593
N3630 X3.5227 Y-4.6711
N3640 X3.5287 Y-4.6806
N3650 X3.5386 Y-4.6841
N3660 X3.5373 Y-4.6962
N3670 X3.5354 Y-4.7093
N3680 X3.5325 Y-4.721
N3690 X3.5329 Y-4.7328
N3700 X3.5316 Y-4.743
N3710 X3.5306 Y-4.7554
N3720 Y-4.766
N3730 X3.5317 Y-4.7789
N3740 X3.5306 Y-4.7905
N3750 X3.5301 Y-4.8024
N3760 X3.529 Y-4.8147
N3770 X3.5294 Y-4.8272
N3780 X3.5282 Y-4.8393
N3790 X3.5275 Y-4.8507
N3800 X3.5263 Y-4.8619
N3810 X3.5402 Y-4.8607
N3820 X3.5513 Y-4.8603
N3830 X3.5635 Y-4.8612
N3840 X3.5747 Y-4.8616
N3850 X3.5866 Y-4.863
N3860 X3.5968
N3870 X3.6097 Y-4.8628
N3880 X3.6211 Y-4.8627
N3890 X3.6334 Y-4.8625
N3900 X3.6454 Y-4.8624
N3910 X3.6577 Y-4.8627
N3920 X3.6682 Y-4.863
N3930 X3.68 Y-4.8633
N3940 X3.6928 Y-4.8631
N3950 X3.7042 Y-4.863
N3960 X3.7142 Y-4.8628
N3970 X3.7265 Y-4.8625
N3980 X3.7393 Y-4.8627
N3990 X3.7499 Y-4.8616
N4000 X3.7627 Y-4.8631
N4010 X3.7738 Y-4.8636
N4020 X3.7851
N4030 X3.7974 Y-4.8628
N4040 X3.8092 Y-4.8624
N4050 X3.8191 Y-4.8607
N4060 X3.8316
N4070 X3.8427 Y-4.861
N4080 X3.8545 Y-4.8613
N4090 X3.8662 Y-4.8609
N4100 X3.8784 Y-4.8603
N4110 X3.8781 Y-4.8485
N4120 Y-4.8367
N4130 X3.8764 Y-4.8248
N4140 X3.8775 Y-4.8125
N4150 X3.877 Y-4.7995
N4160 X3.8763 Y-4.7882
N4170 X3.8754 Y-4.7765
N4180 X3.8737 Y-4.7645
N4190 X3.8742 Y-4.7528
N4200 X3.8739 Y-4.7429
N4210 Y-4.7299
N4220 X3.8742 Y-4.7195
N4230 X3.874 Y-4.7062
N4240 X3.8739 Y-4.6953
N4250 X3.8741 Y-4.6826
N4260 X3.8744 Y-4.6701
N4270 X3.8703 Y-4.6593
N4280 X3.8633 Y-4.6482
N4290 X3.856 Y-4.6393
N4300 X3.8474 Y-4.6472
N4310 X3.8398 Y-4.6562
N4320 X3.828 Y-4.659
N4330 X3.8172 Y-4.6574
N4340 X3.8054 Y-4.6546
N4350 X3.7981 Y-4.6657
N4360 X3.7867 Y-4.6622
N4370 X3.7755 Y-4.6628
N4380 X3.7631 Y-4.666
N4390 X3.759 Y-4.6555
N4400 X3.7577 Y-4.6438
N4410 X3.7485 Y-4.6374
N4420 X3.7377 Y-4.6317
N4430 X3.7361 Y-4.6209
N4440 X3.73 Y-4.6116
N4450 X3.7237 Y-4.6005
N4460 X3.7195 Y-4.589
N4470 X3.7148 Y-4.5779
N4480 X3.7106 Y-4.5665
N4490 X3.7005 Y-4.5728
N4500 X3.6909 Y-4.5808
N4510 X3.6779 Y-4.5766
N4520 X3.6776 Y-4.5674
N4530 X3.6792 Y-4.5553
N4540 X3.6804 Y-4.5436
N4550 X3.6769 Y-4.5305
N4560 X3.6811 Y-4.5194
N4570 X3.683 Y-4.5064
N4580 X3.6865 Y-4.4949
N4590 X3.6766 Y-4.4882
N4600 X3.6674 Y-4.4816
N4610 X3.6559 Y-4.4771
N4620 X3.6515 Y-4.466
N4630 X3.6442 Y-4.4577
N4640 X3.6369 Y-4.4488
N4650 X3.6286 Y-4.4408
N4660 X3.6191 Y-4.4342
N4670 X3.6136 Y-4.4234
N4680 X3.6117 Y-4.4103
N4690 X3.607 Y-4.4011
N4700 X3.6003 Y-4.39
N4710 X3.5936 Y-4.3804
N4720 X3.5933 Y-4.3687
N4730 X3.5942 Y-4.357
N4740 Y-4.3459
N4750 X3.5951 Y-4.3347
N4760 Y-4.3234
N4770 X3.5956 Y-4.3118
N4780 X3.5908 Y-4.2994
N4790 X3.5784 Y-4.3009
N4800 X3.567 Y-4.2994
N4810 X3.5551
N4820 X3.5429 Y-4.3009
N4830 X3.5439 Y-4.3131
N4840 Y-4.3255
N4850 X3.5429 Y-4.3377
N4860 X3.5411 Y-4.3501
N4870 X3.5405 Y-4.362
N4880 Y-4.3728
N4890 X3.5411 Y-4.3836
N4900 G80
N4910 G0 Z0.4506
N4930 M5 M9

(DRILL1)
N4940 S10000 M3 M9
N4950 G0 X7.6301 Y-4.6584
N4960 G0 Z0.4506
N4980 G0 Z0.0506
N4990 G98 G81 X7.6301 Y-4.6584 Z-0.0112 R0.05 F4.
N5000 X7.3193 Y-4.3982
N5010 Y-4.4091
N5020 Y-4.4208
N5030 X7.3187 Y-4.4326
N5040 Y-4.4447
N5050 X7.3197 Y-4.4561
N5060 X7.3181 Y-4.4688
N5070 X7.3187 Y-4.4806
N5080 X7.3181 Y-4.4924
N5090 X7.3174 Y-4.5038
N5100 Y-4.514
N5110 X7.3228 Y-4.5258
N5120 X7.3222 Y-4.5366
N5130 X7.3279 Y-4.5484
N5140 X7.3378 Y-4.5569
N5150 X7.3435 Y-4.5652
N5160 X7.3448 Y-4.576
N5170 X7.3397 Y-4.5865
N5180 X7.3324 Y-4.5961
N5190 X7.3314 Y-4.6069
N5200 X7.3244 Y-4.6171
N5210 X7.3228 Y-4.6285
N5220 X7.3171 Y-4.64
N5230 X7.3095 Y-4.6492
N5240 X7.3025 Y-4.6587
N5250 X7.3009 Y-4.6705
N5260 X7.3069 Y-4.68
N5270 X7.3168 Y-4.6835
N5280 X7.3155 Y-4.6956
N5290 X7.3136 Y-4.7086
N5300 X7.3108 Y-4.7204
N5310 X7.3111 Y-4.7322
N5320 X7.3098 Y-4.7424
N5330 X7.3088 Y-4.7548
N5340 Y-4.7654
N5350 X7.3099 Y-4.7783
N5360 X7.3088 Y-4.7899
N5370 X7.3084 Y-4.8018
N5380 X7.3072 Y-4.8141
N5390 X7.3076 Y-4.8266
N5400 X7.3064 Y-4.8387
N5410 X7.3057 Y-4.8501
N5420 X7.3045 Y-4.8613
N5430 X7.3184 Y-4.8601
N5440 X7.3295 Y-4.8596
N5450 X7.3417 Y-4.8605
N5460 X7.3529 Y-4.861
N5470 X7.3648 Y-4.8623
N5480 X7.375
N5490 X7.3879 Y-4.8622
N5500 X7.3993 Y-4.862
N5510 X7.4116 Y-4.8619
N5520 X7.4236 Y-4.8617
N5530 X7.4359 Y-4.862
N5540 X7.4464 Y-4.8623
N5550 X7.4582 Y-4.8626
N5560 X7.471 Y-4.8625
N5570 X7.4824 Y-4.8623
N5580 X7.4924 Y-4.8622
N5590 X7.5048 Y-4.8619
N5600 X7.5175 Y-4.862
N5610 X7.5282 Y-4.861
N5620 X7.5409 Y-4.8625
N5630 X7.552 Y-4.8629
N5640 X7.5633
N5650 X7.5756 Y-4.8622
N5660 X7.5874 Y-4.8617
N5670 X7.5973 Y-4.8601
N5680 X7.6098
N5690 X7.6209 Y-4.8604
N5700 X7.6327 Y-4.8607
N5710 X7.6444 Y-4.8602
N5720 X7.6566 Y-4.8596
N5730 X7.6563 Y-4.8479
N5740 Y-4.8361
N5750 X7.6546 Y-4.8242
N5760 X7.6557 Y-4.8119
N5770 X7.6552 Y-4.7989
N5780 X7.6545 Y-4.7876
N5790 X7.6536 Y-4.7759
N5800 X7.6519 Y-4.7639
N5810 X7.6524 Y-4.7522
N5820 X7.6521 Y-4.7423
N5830 Y-4.7293
N5840 X7.6524 Y-4.7189
N5850 X7.6522 Y-4.7056
N5860 X7.6521 Y-4.6947
N5870 X7.6523 Y-4.6819
N5880 X7.6526 Y-4.6695
N5890 X7.6485 Y-4.6587
N5900 X7.6415 Y-4.6476
N5910 X7.6342 Y-4.6387
N5920 X7.6256 Y-4.6466
N5930 X7.618 Y-4.6555
N5940 X7.6062 Y-4.6584
N5950 X7.5954 Y-4.6568
N5960 X7.5836 Y-4.6539
N5970 X7.5763 Y-4.6651
N5980 X7.5649 Y-4.6616
N5990 X7.5537 Y-4.6622
N6000 X7.5413 Y-4.6654
N6010 X7.5372 Y-4.6549
N6020 X7.5359 Y-4.6431
N6030 X7.5267 Y-4.6368
N6040 X7.5159 Y-4.631
N6050 X7.5143 Y-4.6202
N6060 X7.5083 Y-4.611
N6070 X7.5019 Y-4.5999
N6080 X7.4978 Y-4.5884
N6090 X7.493 Y-4.5773
N6100 X7.4889 Y-4.5659
N6110 X7.4787 Y-4.5722
N6120 X7.4691 Y-4.5802
N6130 X7.4561 Y-4.576
N6140 X7.4558 Y-4.5668
N6150 X7.4574 Y-4.5547
N6160 X7.4586 Y-4.543
N6170 X7.4551 Y-4.5299
N6180 X7.4593 Y-4.5188
N6190 X7.4612 Y-4.5057
N6200 X7.4647 Y-4.4943
N6210 X7.4548 Y-4.4876
N6220 X7.4456 Y-4.4809
N6230 X7.4341 Y-4.4765
N6240 X7.4297 Y-4.4654
N6250 X7.4224 Y-4.4571
N6260 X7.4151 Y-4.4482
N6270 X7.4068 Y-4.4402
N6280 X7.3973 Y-4.4335
N6290 X7.3919 Y-4.4227
N6300 X7.3899 Y-4.4097
N6310 X7.3852 Y-4.4005
N6320 X7.3785 Y-4.3893
N6330 X7.3718 Y-4.3798
N6340 X7.3715 Y-4.368
N6350 X7.3724 Y-4.3564
N6360 Y-4.3453
N6370 X7.3733 Y-4.334
N6380 Y-4.3228
N6390 X7.3738 Y-4.3111
N6400 X7.369 Y-4.2987
N6410 X7.3566 Y-4.3003
N6420 X7.3453 Y-4.2987
N6430 X7.3333
N6440 X7.3211 Y-4.3003
N6450 X7.3221 Y-4.3125
N6460 Y-4.3249
N6470 X7.3211 Y-4.337
N6480 X7.3193 Y-4.3495
N6490 X7.3187 Y-4.3614
N6500 Y-4.3722
N6510 X7.3193 Y-4.383
N6520 G80
N6530 G0 Z0.4506
N6550 M5 M9

(DRILL1)
N6560 S10000 M3 M9
N6570 G0 X7.6318 Y-7.1596
N6580 G0 Z0.4506
N6600 G0 Z0.0506
N6610 G98 G81 X7.6318 Y-7.1596 Z-0.0112 R0.05 F4.
N6620 X7.3211 Y-6.8995
N6630 Y-6.9103
N6640 Y-6.9221
N6650 X7.3205 Y-6.9338
N6660 Y-6.9459
N6670 X7.3214 Y-6.9574
N6680 X7.3198 Y-6.9701
N6690 X7.3205 Y-6.9819
N6700 X7.3198 Y-6.9936
N6710 X7.3192 Y-7.0051
N6720 Y-7.0153
N6730 X7.3246 Y-7.027
N6740 X7.3239 Y-7.0378
N6750 X7.3297 Y-7.0496
N6760 X7.3395 Y-7.0582
N6770 X7.3453 Y-7.0665
N6780 X7.3465 Y-7.0773
N6790 X7.3414 Y-7.0878
N6800 X7.3341 Y-7.0973
N6810 X7.3332 Y-7.1081
N6820 X7.3262 Y-7.1183
N6830 X7.3246 Y-7.1297
N6840 X7.3189 Y-7.1412
N6850 X7.3112 Y-7.1504
N6860 X7.3042 Y-7.16
N6870 X7.3026 Y-7.1717
N6880 X7.3087 Y-7.1813
N6890 X7.3185 Y-7.1848
N6900 X7.3173 Y-7.1969
N6910 X7.3154 Y-7.2099
N6920 X7.3125 Y-7.2217
N6930 X7.3128 Y-7.2334
N6940 X7.3115 Y-7.2436
N6950 X7.3106 Y-7.256
N6960 Y-7.2667
N6970 X7.3116 Y-7.2796
N6980 X7.3106 Y-7.2911
N6990 X7.3101 Y-7.3031
N7000 X7.309 Y-7.3153
N7010 X7.3093 Y-7.3278
N7020 X7.3082 Y-7.3399
N7030 X7.3075 Y-7.3514
N7040 X7.3062 Y-7.3625
N7050 X7.3202 Y-7.3613
N7060 X7.3313 Y-7.3609
N7070 X7.3434 Y-7.3618
N7080 X7.3547 Y-7.3622
N7090 X7.3665 Y-7.3636
N7100 X7.3767
N7110 X7.3896 Y-7.3634
N7120 X7.401 Y-7.3633
N7130 X7.4133 Y-7.3631
N7140 X7.4253 Y-7.363
N7150 X7.4376 Y-7.3633
N7160 X7.4481 Y-7.3636
N7170 X7.46 Y-7.3639
N7180 X7.4727 Y-7.3637
N7190 X7.4841 Y-7.3636
N7200 X7.4942 Y-7.3634
N7210 X7.5065 Y-7.3631
N7220 X7.5193 Y-7.3633
N7230 X7.5299 Y-7.3622
N7240 X7.5427 Y-7.3637
N7250 X7.5538 Y-7.3642
N7260 X7.565
N7270 X7.5773 Y-7.3634
N7280 X7.5892 Y-7.363
N7290 X7.5991 Y-7.3613
N7300 X7.6115
N7310 X7.6226 Y-7.3616
N7320 X7.6345 Y-7.3619
N7330 X7.6462 Y-7.3615
N7340 X7.6583 Y-7.3609
N7350 X7.658 Y-7.3492
N7360 Y-7.3373
N7370 X7.6564 Y-7.3255
N7380 X7.6574 Y-7.3132
N7390 X7.657 Y-7.3001
N7400 X7.6562 Y-7.2889
N7410 X7.6553 Y-7.2772
N7420 X7.6537 Y-7.2652
N7430 X7.6541 Y-7.2535
N7440 X7.6538 Y-7.2436
N7450 Y-7.2305
N7460 X7.6541 Y-7.2202
N7470 X7.654 Y-7.2068
N7480 X7.6538 Y-7.196
N7490 X7.6541 Y-7.1832
N7500 X7.6544 Y-7.1708
N7510 X7.6503 Y-7.16
N7520 X7.6433 Y-7.1488
N7530 X7.6359 Y-7.1399
N7540 X7.6274 Y-7.1479
N7550 X7.6197 Y-7.1568
N7560 X7.608 Y-7.1596
N7570 X7.5971 Y-7.1581
N7580 X7.5854 Y-7.1552
N7590 X7.5781 Y-7.1663
N7600 X7.5666 Y-7.1628
N7610 X7.5555 Y-7.1635
N7620 X7.5431 Y-7.1666
N7630 X7.5389 Y-7.1561
N7640 X7.5377 Y-7.1444
N7650 X7.5284 Y-7.138
N7660 X7.5176 Y-7.1323
N7670 X7.516 Y-7.1215
N7680 X7.51 Y-7.1123
N7690 X7.5036 Y-7.1011
N7700 X7.4995 Y-7.0897
N7710 X7.4947 Y-7.0785
N7720 X7.4906 Y-7.0671
N7730 X7.4804 Y-7.0735
N7740 X7.4709 Y-7.0814
N7750 X7.4578 Y-7.0773
N7760 X7.4575 Y-7.0681
N7770 X7.4591 Y-7.056
N7780 X7.4604 Y-7.0442
N7790 X7.4569 Y-7.0312
N7800 X7.461 Y-7.02
N7810 X7.4629 Y-7.007
N7820 X7.4664 Y-6.9955
N7830 X7.4566 Y-6.9889
N7840 X7.4473 Y-6.9822
N7850 X7.4359 Y-6.9777
N7860 X7.4314 Y-6.9666
N7870 X7.4241 Y-6.9583
N7880 X7.4168 Y-6.9494
N7890 X7.4085 Y-6.9415
N7900 X7.399 Y-6.9348
N7910 X7.3936 Y-6.924
N7920 X7.3917 Y-6.9109
N7930 X7.3869 Y-6.9017
N7940 X7.3802 Y-6.8906
N7950 X7.3736 Y-6.881
N7960 X7.3732 Y-6.8693
N7970 X7.3741 Y-6.8576
N7980 Y-6.8466
N7990 X7.375 Y-6.8353
N8000 Y-6.824
N8010 X7.3755 Y-6.8124
N8020 X7.3708 Y-6.8
N8030 X7.3583 Y-6.8015
N8040 X7.347 Y-6.8
N8050 X7.3351
N8060 X7.3228 Y-6.8015
N8070 X7.3238 Y-6.8137
N8080 Y-6.8262
N8090 X7.3228 Y-6.8383
N8100 X7.321 Y-6.8507
N8110 X7.3205 Y-6.8626
N8120 Y-6.8734
N8130 X7.3211 Y-6.8842
N8140 G80
N8150 G0 Z0.4506
N8170 M5 M9

(DRILL1)
N8180 S10000 M3 M9
N8190 G0 X3.8534 Y-7.1592
N8200 G0 Z0.4506
N8220 G0 Z0.0506
N8230 G98 G81 X3.8534 Y-7.1592 Z-0.0112 R0.05 F4.
N8240 X3.5427 Y-6.8991
N8250 Y-6.9099
N8260 Y-6.9217
N8270 X3.542 Y-6.9334
N8280 Y-6.9455
N8290 X3.543 Y-6.957
N8300 X3.5414 Y-6.9697
N8310 X3.542 Y-6.9815
N8320 X3.5414 Y-6.9932
N8330 X3.5408 Y-7.0047
N8340 Y-7.0148
N8350 X3.5462 Y-7.0266
N8360 X3.5455 Y-7.0374
N8370 X3.5513 Y-7.0492
N8380 X3.5611 Y-7.0578
N8390 X3.5668 Y-7.066
N8400 X3.5681 Y-7.0769
N8410 X3.563 Y-7.0874
N8420 X3.5557 Y-7.0969
N8430 X3.5547 Y-7.1077
N8440 X3.5478 Y-7.1179
N8450 X3.5462 Y-7.1293
N8460 X3.5404 Y-7.1408
N8470 X3.5328 Y-7.15
N8480 X3.5258 Y-7.1595
N8490 X3.5242 Y-7.1713
N8500 X3.5303 Y-7.1809
N8510 X3.5401 Y-7.1844
N8520 X3.5388 Y-7.1964
N8530 X3.5369 Y-7.2095
N8540 X3.5341 Y-7.2212
N8550 X3.5344 Y-7.233
N8560 X3.5331 Y-7.2432
N8570 X3.5322 Y-7.2556
N8580 X3.5321 Y-7.2662
N8590 X3.5332 Y-7.2792
N8600 X3.5321 Y-7.2907
N8610 X3.5317 Y-7.3027
N8620 X3.5305 Y-7.3149
N8630 X3.5309 Y-7.3274
N8640 X3.5298 Y-7.3395
N8650 X3.5291 Y-7.351
N8660 X3.5278 Y-7.3621
N8670 X3.5417 Y-7.3609
N8680 X3.5528 Y-7.3605
N8690 X3.565 Y-7.3614
N8700 X3.5762 Y-7.3618
N8710 X3.5881 Y-7.3632
N8720 X3.5983
N8730 X3.6112 Y-7.363
N8740 X3.6226 Y-7.3629
N8750 X3.6349 Y-7.3627
N8760 X3.6469 Y-7.3626
N8770 X3.6592 Y-7.3629
N8780 X3.6697 Y-7.3632
N8790 X3.6816 Y-7.3635
N8800 X3.6943 Y-7.3633
N8810 X3.7057 Y-7.3632
N8820 X3.7158 Y-7.363
N8830 X3.7281 Y-7.3627
N8840 X3.7408 Y-7.3629
N8850 X3.7515 Y-7.3618
N8860 X3.7642 Y-7.3633
N8870 X3.7753 Y-7.3638
N8880 X3.7866
N8890 X3.7989 Y-7.363
N8900 X3.8107 Y-7.3626
N8910 X3.8206 Y-7.3609
N8920 X3.8331
N8930 X3.8442 Y-7.3612
N8940 X3.856 Y-7.3615
N8950 X3.8677 Y-7.3611
N8960 X3.8799 Y-7.3605
N8970 X3.8796 Y-7.3488
N8980 Y-7.3369
N8990 X3.878 Y-7.3251
N9000 X3.879 Y-7.3128
N9010 X3.8785 Y-7.2997
N9020 X3.8778 Y-7.2885
N9030 X3.8769 Y-7.2768
N9040 X3.8752 Y-7.2647
N9050 X3.8757 Y-7.253
N9060 X3.8754 Y-7.2431
N9070 Y-7.2301
N9080 X3.8757 Y-7.2197
N9090 X3.8755 Y-7.2064
N9100 X3.8754 Y-7.1956
N9110 X3.8756 Y-7.1828
N9120 X3.876 Y-7.1704
N9130 X3.8718 Y-7.1595
N9140 X3.8648 Y-7.1484
N9150 X3.8575 Y-7.1395
N9160 X3.8489 Y-7.1475
N9170 X3.8413 Y-7.1564
N9180 X3.8295 Y-7.1592
N9190 X3.8187 Y-7.1576
N9200 X3.8069 Y-7.1548
N9210 X3.7996 Y-7.1659
N9220 X3.7882 Y-7.1624
N9230 X3.7771 Y-7.163
N9240 X3.7647 Y-7.1662
N9250 X3.7605 Y-7.1557
N9260 X3.7592 Y-7.144
N9270 X3.75 Y-7.1376
N9280 X3.7392 Y-7.1319
N9290 X3.7376 Y-7.1211
N9300 X3.7316 Y-7.1118
N9310 X3.7252 Y-7.1007
N9320 X3.7211 Y-7.0893
N9330 X3.7163 Y-7.0781
N9340 X3.7122 Y-7.0667
N9350 X3.702 Y-7.073
N9360 X3.6925 Y-7.081
N9370 X3.6794 Y-7.0769
N9380 X3.6791 Y-7.0676
N9390 X3.6807 Y-7.0556
N9400 X3.682 Y-7.0438
N9410 X3.6785 Y-7.0307
N9420 X3.6826 Y-7.0196
N9430 X3.6845 Y-7.0066
N9440 X3.688 Y-6.9951
N9450 X3.6781 Y-6.9884
N9460 X3.6689 Y-6.9818
N9470 X3.6575 Y-6.9773
N9480 X3.653 Y-6.9662
N9490 X3.6457 Y-6.9579
N9500 X3.6384 Y-6.949
N9510 X3.6301 Y-6.9411
N9520 X3.6206 Y-6.9344
N9530 X3.6152 Y-6.9236
N9540 X3.6133 Y-6.9105
N9550 X3.6085 Y-6.9013
N9560 X3.6018 Y-6.8902
N9570 X3.5951 Y-6.8806
N9580 X3.5948 Y-6.8689
N9590 X3.5957 Y-6.8572
N9600 Y-6.8462
N9610 X3.5966 Y-6.8349
N9620 Y-6.8236
N9630 X3.5971 Y-6.812
N9640 X3.5923 Y-6.7996
N9650 X3.5799 Y-6.8011
N9660 X3.5686 Y-6.7996
N9670 X3.5566
N9680 X3.5444 Y-6.8011
N9690 X3.5454 Y-6.8133
N9700 Y-6.8258
N9710 X3.5444 Y-6.8379
N9720 X3.5426 Y-6.8503
N9730 X3.542 Y-6.8622
N9740 Y-6.873
N9750 X3.5427 Y-6.8838
N9760 G80
N9770 G0 Z0.4506
N9790 M5 M9

(DRILL1)
N9800 S10000 M3 M9
N9810 G0 X3.8526 Y-9.6595
N9820 G0 Z0.4506
N9840 G0 Z0.0506
N9850 G98 G81 X3.8526 Y-9.6595 Z-0.0112 R0.05 F4.
N9860 X3.5419 Y-9.3993
N9870 Y-9.4101
N9880 Y-9.4219
N9890 X3.5412 Y-9.4337
N9900 Y-9.4458
N9910 X3.5422 Y-9.4572
N9920 X3.5406 Y-9.4699
N9930 X3.5412 Y-9.4817
N9940 X3.5406 Y-9.4935
N9950 X3.54 Y-9.5049
N9960 Y-9.5151
N9970 X3.5454 Y-9.5269
N9980 X3.5447 Y-9.5377
N9990 X3.5504 Y-9.5494
N10000 X3.5603 Y-9.558
N10010 X3.566 Y-9.5663
N10020 X3.5673 Y-9.5771
N10030 X3.5622 Y-9.5876
N10040 X3.5549 Y-9.5971
N10050 X3.5539 Y-9.608
N10060 X3.547 Y-9.6181
N10070 X3.5454 Y-9.6296
N10080 X3.5396 Y-9.641
N10090 X3.532 Y-9.6502
N10100 X3.525 Y-9.6598
N10110 X3.5234 Y-9.6716
N10120 X3.5295 Y-9.6811
N10130 X3.5393 Y-9.6846
N10140 X3.538 Y-9.6967
N10150 X3.5361 Y-9.7097
N10160 X3.5333 Y-9.7215
N10170 X3.5336 Y-9.7333
N10180 X3.5323 Y-9.7434
N10190 X3.5314 Y-9.7558
N10200 X3.5313 Y-9.7665
N10210 X3.5324 Y-9.7794
N10220 X3.5313 Y-9.7909
N10230 X3.5309 Y-9.8029
N10240 X3.5297 Y-9.8151
N10250 X3.5301 Y-9.8277
N10260 X3.529 Y-9.8397
N10270 X3.5283 Y-9.8512
N10280 X3.527 Y-9.8624
N10290 X3.5409 Y-9.8612
N10300 X3.552 Y-9.8607
N10310 X3.5642 Y-9.8616
N10320 X3.5754 Y-9.8621
N10330 X3.5873 Y-9.8634
N10340 X3.5975
N10350 X3.6104 Y-9.8633
N10360 X3.6218 Y-9.8631
N10370 X3.6341 Y-9.863
N10380 X3.6461 Y-9.8628
N10390 X3.6584 Y-9.8631
N10400 X3.6689 Y-9.8634
N10410 X3.6808 Y-9.8637
N10420 X3.6935 Y-9.8636
N10430 X3.7049 Y-9.8634
N10440 X3.715 Y-9.8633
N10450 X3.7273 Y-9.863
N10460 X3.74 Y-9.8631
N10470 X3.7507 Y-9.8621
N10480 X3.7634 Y-9.8636
N10490 X3.7745 Y-9.864
N10500 X3.7858
N10510 X3.7981 Y-9.8633
N10520 X3.8099 Y-9.8628
N10530 X3.8198 Y-9.8612
N10540 X3.8323
N10550 X3.8434 Y-9.8615
N10560 X3.8552 Y-9.8618
N10570 X3.8669 Y-9.8613
N10580 X3.8791 Y-9.8607
N10590 X3.8788 Y-9.849
N10600 Y-9.8372
N10610 X3.8771 Y-9.8253
N10620 X3.8782 Y-9.813
N10630 X3.8777 Y-9.7999
N10640 X3.877 Y-9.7887
N10650 X3.8761 Y-9.777
N10660 X3.8744 Y-9.765
N10670 X3.8749 Y-9.7533
N10680 X3.8746 Y-9.7434
N10690 Y-9.7303
N10700 X3.8749 Y-9.72
N10710 X3.8747 Y-9.7066
N10720 X3.8746 Y-9.6958
N10730 X3.8748 Y-9.683
N10740 X3.8752 Y-9.6706
N10750 X3.871 Y-9.6598
N10760 X3.864 Y-9.6487
N10770 X3.8567 Y-9.6398
N10780 X3.8481 Y-9.6477
N10790 X3.8405 Y-9.6566
N10800 X3.8287 Y-9.6595
N10810 X3.8179 Y-9.6579
N10820 X3.8061 Y-9.655
N10830 X3.7988 Y-9.6662
N10840 X3.7874 Y-9.6627
N10850 X3.7763 Y-9.6633
N10860 X3.7638 Y-9.6665
N10870 X3.7597 Y-9.656
N10880 X3.7584 Y-9.6442
N10890 X3.7492 Y-9.6378
N10900 X3.7384 Y-9.6321
N10910 X3.7368 Y-9.6213
N10920 X3.7308 Y-9.6121
N10930 X3.7244 Y-9.601
N10940 X3.7203 Y-9.5895
N10950 X3.7155 Y-9.5784
N10960 X3.7114 Y-9.5669
N10970 X3.7012 Y-9.5733
N10980 X3.6917 Y-9.5812
N10990 X3.6786 Y-9.5771
N11000 X3.6783 Y-9.5679
N11010 X3.6799 Y-9.5558
N11020 X3.6812 Y-9.544
N11030 X3.6777 Y-9.531
N11040 X3.6818 Y-9.5199
N11050 X3.6837 Y-9.5068
N11060 X3.6872 Y-9.4954
N11070 X3.6773 Y-9.4887
N11080 X3.6681 Y-9.482
N11090 X3.6567 Y-9.4776
N11100 X3.6522 Y-9.4664
N11110 X3.6449 Y-9.4582
N11120 X3.6376 Y-9.4493
N11130 X3.6293 Y-9.4413
N11140 X3.6198 Y-9.4346
N11150 X3.6144 Y-9.4238
N11160 X3.6125 Y-9.4108
N11170 X3.6077 Y-9.4015
N11180 X3.601 Y-9.3904
N11190 X3.5943 Y-9.3809
N11200 X3.594 Y-9.3691
N11210 X3.5949 Y-9.3575
N11220 Y-9.3464
N11230 X3.5958 Y-9.3351
N11240 Y-9.3238
N11250 X3.5963 Y-9.3122
N11260 X3.5915 Y-9.2998
N11270 X3.5791 Y-9.3013
N11280 X3.5678 Y-9.2998
N11290 X3.5558
N11300 X3.5436 Y-9.3013
N11310 X3.5446 Y-9.3136
N11320 Y-9.326
N11330 X3.5436 Y-9.3381
N11340 X3.5418 Y-9.3506
N11350 X3.5412 Y-9.3624
N11360 Y-9.3732
N11370 X3.5419 Y-9.3841
N11380 G80
N11390 G0 Z0.4506
N11410 M5 M9

(DRILL1)
N11420 S10000 M3 M9
N11430 G0 X7.6313 Y-9.6591
N11440 G0 Z0.4506
N11460 G0 Z0.0506
N11470 G98 G81 X7.6313 Y-9.6591 Z-0.0112 R0.05 F4.
N11480 X7.3206 Y-9.399
N11490 Y-9.4098
N11500 Y-9.4216
N11510 X7.3199 Y-9.4333
N11520 Y-9.4454
N11530 X7.3209 Y-9.4569
N11540 X7.3193 Y-9.4696
N11550 X7.3199 Y-9.4813
N11560 X7.3193 Y-9.4931
N11570 X7.3187 Y-9.5046
N11580 Y-9.5147
N11590 X7.3241 Y-9.5265
N11600 X7.3234 Y-9.5373
N11610 X7.3291 Y-9.5491
N11620 X7.339 Y-9.5577
N11630 X7.3447 Y-9.5659
N11640 X7.346 Y-9.5768
N11650 X7.3409 Y-9.5872
N11660 X7.3336 Y-9.5968
N11670 X7.3326 Y-9.6076
N11680 X7.3256 Y-9.6178
N11690 X7.3241 Y-9.6292
N11700 X7.3183 Y-9.6407
N11710 X7.3107 Y-9.6499
N11720 X7.3037 Y-9.6594
N11730 X7.3021 Y-9.6712
N11740 X7.3082 Y-9.6807
N11750 X7.318 Y-9.6842
N11760 X7.3167 Y-9.6963
N11770 X7.3148 Y-9.7094
N11780 X7.312 Y-9.7211
N11790 X7.3123 Y-9.7329
N11800 X7.311 Y-9.7431
N11810 X7.3101 Y-9.7555
N11820 X7.31 Y-9.7661
N11830 X7.3111 Y-9.779
N11840 X7.31 Y-9.7906
N11850 X7.3096 Y-9.8025
N11860 X7.3084 Y-9.8148
N11870 X7.3088 Y-9.8273
N11880 X7.3077 Y-9.8394
N11890 X7.307 Y-9.8508
N11900 X7.3057 Y-9.862
N11910 X7.3196 Y-9.8608
N11920 X7.3307 Y-9.8604
N11930 X7.3429 Y-9.8613
N11940 X7.3541 Y-9.8617
N11950 X7.366 Y-9.8631
N11960 X7.3762
N11970 X7.3891 Y-9.8629
N11980 X7.4005 Y-9.8628
N11990 X7.4128 Y-9.8626
N12000 X7.4248 Y-9.8625
N12010 X7.4371 Y-9.8628
N12020 X7.4476 Y-9.8631
N12030 X7.4595 Y-9.8634
N12040 X7.4722 Y-9.8632
N12050 X7.4836 Y-9.8631
N12060 X7.4937 Y-9.8629
N12070 X7.506 Y-9.8626
N12080 X7.5187 Y-9.8628
N12090 X7.5294 Y-9.8617
N12100 X7.5421 Y-9.8632
N12110 X7.5532 Y-9.8637
N12120 X7.5645
N12130 X7.5768 Y-9.8629
N12140 X7.5886 Y-9.8625
N12150 X7.5985 Y-9.8608
N12160 X7.611
N12170 X7.6221 Y-9.8611
N12180 X7.6339 Y-9.8614
N12190 X7.6456 Y-9.861
N12200 X7.6578 Y-9.8604
N12210 X7.6575 Y-9.8487
N12220 Y-9.8368
N12230 X7.6558 Y-9.8249
N12240 X7.6569 Y-9.8126
N12250 X7.6564 Y-9.7996
N12260 X7.6557 Y-9.7883
N12270 X7.6548 Y-9.7766
N12280 X7.6531 Y-9.7646
N12290 X7.6536 Y-9.7529
N12300 X7.6533 Y-9.743
N12310 Y-9.73
N12320 X7.6536 Y-9.7196
N12330 X7.6534 Y-9.7063
N12340 X7.6533 Y-9.6955
N12350 X7.6535 Y-9.6827
N12360 X7.6539 Y-9.6703
N12370 X7.6497 Y-9.6594
N12380 X7.6427 Y-9.6483
N12390 X7.6354 Y-9.6394
N12400 X7.6268 Y-9.6474
N12410 X7.6192 Y-9.6563
N12420 X7.6074 Y-9.6591
N12430 X7.5966 Y-9.6575
N12440 X7.5848 Y-9.6547
N12450 X7.5775 Y-9.6658
N12460 X7.5661 Y-9.6623
N12470 X7.5549 Y-9.6629
N12480 X7.5425 Y-9.6661
N12490 X7.5384 Y-9.6556
N12500 X7.5371 Y-9.6439
N12510 X7.5279 Y-9.6375
N12520 X7.5171 Y-9.6318
N12530 X7.5155 Y-9.621
N12540 X7.5095 Y-9.6117
N12550 X7.5031 Y-9.6006
N12560 X7.499 Y-9.5892
N12570 X7.4942 Y-9.578
N12580 X7.4901 Y-9.5666
N12590 X7.4799 Y-9.5729
N12600 X7.4704 Y-9.5809
N12610 X7.4573 Y-9.5768
N12620 X7.457 Y-9.5675
N12630 X7.4586 Y-9.5554
N12640 X7.4599 Y-9.5437
N12650 X7.4564 Y-9.5306
N12660 X7.4605 Y-9.5195
N12670 X7.4624 Y-9.5065
N12680 X7.4659 Y-9.495
N12690 X7.456 Y-9.4883
N12700 X7.4468 Y-9.4817
N12710 X7.4354 Y-9.4772
N12720 X7.4309 Y-9.4661
N12730 X7.4236 Y-9.4578
N12740 X7.4163 Y-9.4489
N12750 X7.408 Y-9.441
N12760 X7.3985 Y-9.4343
N12770 X7.3931 Y-9.4235
N12780 X7.3912 Y-9.4104
N12790 X7.3864 Y-9.4012
N12800 X7.3797 Y-9.3901
N12810 X7.373 Y-9.3805
N12820 X7.3727 Y-9.3688
N12830 X7.3736 Y-9.3571
N12840 Y-9.346
N12850 X7.3745 Y-9.3348
N12860 Y-9.3235
N12870 X7.375 Y-9.3119
N12880 X7.3702 Y-9.2995
N12890 X7.3578 Y-9.301
N12900 X7.3465 Y-9.2995
N12910 X7.3345
N12920 X7.3223 Y-9.301
N12930 X7.3233 Y-9.3132
N12940 Y-9.3256
N12950 X7.3223 Y-9.3378
N12960 X7.3205 Y-9.3502
N12970 X7.3199 Y-9.3621
N12980 Y-9.3729
N12990 X7.3206 Y-9.3837
N13000 G80
N13010 G0 Z0.4506
N13030 M5 M9

N13040 G30
N13050 M30
%
