%
(*************************************)
(* Generated by wtopace for EntityX  *)
(* Date: 2/13/2016                   *)
(*************************************)
(1001)
(PROJECT 2)
(T1  D=0.0039 CR=0. TAPER=118DEG - ZMIN=-0.0118 - DRILL)
N10 G90 G54 G64 G50 G17 G40 G80 G94 G91.1 G49
N20 G20 (Inch)
N30 G30

(DRILL1)
N50 G30
N60 T1 G43 H1 M6
N70 S10000 M3 M8
N80 G54
N90 G0 X-0.377 Y3.3605
N100 G0 Z0.45
N120 G0 Z0.05
N130 G98 G81 X-0.377 Y3.3605 Z-0.0118 R0.0494 F4.
N140 X-0.6877 Y3.6207
N150 Y3.6099
N160 Y3.5981
N170 X-0.6884 Y3.5863
N180 Y3.5742
N190 X-0.6874 Y3.5628
N200 X-0.689 Y3.5501
N210 X-0.6884 Y3.5383
N220 X-0.689 Y3.5265
N230 X-0.6896 Y3.5151
N240 Y3.5049
N250 X-0.6842 Y3.4931
N260 X-0.6849 Y3.4823
N270 X-0.6791 Y3.4706
N280 X-0.6693 Y3.462
N290 X-0.6636 Y3.4537
N300 X-0.6623 Y3.4429
N310 X-0.6674 Y3.4324
N320 X-0.6747 Y3.4229
N330 X-0.6756 Y3.412
N340 X-0.6826 Y3.4019
N350 X-0.6842 Y3.3904
N360 X-0.69 Y3.379
N370 X-0.6976 Y3.3698
N380 X-0.7046 Y3.3602
N390 X-0.7062 Y3.3484
N400 X-0.7001 Y3.3389
N410 X-0.6903 Y3.3354
N420 X-0.6915 Y3.3233
N430 X-0.6935 Y3.3103
N440 X-0.6963 Y3.2985
N450 X-0.696 Y3.2867
N460 X-0.6973 Y3.2766
N470 X-0.6982 Y3.2642
N480 X-0.6983 Y3.2535
N490 X-0.6972 Y3.2406
N500 X-0.6983 Y3.2291
N510 X-0.6987 Y3.2171
N520 X-0.6998 Y3.2049
N530 X-0.6995 Y3.1923
N540 X-0.7006 Y3.1803
N550 X-0.7013 Y3.1688
N560 X-0.7026 Y3.1576
N570 X-0.6887 Y3.1588
N580 X-0.6776 Y3.1593
N590 X-0.6654 Y3.1584
N600 X-0.6541 Y3.1579
N610 X-0.6423 Y3.1566
N620 X-0.6321
N630 X-0.6192 Y3.1567
N640 X-0.6078 Y3.1569
N650 X-0.5955 Y3.157
N660 X-0.5835 Y3.1572
N670 X-0.5712 Y3.1569
N680 X-0.5607 Y3.1566
N690 X-0.5488 Y3.1563
N700 X-0.5361 Y3.1564
N710 X-0.5247 Y3.1566
N720 X-0.5146 Y3.1567
N730 X-0.5023 Y3.157
N740 X-0.4896 Y3.1569
N750 X-0.4789 Y3.1579
N760 X-0.4662 Y3.1564
N770 X-0.4551 Y3.156
N780 X-0.4438
N790 X-0.4315 Y3.1567
N800 X-0.4197 Y3.1572
N810 X-0.4098 Y3.1588
N820 X-0.3973
N830 X-0.3862 Y3.1585
N840 X-0.3744 Y3.1582
N850 X-0.3626 Y3.1587
N860 X-0.3505 Y3.1593
N870 X-0.3508 Y3.171
N880 Y3.1828
N890 X-0.3524 Y3.1947
N900 X-0.3514 Y3.207
N910 X-0.3518 Y3.2201
N920 X-0.3526 Y3.2313
N930 X-0.3535 Y3.243
N940 X-0.3551 Y3.255
N950 X-0.3547 Y3.2667
N960 X-0.355 Y3.2766
N970 Y3.2897
N980 X-0.3547 Y3.3
N990 X-0.3548 Y3.3134
N1000 X-0.355 Y3.3242
N1010 X-0.3548 Y3.337
N1020 X-0.3544 Y3.3494
N1030 X-0.3586 Y3.3602
N1040 X-0.3656 Y3.3713
N1050 X-0.3729 Y3.3802
N1060 X-0.3815 Y3.3723
N1070 X-0.3891 Y3.3634
N1080 X-0.4009 Y3.3605
N1090 X-0.4117 Y3.3621
N1100 X-0.4234 Y3.365
N1110 X-0.4308 Y3.3538
N1120 X-0.4422 Y3.3573
N1130 X-0.4533 Y3.3567
N1140 X-0.4657 Y3.3535
N1150 X-0.4699 Y3.364
N1160 X-0.4712 Y3.3758
N1170 X-0.4804 Y3.3822
N1180 X-0.4912 Y3.3879
N1190 X-0.4928 Y3.3987
N1200 X-0.4988 Y3.4079
N1210 X-0.5052 Y3.419
N1220 X-0.5093 Y3.4305
N1230 X-0.5141 Y3.4416
N1240 X-0.5182 Y3.4531
N1250 X-0.5284 Y3.4467
N1260 X-0.5379 Y3.4388
N1270 X-0.551 Y3.4429
N1280 X-0.5513 Y3.4521
N1290 X-0.5497 Y3.4642
N1300 X-0.5484 Y3.476
N1310 X-0.5519 Y3.489
N1320 X-0.5478 Y3.5001
N1330 X-0.5459 Y3.5132
N1340 X-0.5424 Y3.5246
N1350 X-0.5523 Y3.5313
N1360 X-0.5615 Y3.538
N1370 X-0.5729 Y3.5424
N1380 X-0.5774 Y3.5536
N1390 X-0.5847 Y3.5618
N1400 X-0.592 Y3.5707
N1410 X-0.6003 Y3.5787
N1420 X-0.6098 Y3.5854
N1430 X-0.6152 Y3.5962
N1440 X-0.6171 Y3.6092
N1450 X-0.6219 Y3.6185
N1460 X-0.6286 Y3.6296
N1470 X-0.6353 Y3.6391
N1480 X-0.6356 Y3.6509
N1490 X-0.6347 Y3.6625
N1500 Y3.6736
N1510 X-0.6338 Y3.6849
N1520 Y3.6962
N1530 X-0.6333 Y3.7078
N1540 X-0.6381 Y3.7202
N1550 X-0.6505 Y3.7187
N1560 X-0.6618 Y3.7202
N1570 X-0.6738
N1580 X-0.686 Y3.7187
N1590 X-0.685 Y3.7064
N1600 Y3.694
N1610 X-0.686 Y3.6819
N1620 X-0.6878 Y3.6694
N1630 X-0.6884 Y3.6576
N1640 Y3.6468
N1650 X-0.6877 Y3.6359
N1660 G80
N1670 G0 Z0.45
N1690 M5 M9

(DRILL1)
N1700 S10000 M3 M8
N1710 G0 X3.4012 Y3.3609
N1720 G0 Z0.45
N1740 G0 Z0.05
N1750 G98 G81 X3.4012 Y3.3609 Z-0.0118 R0.0494 F4.
N1760 X3.0905 Y3.621
N1770 Y3.6102
N1780 Y3.5985
N1790 X3.0898 Y3.5867
N1800 Y3.5746
N1810 X3.0908 Y3.5632
N1820 X3.0892 Y3.5504
N1830 X3.0898 Y3.5387
N1840 X3.0892 Y3.5269
N1850 X3.0885 Y3.5155
N1860 Y3.5053
N1870 X3.094 Y3.4935
N1880 X3.0933 Y3.4827
N1890 X3.099 Y3.4709
N1900 X3.1089 Y3.4623
N1910 X3.1146 Y3.4541
N1920 X3.1159 Y3.4433
N1930 X3.1108 Y3.4328
N1940 X3.1035 Y3.4232
N1950 X3.1025 Y3.4124
N1960 X3.0955 Y3.4022
N1970 X3.094 Y3.3908
N1980 X3.0882 Y3.3793
N1990 X3.0806 Y3.3701
N2000 X3.0736 Y3.3606
N2010 X3.072 Y3.3488
N2020 X3.078 Y3.3393
N2030 X3.0879 Y3.3358
N2040 X3.0866 Y3.3237
N2050 X3.0847 Y3.3106
N2060 X3.0819 Y3.2989
N2070 X3.0822 Y3.2871
N2080 X3.0809 Y3.2769
N2090 X3.08 Y3.2645
N2100 X3.0799 Y3.2539
N2110 X3.081 Y3.241
N2120 X3.0799 Y3.2294
N2130 X3.0795 Y3.2175
N2140 X3.0783 Y3.2052
N2150 X3.0787 Y3.1927
N2160 X3.0776 Y3.1806
N2170 X3.0769 Y3.1692
N2180 X3.0756 Y3.158
N2190 X3.0895 Y3.1592
N2200 X3.1006 Y3.1597
N2210 X3.1128 Y3.1588
N2220 X3.124 Y3.1583
N2230 X3.1359 Y3.157
N2240 X3.1461
N2250 X3.159 Y3.1571
N2260 X3.1704 Y3.1573
N2270 X3.1827 Y3.1574
N2280 X3.1947 Y3.1576
N2290 X3.207 Y3.1573
N2300 X3.2175 Y3.157
N2310 X3.2294 Y3.1567
N2320 X3.2421 Y3.1568
N2330 X3.2535 Y3.157
N2340 X3.2636 Y3.1571
N2350 X3.2759 Y3.1574
N2360 X3.2886 Y3.1573
N2370 X3.2993 Y3.1583
N2380 X3.312 Y3.1568
N2390 X3.3231 Y3.1564
N2400 X3.3344
N2410 X3.3467 Y3.1571
N2420 X3.3585 Y3.1576
N2430 X3.3684 Y3.1592
N2440 X3.3809
N2450 X3.392 Y3.1589
N2460 X3.4038 Y3.1586
N2470 X3.4155 Y3.1591
N2480 X3.4277 Y3.1597
N2490 X3.4274 Y3.1714
N2500 Y3.1832
N2510 X3.4257 Y3.1951
N2520 X3.4268 Y3.2074
N2530 X3.4263 Y3.2204
N2540 X3.4256 Y3.2317
N2550 X3.4247 Y3.2434
N2560 X3.423 Y3.2554
N2570 X3.4235 Y3.2671
N2580 X3.4232 Y3.277
N2590 Y3.29
N2600 X3.4235 Y3.3004
N2610 X3.4233 Y3.3137
N2620 X3.4232 Y3.3246
N2630 X3.4234 Y3.3374
N2640 X3.4238 Y3.3498
N2650 X3.4196 Y3.3606
N2660 X3.4126 Y3.3717
N2670 X3.4053 Y3.3806
N2680 X3.3967 Y3.3727
N2690 X3.3891 Y3.3638
N2700 X3.3773 Y3.3609
N2710 X3.3665 Y3.3625
N2720 X3.3547 Y3.3653
N2730 X3.3474 Y3.3542
N2740 X3.336 Y3.3577
N2750 X3.3248 Y3.3571
N2760 X3.3124 Y3.3539
N2770 X3.3083 Y3.3644
N2780 X3.307 Y3.3762
N2790 X3.2978 Y3.3825
N2800 X3.287 Y3.3882
N2810 X3.2854 Y3.3991
N2820 X3.2794 Y3.4083
N2830 X3.273 Y3.4194
N2840 X3.2689 Y3.4309
N2850 X3.2641 Y3.442
N2860 X3.26 Y3.4534
N2870 X3.2498 Y3.4471
N2880 X3.2402 Y3.4391
N2890 X3.2272 Y3.4433
N2900 X3.2269 Y3.4525
N2910 X3.2285 Y3.4646
N2920 X3.2298 Y3.4763
N2930 X3.2263 Y3.4894
N2940 X3.2304 Y3.5005
N2950 X3.2323 Y3.5136
N2960 X3.2358 Y3.525
N2970 X3.2259 Y3.5317
N2980 X3.2167 Y3.5384
N2990 X3.2053 Y3.5428
N3000 X3.2008 Y3.5539
N3010 X3.1935 Y3.5622
N3020 X3.1862 Y3.5711
N3030 X3.1779 Y3.5791
N3040 X3.1684 Y3.5857
N3050 X3.163 Y3.5966
N3060 X3.1611 Y3.6096
N3070 X3.1563 Y3.6188
N3080 X3.1496 Y3.63
N3090 X3.1429 Y3.6395
N3100 X3.1426 Y3.6513
N3110 X3.1435 Y3.6629
N3120 Y3.674
N3130 X3.1444 Y3.6852
N3140 Y3.6965
N3150 X3.1449 Y3.7081
N3160 X3.1401 Y3.7206
N3170 X3.1277 Y3.719
N3180 X3.1164 Y3.7206
N3190 X3.1044
N3200 X3.0922 Y3.719
N3210 X3.0932 Y3.7068
N3220 Y3.6944
N3230 X3.0922 Y3.6823
N3240 X3.0904 Y3.6698
N3250 X3.0898 Y3.6579
N3260 Y3.6471
N3270 X3.0905 Y3.6363
N3280 G80
N3290 G0 Z0.45
N3310 M5 M9

(DRILL1)
N3320 S10000 M3 M8
N3330 G0 X-0.3784 Y0.8606
N3340 G0 Z0.45
N3360 G0 Z0.05
N3370 G98 G81 X-0.3784 Y0.8606 Z-0.0118 R0.0494 F4.
N3380 X-0.6891 Y1.1207
N3390 Y1.1099
N3400 Y1.0981
N3410 X-0.6897 Y1.0864
N3420 Y1.0743
N3430 X-0.6888 Y1.0628
N3440 X-0.6904 Y1.0501
N3450 X-0.6897 Y1.0384
N3460 X-0.6904 Y1.0266
N3470 X-0.691 Y1.0151
N3480 Y1.005
N3490 X-0.6856 Y0.9932
N3500 X-0.6862 Y0.9824
N3510 X-0.6805 Y0.9706
N3520 X-0.6707 Y0.962
N3530 X-0.6649 Y0.9538
N3540 X-0.6637 Y0.9429
N3550 X-0.6688 Y0.9324
N3560 X-0.6761 Y0.9229
N3570 X-0.677 Y0.9121
N3580 X-0.684 Y0.9019
N3590 X-0.6856 Y0.8905
N3600 X-0.6913 Y0.879
N3610 X-0.699 Y0.8698
N3620 X-0.706 Y0.8603
N3630 X-0.7076 Y0.8485
N3640 X-0.7015 Y0.8389
N3650 X-0.6917 Y0.8354
N3660 X-0.6929 Y0.8234
N3670 X-0.6948 Y0.8103
N3680 X-0.6977 Y0.7986
N3690 X-0.6974 Y0.7868
N3700 X-0.6987 Y0.7766
N3710 X-0.6996 Y0.7642
N3720 Y0.7536
N3730 X-0.6986 Y0.7407
N3740 X-0.6996 Y0.7291
N3750 X-0.7001 Y0.7171
N3760 X-0.7012 Y0.7049
N3770 X-0.7009 Y0.6924
N3780 X-0.702 Y0.6803
N3790 X-0.7027 Y0.6689
N3800 X-0.704 Y0.6577
N3810 X-0.69 Y0.6589
N3820 X-0.6789 Y0.6593
N3830 X-0.6668 Y0.6584
N3840 X-0.6555 Y0.658
N3850 X-0.6437 Y0.6566
N3860 X-0.6335
N3870 X-0.6206 Y0.6568
N3880 X-0.6092 Y0.6569
N3890 X-0.5969 Y0.6571
N3900 X-0.5849 Y0.6572
N3910 X-0.5726 Y0.6569
N3920 X-0.5621 Y0.6566
N3930 X-0.5502 Y0.6563
N3940 X-0.5375 Y0.6565
N3950 X-0.5261 Y0.6566
N3960 X-0.516 Y0.6568
N3970 X-0.5037 Y0.6571
N3980 X-0.4909 Y0.6569
N3990 X-0.4803 Y0.658
N4000 X-0.4675 Y0.6565
N4010 X-0.4564 Y0.656
N4020 X-0.4452
N4030 X-0.4329 Y0.6568
N4040 X-0.421 Y0.6572
N4050 X-0.4111 Y0.6589
N4060 X-0.3987
N4070 X-0.3876 Y0.6586
N4080 X-0.3757 Y0.6583
N4090 X-0.364 Y0.6587
N4100 X-0.3519 Y0.6593
N4110 X-0.3522 Y0.671
N4120 Y0.6829
N4130 X-0.3538 Y0.6947
N4140 X-0.3528 Y0.707
N4150 X-0.3532 Y0.7201
N4160 X-0.354 Y0.7314
N4170 X-0.3549 Y0.7431
N4180 X-0.3565 Y0.7551
N4190 X-0.3561 Y0.7668
N4200 X-0.3564 Y0.7767
N4210 Y0.7897
N4220 X-0.3561 Y0.8001
N4230 X-0.3562 Y0.8134
N4240 X-0.3563 Y0.8242
N4250 X-0.3561 Y0.837
N4260 X-0.3558 Y0.8494
N4270 X-0.3599 Y0.8603
N4280 X-0.3669 Y0.8714
N4290 X-0.3743 Y0.8803
N4300 X-0.3828 Y0.8723
N4310 X-0.3905 Y0.8634
N4320 X-0.4022 Y0.8606
N4330 X-0.4131 Y0.8622
N4340 X-0.4248 Y0.865
N4350 X-0.4321 Y0.8539
N4360 X-0.4436 Y0.8574
N4370 X-0.4547 Y0.8568
N4380 X-0.4671 Y0.8536
N4390 X-0.4713 Y0.8641
N4400 X-0.4725 Y0.8758
N4410 X-0.4818 Y0.8822
N4420 X-0.4926 Y0.8879
N4430 X-0.4942 Y0.8987
N4440 X-0.5002 Y0.908
N4450 X-0.5066 Y0.9191
N4460 X-0.5107 Y0.9305
N4470 X-0.5155 Y0.9417
N4480 X-0.5196 Y0.9531
N4490 X-0.5298 Y0.9468
N4500 X-0.5393 Y0.9388
N4510 X-0.5524 Y0.9429
N4520 X-0.5527 Y0.9522
N4530 X-0.5511 Y0.9643
N4540 X-0.5498 Y0.976
N4550 X-0.5533 Y0.9891
N4560 X-0.5492 Y1.0002
N4570 X-0.5473 Y1.0132
N4580 X-0.5438 Y1.0247
N4590 X-0.5536 Y1.0314
N4600 X-0.5629 Y1.038
N4610 X-0.5743 Y1.0425
N4620 X-0.5788 Y1.0536
N4630 X-0.5861 Y1.0619
N4640 X-0.5934 Y1.0708
N4650 X-0.6017 Y1.0787
N4660 X-0.6112 Y1.0854
N4670 X-0.6166 Y1.0962
N4680 X-0.6185 Y1.1093
N4690 X-0.6233 Y1.1185
N4700 X-0.63 Y1.1296
N4710 X-0.6366 Y1.1392
N4720 X-0.637 Y1.1509
N4730 X-0.6361 Y1.1626
N4740 Y1.1737
N4750 X-0.6352 Y1.1849
N4760 Y1.1962
N4770 X-0.6347 Y1.2078
N4780 X-0.6394 Y1.2202
N4790 X-0.6519 Y1.2187
N4800 X-0.6632 Y1.2202
N4810 X-0.6751
N4820 X-0.6873 Y1.2187
N4830 X-0.6864 Y1.2065
N4840 Y1.194
N4850 X-0.6873 Y1.1819
N4860 X-0.6892 Y1.1695
N4870 X-0.6897 Y1.1576
N4880 Y1.1468
N4890 X-0.6891 Y1.136
N4900 G80
N4910 G0 Z0.45
N4930 M5 M9

(DRILL1)
N4940 S10000 M3 M8
N4950 G0 X3.3998 Y0.8612
N4960 G0 Z0.45
N4980 G0 Z0.05
N4990 G98 G81 X3.3998 Y0.8612 Z-0.0118 R0.0494 F4.
N5000 X3.0891 Y1.1213
N5010 Y1.1105
N5020 Y1.0988
N5030 X3.0885 Y1.087
N5040 Y1.0749
N5050 X3.0894 Y1.0635
N5060 X3.0878 Y1.0507
N5070 X3.0885 Y1.039
N5080 X3.0878 Y1.0272
N5090 X3.0872 Y1.0158
N5100 Y1.0056
N5110 X3.0926 Y0.9938
N5120 X3.092 Y0.983
N5130 X3.0977 Y0.9712
N5140 X3.1075 Y0.9626
N5150 X3.1133 Y0.9544
N5160 X3.1145 Y0.9436
N5170 X3.1095 Y0.9331
N5180 X3.1021 Y0.9235
N5190 X3.1012 Y0.9127
N5200 X3.0942 Y0.9025
N5210 X3.0926 Y0.8911
N5220 X3.0869 Y0.8796
N5230 X3.0792 Y0.8704
N5240 X3.0722 Y0.8609
N5250 X3.0707 Y0.8491
N5260 X3.0767 Y0.8396
N5270 X3.0866 Y0.8361
N5280 X3.0853 Y0.824
N5290 X3.0834 Y0.8109
N5300 X3.0805 Y0.7992
N5310 X3.0808 Y0.7874
N5320 X3.0796 Y0.7772
N5330 X3.0786 Y0.7648
N5340 Y0.7542
N5350 X3.0796 Y0.7413
N5360 X3.0786 Y0.7297
N5370 X3.0781 Y0.7178
N5380 X3.077 Y0.7055
N5390 X3.0773 Y0.693
N5400 X3.0762 Y0.6809
N5410 X3.0755 Y0.6695
N5420 X3.0742 Y0.6583
N5430 X3.0882 Y0.6595
N5440 X3.0993 Y0.66
N5450 X3.1114 Y0.6591
N5460 X3.1227 Y0.6586
N5470 X3.1345 Y0.6573
N5480 X3.1447
N5490 X3.1576 Y0.6574
N5500 X3.169 Y0.6576
N5510 X3.1813 Y0.6577
N5520 X3.1933 Y0.6579
N5530 X3.2056 Y0.6576
N5540 X3.2161 Y0.6573
N5550 X3.228 Y0.657
N5560 X3.2408 Y0.6571
N5570 X3.2522 Y0.6573
N5580 X3.2622 Y0.6574
N5590 X3.2745 Y0.6577
N5600 X3.2873 Y0.6576
N5610 X3.2979 Y0.6586
N5620 X3.3107 Y0.6571
N5630 X3.3218 Y0.6567
N5640 X3.333
N5650 X3.3453 Y0.6574
N5660 X3.3572 Y0.6579
N5670 X3.3671 Y0.6595
N5680 X3.3795
N5690 X3.3906 Y0.6592
N5700 X3.4025 Y0.6589
N5710 X3.4142 Y0.6594
N5720 X3.4263 Y0.66
N5730 X3.426 Y0.6717
N5740 Y0.6835
N5750 X3.4244 Y0.6954
N5760 X3.4254 Y0.7077
N5770 X3.425 Y0.7207
N5780 X3.4242 Y0.732
N5790 X3.4233 Y0.7437
N5800 X3.4217 Y0.7557
N5810 X3.4221 Y0.7674
N5820 X3.4218 Y0.7773
N5830 Y0.7903
N5840 X3.4221 Y0.8007
N5850 X3.422 Y0.814
N5860 X3.4219 Y0.8249
N5870 X3.4221 Y0.8377
N5880 X3.4224 Y0.8501
N5890 X3.4183 Y0.8609
N5900 X3.4113 Y0.872
N5910 X3.404 Y0.8809
N5920 X3.3954 Y0.873
N5930 X3.3877 Y0.8641
N5940 X3.376 Y0.8612
N5950 X3.3652 Y0.8628
N5960 X3.3534 Y0.8656
N5970 X3.3461 Y0.8545
N5980 X3.3346 Y0.858
N5990 X3.3235 Y0.8574
N6000 X3.3111 Y0.8542
N6010 X3.307 Y0.8647
N6020 X3.3057 Y0.8765
N6030 X3.2965 Y0.8828
N6040 X3.2856 Y0.8885
N6050 X3.2841 Y0.8994
N6060 X3.278 Y0.9086
N6070 X3.2716 Y0.9197
N6080 X3.2675 Y0.9312
N6090 X3.2627 Y0.9423
N6100 X3.2586 Y0.9537
N6110 X3.2484 Y0.9474
N6120 X3.2389 Y0.9394
N6130 X3.2259 Y0.9436
N6140 X3.2255 Y0.9528
N6150 X3.2271 Y0.9649
N6160 X3.2284 Y0.9766
N6170 X3.2249 Y0.9897
N6180 X3.229 Y1.0008
N6190 X3.2309 Y1.0138
N6200 X3.2344 Y1.0253
N6210 X3.2246 Y1.032
N6220 X3.2154 Y1.0387
N6230 X3.2039 Y1.0431
N6240 X3.1995 Y1.0542
N6250 X3.1921 Y1.0625
N6260 X3.1848 Y1.0714
N6270 X3.1766 Y1.0794
N6280 X3.167 Y1.086
N6290 X3.1616 Y1.0969
N6300 X3.1597 Y1.1099
N6310 X3.1549 Y1.1191
N6320 X3.1483 Y1.1302
N6330 X3.1416 Y1.1398
N6340 X3.1413 Y1.1516
N6350 X3.1421 Y1.1632
N6360 Y1.1743
N6370 X3.143 Y1.1855
N6380 Y1.1968
N6390 X3.1435 Y1.2084
N6400 X3.1388 Y1.2209
N6410 X3.1264 Y1.2193
N6420 X3.115 Y1.2209
N6430 X3.1031
N6440 X3.0909 Y1.2193
N6450 X3.0918 Y1.2071
N6460 Y1.1947
N6470 X3.0909 Y1.1825
N6480 X3.089 Y1.1701
N6490 X3.0885 Y1.1582
N6500 Y1.1474
N6510 X3.0891 Y1.1366
N6520 G80
N6530 G0 Z0.45
N6550 M5 M9

(DRILL1)
N6560 S10000 M3 M8
N6570 G0 X3.4016 Y-1.6401
N6580 G0 Z0.45
N6600 G0 Z0.05
N6610 G98 G81 X3.4016 Y-1.6401 Z-0.0118 R0.0494 F4.
N6620 X3.0908 Y-1.3799
N6630 Y-1.3907
N6640 Y-1.4025
N6650 X3.0902 Y-1.4143
N6660 Y-1.4263
N6670 X3.0912 Y-1.4378
N6680 X3.0896 Y-1.4505
N6690 X3.0902 Y-1.4623
N6700 X3.0896 Y-1.474
N6710 X3.0889 Y-1.4855
N6720 Y-1.4957
N6730 X3.0943 Y-1.5074
N6740 X3.0937 Y-1.5182
N6750 X3.0994 Y-1.53
N6760 X3.1093 Y-1.5386
N6770 X3.115 Y-1.5469
N6780 X3.1163 Y-1.5577
N6790 X3.1112 Y-1.5682
N6800 X3.1039 Y-1.5777
N6810 X3.1029 Y-1.5885
N6820 X3.0959 Y-1.5987
N6830 X3.0943 Y-1.6102
N6840 X3.0886 Y-1.6216
N6850 X3.081 Y-1.6308
N6860 X3.074 Y-1.6404
N6870 X3.0724 Y-1.6521
N6880 X3.0784 Y-1.6617
N6890 X3.0883 Y-1.6652
N6900 X3.087 Y-1.6773
N6910 X3.0851 Y-1.6903
N6920 X3.0823 Y-1.7021
N6930 X3.0826 Y-1.7138
N6940 X3.0813 Y-1.724
N6950 X3.0803 Y-1.7364
N6960 Y-1.7471
N6970 X3.0814 Y-1.76
N6980 X3.0803 Y-1.7715
N6990 X3.0799 Y-1.7835
N7000 X3.0787 Y-1.7957
N7010 X3.0791 Y-1.8082
N7020 X3.0779 Y-1.8203
N7030 X3.0773 Y-1.8318
N7040 X3.076 Y-1.8429
N7050 X3.0899 Y-1.8417
N7060 X3.101 Y-1.8413
N7070 X3.1132 Y-1.8422
N7080 X3.1244 Y-1.8426
N7090 X3.1363 Y-1.844
N7100 X3.1465
N7110 X3.1594 Y-1.8438
N7120 X3.1708 Y-1.8437
N7130 X3.1831 Y-1.8435
N7140 X3.1951 Y-1.8434
N7150 X3.2074 Y-1.8437
N7160 X3.2179 Y-1.844
N7170 X3.2297 Y-1.8443
N7180 X3.2425 Y-1.8441
N7190 X3.2539 Y-1.844
N7200 X3.264 Y-1.8438
N7210 X3.2763 Y-1.8435
N7220 X3.289 Y-1.8437
N7230 X3.2997 Y-1.8426
N7240 X3.3124 Y-1.8441
N7250 X3.3235 Y-1.8446
N7260 X3.3348
N7270 X3.3471 Y-1.8438
N7280 X3.3589 Y-1.8434
N7290 X3.3688 Y-1.8417
N7300 X3.3813
N7310 X3.3924 Y-1.842
N7320 X3.4042 Y-1.8423
N7330 X3.4159 Y-1.8419
N7340 X3.4281 Y-1.8413
N7350 X3.4278 Y-1.8296
N7360 Y-1.8177
N7370 X3.4261 Y-1.8059
N7380 X3.4272 Y-1.7936
N7390 X3.4267 Y-1.7805
N7400 X3.426 Y-1.7693
N7410 X3.4251 Y-1.7576
N7420 X3.4234 Y-1.7456
N7430 X3.4239 Y-1.7339
N7440 X3.4236 Y-1.724
N7450 Y-1.7109
N7460 X3.4239 Y-1.7006
N7470 X3.4237 Y-1.6872
N7480 X3.4236 Y-1.6764
N7490 X3.4238 Y-1.6636
N7500 X3.4241 Y-1.6512
N7510 X3.42 Y-1.6404
N7520 X3.413 Y-1.6292
N7530 X3.4057 Y-1.6203
N7540 X3.3971 Y-1.6283
N7550 X3.3895 Y-1.6372
N7560 X3.3777 Y-1.6401
N7570 X3.3669 Y-1.6385
N7580 X3.3551 Y-1.6356
N7590 X3.3478 Y-1.6467
N7600 X3.3364 Y-1.6432
N7610 X3.3252 Y-1.6439
N7620 X3.3128 Y-1.6471
N7630 X3.3087 Y-1.6366
N7640 X3.3074 Y-1.6248
N7650 X3.2982 Y-1.6184
N7660 X3.2874 Y-1.6127
N7670 X3.2858 Y-1.6019
N7680 X3.2798 Y-1.5927
N7690 X3.2734 Y-1.5815
N7700 X3.2693 Y-1.5701
N7710 X3.2645 Y-1.559
N7720 X3.2604 Y-1.5475
N7730 X3.2502 Y-1.5539
N7740 X3.2406 Y-1.5618
N7750 X3.2276 Y-1.5577
N7760 X3.2273 Y-1.5485
N7770 X3.2289 Y-1.5364
N7780 X3.2301 Y-1.5246
N7790 X3.2266 Y-1.5116
N7800 X3.2308 Y-1.5004
N7810 X3.2327 Y-1.4874
N7820 X3.2362 Y-1.476
N7830 X3.2263 Y-1.4693
N7840 X3.2171 Y-1.4626
N7850 X3.2057 Y-1.4581
N7860 X3.2012 Y-1.447
N7870 X3.1939 Y-1.4387
N7880 X3.1866 Y-1.4298
N7890 X3.1783 Y-1.4219
N7900 X3.1688 Y-1.4152
N7910 X3.1634 Y-1.4044
N7920 X3.1614 Y-1.3914
N7930 X3.1567 Y-1.3821
N7940 X3.15 Y-1.371
N7950 X3.1433 Y-1.3615
N7960 X3.143 Y-1.3497
N7970 X3.1439 Y-1.3381
N7980 Y-1.327
N7990 X3.1448 Y-1.3157
N8000 Y-1.3044
N8010 X3.1453 Y-1.2928
N8020 X3.1405 Y-1.2804
N8030 X3.1281 Y-1.2819
N8040 X3.1168 Y-1.2804
N8050 X3.1048
N8060 X3.0926 Y-1.2819
N8070 X3.0936 Y-1.2941
N8080 Y-1.3066
N8090 X3.0926 Y-1.3187
N8100 X3.0908 Y-1.3311
N8110 X3.0902 Y-1.343
N8120 Y-1.3538
N8130 X3.0908 Y-1.3646
N8140 G80
N8150 G0 Z0.45
N8170 M5 M9

(DRILL1)
N8180 S10000 M3 M8
N8190 G0 X-0.3769 Y-1.6396
N8200 G0 Z0.45
N8220 G0 Z0.05
N8230 G98 G81 X-0.3769 Y-1.6396 Z-0.0118 R0.0494 F4.
N8240 X-0.6876 Y-1.3795
N8250 Y-1.3903
N8260 Y-1.4021
N8270 X-0.6882 Y-1.4138
N8280 Y-1.4259
N8290 X-0.6873 Y-1.4374
N8300 X-0.6889 Y-1.4501
N8310 X-0.6882 Y-1.4619
N8320 X-0.6889 Y-1.4736
N8330 X-0.6895 Y-1.4851
N8340 Y-1.4953
N8350 X-0.6841 Y-1.507
N8360 X-0.6847 Y-1.5178
N8370 X-0.679 Y-1.5296
N8380 X-0.6691 Y-1.5382
N8390 X-0.6634 Y-1.5465
N8400 X-0.6621 Y-1.5573
N8410 X-0.6672 Y-1.5678
N8420 X-0.6745 Y-1.5773
N8430 X-0.6755 Y-1.5881
N8440 X-0.6825 Y-1.5983
N8450 X-0.6841 Y-1.6097
N8460 X-0.6898 Y-1.6212
N8470 X-0.6974 Y-1.6304
N8480 X-0.7044 Y-1.64
N8490 X-0.706 Y-1.6517
N8500 X-0.7 Y-1.6613
N8510 X-0.6901 Y-1.6648
N8520 X-0.6914 Y-1.6769
N8530 X-0.6933 Y-1.6899
N8540 X-0.6962 Y-1.7017
N8550 X-0.6958 Y-1.7134
N8560 X-0.6971 Y-1.7236
N8570 X-0.6981 Y-1.736
N8580 Y-1.7467
N8590 X-0.6971 Y-1.7596
N8600 X-0.6981 Y-1.7711
N8610 X-0.6986 Y-1.7831
N8620 X-0.6997 Y-1.7953
N8630 X-0.6993 Y-1.8078
N8640 X-0.7005 Y-1.8199
N8650 X-0.7012 Y-1.8314
N8660 X-0.7025 Y-1.8425
N8670 X-0.6885 Y-1.8413
N8680 X-0.6774 Y-1.8409
N8690 X-0.6652 Y-1.8418
N8700 X-0.654 Y-1.8422
N8710 X-0.6421 Y-1.8436
N8720 X-0.6319
N8730 X-0.619 Y-1.8434
N8740 X-0.6076 Y-1.8433
N8750 X-0.5953 Y-1.8431
N8760 X-0.5833 Y-1.843
N8770 X-0.571 Y-1.8433
N8780 X-0.5605 Y-1.8436
N8790 X-0.5487 Y-1.8439
N8800 X-0.5359 Y-1.8437
N8810 X-0.5245 Y-1.8436
N8820 X-0.5145 Y-1.8434
N8830 X-0.5022 Y-1.8431
N8840 X-0.4894 Y-1.8433
N8850 X-0.4788 Y-1.8422
N8860 X-0.466 Y-1.8437
N8870 X-0.4549 Y-1.8442
N8880 X-0.4437
N8890 X-0.4314 Y-1.8434
N8900 X-0.4195 Y-1.843
N8910 X-0.4096 Y-1.8413
N8920 X-0.3971
N8930 X-0.386 Y-1.8416
N8940 X-0.3742 Y-1.8419
N8950 X-0.3625 Y-1.8415
N8960 X-0.3503 Y-1.8409
N8970 X-0.3506 Y-1.8292
N8980 Y-1.8173
N8990 X-0.3523 Y-1.8055
N9000 X-0.3512 Y-1.7932
N9010 X-0.3517 Y-1.7801
N9020 X-0.3524 Y-1.7689
N9030 X-0.3533 Y-1.7572
N9040 X-0.355 Y-1.7452
N9050 X-0.3545 Y-1.7335
N9060 X-0.3548 Y-1.7236
N9070 Y-1.7105
N9080 X-0.3545 Y-1.7002
N9090 X-0.3547 Y-1.6868
N9100 X-0.3548 Y-1.676
N9110 X-0.3546 Y-1.6632
N9120 X-0.3543 Y-1.6508
N9130 X-0.3584 Y-1.64
N9140 X-0.3654 Y-1.6288
N9150 X-0.3727 Y-1.6199
N9160 X-0.3813 Y-1.6279
N9170 X-0.3889 Y-1.6368
N9180 X-0.4007 Y-1.6396
N9190 X-0.4115 Y-1.6381
N9200 X-0.4233 Y-1.6352
N9210 X-0.4306 Y-1.6463
N9220 X-0.4421 Y-1.6428
N9230 X-0.4532 Y-1.6435
N9240 X-0.4656 Y-1.6466
N9250 X-0.4697 Y-1.6361
N9260 X-0.471 Y-1.6244
N9270 X-0.4802 Y-1.618
N9280 X-0.491 Y-1.6123
N9290 X-0.4926 Y-1.6015
N9300 X-0.4987 Y-1.5923
N9310 X-0.505 Y-1.5811
N9320 X-0.5092 Y-1.5697
N9330 X-0.5139 Y-1.5585
N9340 X-0.5181 Y-1.5471
N9350 X-0.5282 Y-1.5535
N9360 X-0.5378 Y-1.5614
N9370 X-0.5508 Y-1.5573
N9380 X-0.5511 Y-1.548
N9390 X-0.5496 Y-1.536
N9400 X-0.5483 Y-1.5242
N9410 X-0.5518 Y-1.5112
N9420 X-0.5476 Y-1.5
N9430 X-0.5457 Y-1.487
N9440 X-0.5422 Y-1.4755
N9450 X-0.5521 Y-1.4689
N9460 X-0.5613 Y-1.4622
N9470 X-0.5728 Y-1.4577
N9480 X-0.5772 Y-1.4466
N9490 X-0.5845 Y-1.4383
N9500 X-0.5919 Y-1.4294
N9510 X-0.6001 Y-1.4215
N9520 X-0.6097 Y-1.4148
N9530 X-0.6151 Y-1.404
N9540 X-0.617 Y-1.3909
N9550 X-0.6217 Y-1.3817
N9560 X-0.6284 Y-1.3706
N9570 X-0.6351 Y-1.361
N9580 X-0.6354 Y-1.3493
N9590 X-0.6346 Y-1.3376
N9600 Y-1.3266
N9610 X-0.6336 Y-1.3153
N9620 Y-1.304
N9630 X-0.6332 Y-1.2924
N9640 X-0.6379 Y-1.28
N9650 X-0.6503 Y-1.2815
N9660 X-0.6617 Y-1.28
N9670 X-0.6736
N9680 X-0.6858 Y-1.2815
N9690 X-0.6849 Y-1.2937
N9700 Y-1.3062
N9710 X-0.6858 Y-1.3183
N9720 X-0.6877 Y-1.3307
N9730 X-0.6882 Y-1.3426
N9740 Y-1.3534
N9750 X-0.6876 Y-1.3642
N9760 G80
N9770 G0 Z0.45
N9790 M5 M9

(DRILL1)
N9800 S10000 M3 M8
N9810 G0 X-0.3777 Y-4.1399
N9820 G0 Z0.45
N9840 G0 Z0.05
N9850 G98 G81 X-0.3777 Y-4.1399 Z-0.0118 R0.0494 F4.
N9860 X-0.6884 Y-3.8797
N9870 Y-3.8905
N9880 Y-3.9023
N9890 X-0.689 Y-3.9141
N9900 Y-3.9262
N9910 X-0.6881 Y-3.9376
N9920 X-0.6897 Y-3.9503
N9930 X-0.689 Y-3.9621
N9940 X-0.6897 Y-3.9739
N9950 X-0.6903 Y-3.9853
N9960 Y-3.9955
N9970 X-0.6849 Y-4.0073
N9980 X-0.6855 Y-4.0181
N9990 X-0.6798 Y-4.0298
N10000 X-0.6699 Y-4.0384
N10010 X-0.6642 Y-4.0467
N10020 X-0.6629 Y-4.0575
N10030 X-0.668 Y-4.068
N10040 X-0.6753 Y-4.0775
N10050 X-0.6763 Y-4.0884
N10060 X-0.6833 Y-4.0985
N10070 X-0.6849 Y-4.11
N10080 X-0.6906 Y-4.1214
N10090 X-0.6982 Y-4.1307
N10100 X-0.7052 Y-4.1402
N10110 X-0.7068 Y-4.152
N10120 X-0.7008 Y-4.1615
N10130 X-0.6909 Y-4.165
N10140 X-0.6922 Y-4.1771
N10150 X-0.6941 Y-4.1901
N10160 X-0.697 Y-4.2019
N10170 X-0.6966 Y-4.2137
N10180 X-0.6979 Y-4.2238
N10190 X-0.6989 Y-4.2362
N10200 Y-4.2469
N10210 X-0.6979 Y-4.2598
N10220 X-0.6989 Y-4.2714
N10230 X-0.6994 Y-4.2833
N10240 X-0.7005 Y-4.2956
N10250 X-0.7001 Y-4.3081
N10260 X-0.7013 Y-4.3201
N10270 X-0.702 Y-4.3316
N10280 X-0.7033 Y-4.3428
N10290 X-0.6893 Y-4.3416
N10300 X-0.6782 Y-4.3411
N10310 X-0.666 Y-4.342
N10320 X-0.6548 Y-4.3425
N10330 X-0.6429 Y-4.3438
N10340 X-0.6327
N10350 X-0.6198 Y-4.3437
N10360 X-0.6084 Y-4.3435
N10370 X-0.5961 Y-4.3434
N10380 X-0.5841 Y-4.3432
N10390 X-0.5718 Y-4.3435
N10400 X-0.5613 Y-4.3438
N10410 X-0.5495 Y-4.3441
N10420 X-0.5367 Y-4.344
N10430 X-0.5253 Y-4.3438
N10440 X-0.5153 Y-4.3437
N10450 X-0.503 Y-4.3434
N10460 X-0.4902 Y-4.3435
N10470 X-0.4796 Y-4.3425
N10480 X-0.4668 Y-4.344
N10490 X-0.4557 Y-4.3444
N10500 X-0.4445
N10510 X-0.4322 Y-4.3437
N10520 X-0.4203 Y-4.3432
N10530 X-0.4104 Y-4.3416
N10540 X-0.398
N10550 X-0.3868 Y-4.3419
N10560 X-0.375 Y-4.3422
N10570 X-0.3633 Y-4.3417
N10580 X-0.3511 Y-4.3411
N10590 X-0.3514 Y-4.3294
N10600 Y-4.3176
N10610 X-0.3531 Y-4.3057
N10620 X-0.352 Y-4.2934
N10630 X-0.3525 Y-4.2804
N10640 X-0.3532 Y-4.2691
N10650 X-0.3541 Y-4.2574
N10660 X-0.3558 Y-4.2454
N10670 X-0.3553 Y-4.2337
N10680 X-0.3556 Y-4.2238
N10690 Y-4.2107
N10700 X-0.3553 Y-4.2004
N10710 X-0.3555 Y-4.187
N10720 X-0.3556 Y-4.1762
N10730 X-0.3554 Y-4.1634
N10740 X-0.3551 Y-4.151
N10750 X-0.3592 Y-4.1402
N10760 X-0.3662 Y-4.1291
N10770 X-0.3735 Y-4.1202
N10780 X-0.3821 Y-4.1281
N10790 X-0.3897 Y-4.137
N10800 X-0.4015 Y-4.1399
N10810 X-0.4123 Y-4.1383
N10820 X-0.4241 Y-4.1354
N10830 X-0.4314 Y-4.1466
N10840 X-0.4429 Y-4.1431
N10850 X-0.454 Y-4.1437
N10860 X-0.4664 Y-4.1469
N10870 X-0.4705 Y-4.1364
N10880 X-0.4718 Y-4.1246
N10890 X-0.481 Y-4.1183
N10900 X-0.4918 Y-4.1125
N10910 X-0.4934 Y-4.1017
N10920 X-0.4995 Y-4.0925
N10930 X-0.5058 Y-4.0814
N10940 X-0.51 Y-4.0699
N10950 X-0.5147 Y-4.0588
N10960 X-0.5189 Y-4.0473
N10970 X-0.529 Y-4.0537
N10980 X-0.5386 Y-4.0616
N10990 X-0.5516 Y-4.0575
N11000 X-0.5519 Y-4.0483
N11010 X-0.5504 Y-4.0362
N11020 X-0.5491 Y-4.0244
N11030 X-0.5526 Y-4.0114
N11040 X-0.5484 Y-4.0003
N11050 X-0.5465 Y-3.9872
N11060 X-0.543 Y-3.9758
N11070 X-0.5529 Y-3.9691
N11080 X-0.5621 Y-3.9624
N11090 X-0.5736 Y-3.958
N11100 X-0.578 Y-3.9468
N11110 X-0.5853 Y-3.9386
N11120 X-0.5927 Y-3.9297
N11130 X-0.6009 Y-3.9217
N11140 X-0.6105 Y-3.915
N11150 X-0.6159 Y-3.9042
N11160 X-0.6178 Y-3.8912
N11170 X-0.6225 Y-3.882
N11180 X-0.6292 Y-3.8708
N11190 X-0.6359 Y-3.8613
N11200 X-0.6362 Y-3.8495
N11210 X-0.6354 Y-3.8379
N11220 Y-3.8268
N11230 X-0.6344 Y-3.8155
N11240 Y-3.8043
N11250 X-0.634 Y-3.7926
N11260 X-0.6387 Y-3.7802
N11270 X-0.6511 Y-3.7817
N11280 X-0.6625 Y-3.7802
N11290 X-0.6744
N11300 X-0.6866 Y-3.7817
N11310 X-0.6857 Y-3.794
N11320 Y-3.8064
N11330 X-0.6866 Y-3.8185
N11340 X-0.6885 Y-3.831
N11350 X-0.689 Y-3.8428
N11360 Y-3.8537
N11370 X-0.6884 Y-3.8645
N11380 G80
N11390 G0 Z0.45
N11410 M5 M9

(DRILL1)
N11420 S10000 M3 M8
N11430 G0 X3.401 Y-4.1395
N11440 G0 Z0.45
N11460 G0 Z0.05
N11470 G98 G81 X3.401 Y-4.1395 Z-0.0118 R0.0494 F4.
N11480 X3.0903 Y-3.8794
N11490 Y-3.8902
N11500 Y-3.902
N11510 X3.0897 Y-3.9137
N11520 Y-3.9258
N11530 X3.0906 Y-3.9373
N11540 X3.089 Y-3.95
N11550 X3.0897 Y-3.9618
N11560 X3.089 Y-3.9735
N11570 X3.0884 Y-3.985
N11580 Y-3.9951
N11590 X3.0938 Y-4.0069
N11600 X3.0932 Y-4.0177
N11610 X3.0989 Y-4.0295
N11620 X3.1088 Y-4.0381
N11630 X3.1145 Y-4.0463
N11640 X3.1158 Y-4.0572
N11650 X3.1107 Y-4.0677
N11660 X3.1034 Y-4.0772
N11670 X3.1024 Y-4.088
N11680 X3.0954 Y-4.0982
N11690 X3.0938 Y-4.1096
N11700 X3.0881 Y-4.1211
N11710 X3.0805 Y-4.1303
N11720 X3.0735 Y-4.1398
N11730 X3.0719 Y-4.1516
N11740 X3.0779 Y-4.1612
N11750 X3.0878 Y-4.1647
N11760 X3.0865 Y-4.1767
N11770 X3.0846 Y-4.1898
N11780 X3.0817 Y-4.2015
N11790 X3.082 Y-4.2133
N11800 X3.0808 Y-4.2235
N11810 X3.0798 Y-4.2359
N11820 Y-4.2466
N11830 X3.0808 Y-4.2595
N11840 X3.0798 Y-4.271
N11850 X3.0793 Y-4.283
N11860 X3.0782 Y-4.2952
N11870 X3.0785 Y-4.3077
N11880 X3.0774 Y-4.3198
N11890 X3.0767 Y-4.3313
N11900 X3.0754 Y-4.3424
N11910 X3.0894 Y-4.3412
N11920 X3.1005 Y-4.3408
N11930 X3.1127 Y-4.3417
N11940 X3.1239 Y-4.3421
N11950 X3.1358 Y-4.3435
N11960 X3.146
N11970 X3.1589 Y-4.3433
N11980 X3.1703 Y-4.3432
N11990 X3.1826 Y-4.343
N12000 X3.1946 Y-4.3429
N12010 X3.2069 Y-4.3432
N12020 X3.2174 Y-4.3435
N12030 X3.2292 Y-4.3438
N12040 X3.242 Y-4.3436
N12050 X3.2534 Y-4.3435
N12060 X3.2634 Y-4.3433
N12070 X3.2757 Y-4.343
N12080 X3.2885 Y-4.3432
N12090 X3.2991 Y-4.3421
N12100 X3.3119 Y-4.3436
N12110 X3.323 Y-4.3441
N12120 X3.3342
N12130 X3.3465 Y-4.3433
N12140 X3.3584 Y-4.3429
N12150 X3.3683 Y-4.3412
N12160 X3.3807
N12170 X3.3918 Y-4.3415
N12180 X3.4037 Y-4.3418
N12190 X3.4154 Y-4.3414
N12200 X3.4276 Y-4.3408
N12210 X3.4273 Y-4.3291
N12220 Y-4.3172
N12230 X3.4256 Y-4.3054
N12240 X3.4267 Y-4.2931
N12250 X3.4262 Y-4.28
N12260 X3.4255 Y-4.2688
N12270 X3.4246 Y-4.2571
N12280 X3.4229 Y-4.2451
N12290 X3.4234 Y-4.2333
N12300 X3.4231 Y-4.2234
N12310 Y-4.2104
N12320 X3.4234 Y-4.2
N12330 X3.4232 Y-4.1867
N12340 X3.4231 Y-4.1759
N12350 X3.4233 Y-4.1631
N12360 X3.4236 Y-4.1507
N12370 X3.4195 Y-4.1398
N12380 X3.4125 Y-4.1287
N12390 X3.4052 Y-4.1198
N12400 X3.3966 Y-4.1278
N12410 X3.3889 Y-4.1367
N12420 X3.3772 Y-4.1395
N12430 X3.3664 Y-4.1379
N12440 X3.3546 Y-4.1351
N12450 X3.3473 Y-4.1462
N12460 X3.3358 Y-4.1427
N12470 X3.3247 Y-4.1433
N12480 X3.3123 Y-4.1465
N12490 X3.3082 Y-4.136
N12500 X3.3069 Y-4.1243
N12510 X3.2977 Y-4.1179
N12520 X3.2869 Y-4.1122
N12530 X3.2853 Y-4.1014
N12540 X3.2792 Y-4.0921
N12550 X3.2729 Y-4.081
N12560 X3.2687 Y-4.0696
N12570 X3.264 Y-4.0584
N12580 X3.2598 Y-4.047
N12590 X3.2497 Y-4.0533
N12600 X3.2401 Y-4.0613
N12610 X3.2271 Y-4.0572
N12620 X3.2268 Y-4.0479
N12630 X3.2283 Y-4.0359
N12640 X3.2296 Y-4.0241
N12650 X3.2261 Y-4.011
N12660 X3.2303 Y-3.9999
N12670 X3.2322 Y-3.9869
N12680 X3.2357 Y-3.9754
N12690 X3.2258 Y-3.9687
N12700 X3.2166 Y-3.9621
N12710 X3.2051 Y-3.9576
N12720 X3.2007 Y-3.9465
N12730 X3.1934 Y-3.9382
N12740 X3.186 Y-3.9293
N12750 X3.1778 Y-3.9214
N12760 X3.1682 Y-3.9147
N12770 X3.1628 Y-3.9039
N12780 X3.1609 Y-3.8908
N12790 X3.1561 Y-3.8816
N12800 X3.1495 Y-3.8705
N12810 X3.1428 Y-3.8609
N12820 X3.1425 Y-3.8492
N12830 X3.1433 Y-3.8375
N12840 Y-3.8265
N12850 X3.1443 Y-3.8152
N12860 Y-3.8039
N12870 X3.1447 Y-3.7923
N12880 X3.14 Y-3.7799
N12890 X3.1276 Y-3.7814
N12900 X3.1162 Y-3.7799
N12910 X3.1043
N12920 X3.0921 Y-3.7814
N12930 X3.093 Y-3.7936
N12940 Y-3.8061
N12950 X3.0921 Y-3.8182
N12960 X3.0902 Y-3.8306
N12970 X3.0897 Y-3.8425
N12980 Y-3.8533
N12990 X3.0903 Y-3.8641
N13000 G80
N13010 G0 Z0.45
N13030 M5 M9

N13040 G30
N13050 M30
%
