%
(*************************************)
(* Generated by wtopace for EntityX  *)
(* Date: 3/31/2016                   *)
(*************************************)
(1001)
(PROJECT5-REVERSED)
(T1  D=0.0039 CR=0. TAPER=118DEG - ZMIN=-0.01 - DRILL)
N10 G90 G54 G64 G50 G17 G40 G80 G94 G91.1 G49
N20 G20 (Inch)
N30 G30

(DRILL2 2)
N50 G30
N60 T1 G43 H1 M6
N70 S10000 M3 M8
N80 G54
N90 G0 X5.0303 Y-1.8056
N100 G0 Z0.5006
N120 G0 Z0.1006
N130 G98 G81 X5.0303 Y-1.8056 Z-0.01 R0.1 F4.
N140 X5.0188
N150 X5.005
N160 X4.992
N170 X4.9801
N180 X4.967
N190 X4.9543
N200 X4.9418
N210 X4.929
N220 X4.9169
N230 X4.904
N240 X4.8908
N250 X4.8784
N260 X4.8655
N270 X4.8525
N280 X4.839
N290 X4.8272
N300 X4.8137
N310 X4.8006
N320 X4.7886
N330 X4.7754
N340 X4.7629
N350 X4.7503
N360 X4.7375
N370 X4.7255
N380 X4.7123
N390 X4.6992
N400 X4.6868
N410 X4.6742
N420 X4.6609
N430 X4.6493
N440 X4.6369
N450 X4.6222 Y-1.807
N460 Y-1.82
N470 X4.6213 Y-1.8327
N480 Y-1.8453
N490 Y-1.8583
N500 X4.6202 Y-1.8704
N510 Y-1.8832
N520 Y-1.8964
N530 X4.6189 Y-1.909
N540 Y-1.9219
N550 Y-1.9349
N560 X4.6179 Y-1.945
N570 Y-1.9565
N580 Y-1.9702
N590 X4.6166 Y-1.9834
N600 Y-1.9956
N610 Y-2.0086
N620 X4.6156 Y-2.0209
N630 Y-2.0338
N640 Y-2.0468
N650 X4.6144 Y-2.0588
N660 Y-2.0718
N670 Y-2.0849
N680 X4.6132 Y-2.0977
N690 Y-2.1101
N700 Y-2.1235
N710 Y-2.1367
N720 X4.6116 Y-2.148
N730 Y-2.162
N740 Y-2.1751
N750 Y-2.187
N760 X4.6101 Y-2.2002
N770 Y-2.2129
N780 Y-2.2255
N790 Y-2.2378
N800 Y-2.2502
N810 X4.6079 Y-2.2628
N820 Y-2.2764
N830 Y-2.2892
N840 Y-2.3018
N850 Y-2.3149
N860 X4.6061 Y-2.3271
N870 Y-2.3403
N880 Y-2.3533
N890 X4.6163 Y-2.3503
N900 X4.6286 Y-2.3437
N910 X4.6392 Y-2.3399
N920 X4.6519 Y-2.3437
N930 X4.6543 Y-2.3573
N940 Y-2.3687
N950 Y-2.3815
N960 X4.6503 Y-2.3923
N970 X4.6483 Y-2.4043
N980 X4.6443 Y-2.4155
N990 X4.6403 Y-2.4299
N1000 Y-2.4462
N1010 X4.6503 Y-2.4408
N1020 X4.6611 Y-2.4308
N1030 X4.6704 Y-2.4222
N1040 X4.6781 Y-2.4152
N1050 X4.6882 Y-2.406
N1060 X4.6975 Y-2.3969
N1070 X4.7054 Y-2.3887
N1080 X4.7151 Y-2.3801
N1090 X4.7245 Y-2.3715
N1100 X4.7336 Y-2.3627
N1110 X4.7431 Y-2.3537
N1120 X4.7527 Y-2.3448
N1130 X4.7618 Y-2.3366
N1140 X4.7707 Y-2.3281
N1150 X4.7804 Y-2.3194
N1160 X4.7895 Y-2.311
N1170 X4.7994 Y-2.3021
N1180 X4.8083 Y-2.2935
N1190 X4.8177 Y-2.2853
N1200 X4.8274 Y-2.2754
N1210 X4.8361 Y-2.2677
N1220 X4.8464 Y-2.2585
N1230 X4.8572 Y-2.2485
N1240 X4.8663 Y-2.2401
N1250 X4.8741 Y-2.2329
N1260 X4.8843 Y-2.2236
N1270 X4.9014 Y-2.2068
N1280 X4.8934 Y-2.2149
N1290 X4.9111 Y-2.1978
N1300 X4.9204 Y-2.1893
N1310 X4.9296 Y-2.1806
N1320 X4.9393 Y-2.1717
N1330 X4.9489 Y-2.1629
N1340 X4.9577 Y-2.1546
N1350 X4.9671 Y-2.146
N1360 X4.9762 Y-2.1375
N1370 X4.9856 Y-2.1289
N1380 X4.9951 Y-2.1199
N1390 X5.0041 Y-2.1118
N1400 X5.0136 Y-2.103
N1410 X5.0236 Y-2.0936
N1420 X5.0321 Y-2.0857
N1430 Y-2.0728
N1440 Y-2.0581
N1450 Y-2.0456
N1460 Y-2.0352
N1470 Y-2.0211
N1480 Y-2.0085
N1490 X5.0303 Y-1.9971
N1500 Y-1.984
N1510 Y-1.9713
N1520 Y-1.9585
N1530 Y-1.9454
N1540 Y-1.932
N1550 Y-1.9203
N1560 Y-1.9075
N1570 Y-1.895
N1580 Y-1.8823
N1590 Y-1.8688
N1600 Y-1.857
N1610 Y-1.83
N1620 Y-1.8436
N1630 Y-1.8183
N1640 G80
N1650 G0 Z0.5006
N1670 M5 M9

(DRILL2 2)
N1680 S10000 M3 M8
N1690 G0 X1.2465 Y-1.8023
N1700 G0 Z0.5006
N1720 G0 Z0.1006
N1730 G98 G81 X1.2465 Y-1.8023 Z-0.01 R0.1 F4.
N1740 X1.235
N1750 X1.2213
N1760 X1.2083
N1770 X1.1963
N1780 X1.1832
N1790 X1.1705
N1800 X1.158
N1810 X1.1453
N1820 X1.1331
N1830 X1.1202
N1840 X1.107
N1850 X1.0946
N1860 X1.0818
N1870 X1.0687
N1880 X1.0552
N1890 X1.0434
N1900 X1.03
N1910 X1.0168
N1920 X1.0048
N1930 X0.9916
N1940 X0.9791
N1950 X0.9666
N1960 X0.9537
N1970 X0.9417
N1980 X0.9285
N1990 X0.9154
N2000 X0.903
N2010 X0.8904
N2020 X0.8771
N2030 X0.8655
N2040 X0.8531
N2050 X0.8385 Y-1.8037
N2060 Y-1.8167
N2070 X0.8375 Y-1.8294
N2080 Y-1.842
N2090 Y-1.8549
N2100 X0.8364 Y-1.867
N2110 Y-1.8799
N2120 Y-1.8931
N2130 X0.8351 Y-1.9057
N2140 Y-1.9185
N2150 Y-1.9316
N2160 X0.8341 Y-1.9417
N2170 Y-1.9532
N2180 Y-1.9669
N2190 X0.8328 Y-1.9801
N2200 Y-1.9922
N2210 Y-2.0053
N2220 X0.8318 Y-2.0176
N2230 Y-2.0305
N2240 Y-2.0435
N2250 X0.8306 Y-2.0555
N2260 Y-2.0685
N2270 Y-2.0816
N2280 X0.8294 Y-2.0944
N2290 Y-2.1068
N2300 Y-2.1201
N2310 Y-2.1334
N2320 X0.8279 Y-2.1447
N2330 Y-2.1587
N2340 Y-2.1718
N2350 Y-2.1836
N2360 X0.8263 Y-2.1969
N2370 Y-2.2095
N2380 Y-2.2222
N2390 Y-2.2345
N2400 Y-2.2468
N2410 X0.8242 Y-2.2595
N2420 Y-2.273
N2430 Y-2.2858
N2440 Y-2.2985
N2450 Y-2.3116
N2460 X0.8223 Y-2.3237
N2470 Y-2.337
N2480 Y-2.3499
N2490 X0.8325 Y-2.347
N2500 X0.8448 Y-2.3404
N2510 X0.8555 Y-2.3365
N2520 X0.8681 Y-2.3404
N2530 X0.8706 Y-2.354
N2540 Y-2.3654
N2550 Y-2.3782
N2560 X0.8665 Y-2.3889
N2570 X0.8645 Y-2.401
N2580 X0.8605 Y-2.4122
N2590 X0.8565 Y-2.4265
N2600 Y-2.4429
N2610 X0.8665 Y-2.4375
N2620 X0.8773 Y-2.4275
N2630 X0.8866 Y-2.4188
N2640 X0.8943 Y-2.4119
N2650 X0.9045 Y-2.4027
N2660 X0.9137 Y-2.3936
N2670 X0.9216 Y-2.3854
N2680 X0.9313 Y-2.3768
N2690 X0.9407 Y-2.3681
N2700 X0.9498 Y-2.3593
N2710 X0.9593 Y-2.3504
N2720 X0.9689 Y-2.3415
N2730 X0.978 Y-2.3333
N2740 X0.9869 Y-2.3248
N2750 X0.9966 Y-2.316
N2760 X1.0057 Y-2.3077
N2770 X1.0156 Y-2.2988
N2780 X1.0245 Y-2.2901
N2790 X1.0339 Y-2.282
N2800 X1.0436 Y-2.2721
N2810 X1.0523 Y-2.2644
N2820 X1.0626 Y-2.2552
N2830 X1.0734 Y-2.2451
N2840 X1.0825 Y-2.2368
N2850 X1.0903 Y-2.2296
N2860 X1.1005 Y-2.2203
N2870 X1.1176 Y-2.2035
N2880 X1.1096 Y-2.2115
N2890 X1.1273 Y-2.1944
N2900 X1.1366 Y-2.186
N2910 X1.1458 Y-2.1773
N2920 X1.1555 Y-2.1684
N2930 X1.1651 Y-2.1596
N2940 X1.1739 Y-2.1513
N2950 X1.1833 Y-2.1426
N2960 X1.1924 Y-2.1342
N2970 X1.2018 Y-2.1255
N2980 X1.2113 Y-2.1166
N2990 X1.2203 Y-2.1084
N3000 X1.2298 Y-2.0996
N3010 X1.2398 Y-2.0902
N3020 X1.2483 Y-2.0824
N3030 Y-2.0694
N3040 Y-2.0548
N3050 Y-2.0423
N3060 Y-2.0318
N3070 Y-2.0178
N3080 Y-2.0052
N3090 X1.2465 Y-1.9938
N3100 Y-1.9807
N3110 Y-1.968
N3120 Y-1.9552
N3130 Y-1.9421
N3140 Y-1.9287
N3150 Y-1.917
N3160 Y-1.9042
N3170 Y-1.8917
N3180 Y-1.8789
N3190 Y-1.8655
N3200 Y-1.8537
N3210 Y-1.8267
N3220 Y-1.8403
N3230 Y-1.815
N3240 G80
N3250 G0 Z0.5006
N3270 M5 M9

(DRILL2 2)
N3280 S10000 M3 M8
N3290 G0 X5.0312 Y-4.3065
N3300 G0 Z0.5006
N3320 G0 Z0.1006
N3330 G98 G81 X5.0312 Y-4.3065 Z-0.01 R0.1 F4.
N3340 X5.0197
N3350 X5.006
N3360 X4.993
N3370 X4.981
N3380 X4.9679
N3390 X4.9553
N3400 X4.9428
N3410 X4.93
N3420 X4.9178
N3430 X4.9049
N3440 X4.8918
N3450 X4.8794
N3460 X4.8665
N3470 X4.8534
N3480 X4.84
N3490 X4.8282
N3500 X4.8147
N3510 X4.8015
N3520 X4.7895
N3530 X4.7764
N3540 X4.7639
N3550 X4.7513
N3560 X4.7384
N3570 X4.7264
N3580 X4.7132
N3590 X4.7002
N3600 X4.6878
N3610 X4.6751
N3620 X4.6618
N3630 X4.6502
N3640 X4.6379
N3650 X4.6232 Y-4.308
N3660 Y-4.3209
N3670 X4.6222 Y-4.3336
N3680 Y-4.3462
N3690 Y-4.3592
N3700 X4.6211 Y-4.3713
N3710 Y-4.3841
N3720 Y-4.3973
N3730 X4.6198 Y-4.4099
N3740 Y-4.4228
N3750 Y-4.4359
N3760 X4.6188 Y-4.446
N3770 Y-4.4574
N3780 Y-4.4711
N3790 X4.6176 Y-4.4843
N3800 Y-4.4965
N3810 Y-4.5096
N3820 X4.6166 Y-4.5218
N3830 Y-4.5347
N3840 Y-4.5477
N3850 X4.6154 Y-4.5597
N3860 Y-4.5728
N3870 Y-4.5858
N3880 X4.6141 Y-4.5986
N3890 Y-4.611
N3900 Y-4.6244
N3910 Y-4.6376
N3920 X4.6126 Y-4.6489
N3930 Y-4.6629
N3940 Y-4.676
N3950 Y-4.6879
N3960 X4.6111 Y-4.7011
N3970 Y-4.7138
N3980 Y-4.7264
N3990 Y-4.7387
N4000 Y-4.7511
N4010 X4.6089 Y-4.7637
N4020 Y-4.7773
N4030 Y-4.7901
N4040 Y-4.8027
N4050 Y-4.8158
N4060 X4.6071 Y-4.828
N4070 Y-4.8412
N4080 Y-4.8542
N4090 X4.6172 Y-4.8513
N4100 X4.6296 Y-4.8446
N4110 X4.6402 Y-4.8408
N4120 X4.6528 Y-4.8446
N4130 X4.6553 Y-4.8582
N4140 Y-4.8696
N4150 Y-4.8824
N4160 X4.6513 Y-4.8932
N4170 X4.6493 Y-4.9052
N4180 X4.6453 Y-4.9164
N4190 X4.6413 Y-4.9308
N4200 Y-4.9471
N4210 X4.6513 Y-4.9417
N4220 X4.6621 Y-4.9317
N4230 X4.6713 Y-4.9231
N4240 X4.679 Y-4.9161
N4250 X4.6892 Y-4.9069
N4260 X4.6985 Y-4.8978
N4270 X4.7063 Y-4.8896
N4280 X4.716 Y-4.881
N4290 X4.7254 Y-4.8724
N4300 X4.7345 Y-4.8636
N4310 X4.7441 Y-4.8546
N4320 X4.7536 Y-4.8457
N4330 X4.7627 Y-4.8375
N4340 X4.7717 Y-4.8291
N4350 X4.7814 Y-4.8203
N4360 X4.7905 Y-4.8119
N4370 X4.8003 Y-4.803
N4380 X4.8093 Y-4.7944
N4390 X4.8187 Y-4.7862
N4400 X4.8284 Y-4.7763
N4410 X4.837 Y-4.7686
N4420 X4.8473 Y-4.7594
N4430 X4.8581 Y-4.7494
N4440 X4.8672 Y-4.7411
N4450 X4.8751 Y-4.7338
N4460 X4.8853 Y-4.7246
N4470 X4.9024 Y-4.7078
N4480 X4.8943 Y-4.7158
N4490 X4.9121 Y-4.6987
N4500 X4.9213 Y-4.6902
N4510 X4.9306 Y-4.6816
N4520 X4.9403 Y-4.6726
N4530 X4.9498 Y-4.6638
N4540 X4.9586 Y-4.6555
N4550 X4.968 Y-4.6469
N4560 X4.9771 Y-4.6384
N4570 X4.9865 Y-4.6298
N4580 X4.9961 Y-4.6208
N4590 X5.005 Y-4.6127
N4600 X5.0146 Y-4.6039
N4610 X5.0246 Y-4.5945
N4620 X5.0331 Y-4.5866
N4630 Y-4.5737
N4640 Y-4.559
N4650 Y-4.5465
N4660 Y-4.5361
N4670 Y-4.522
N4680 Y-4.5094
N4690 X5.0312 Y-4.498
N4700 Y-4.4849
N4710 Y-4.4723
N4720 Y-4.4595
N4730 Y-4.4464
N4740 Y-4.433
N4750 Y-4.4212
N4760 Y-4.4084
N4770 Y-4.396
N4780 Y-4.3832
N4790 Y-4.3698
N4800 Y-4.3579
N4810 Y-4.3309
N4820 Y-4.3445
N4830 Y-4.3192
N4840 G80
N4850 G0 Z0.5006
N4870 M5 M9

(DRILL2 2)
N4880 S10000 M3 M8
N4890 G0 X1.2471 Y-4.3097
N4900 G0 Z0.5006
N4920 G0 Z0.1006
N4930 G98 G81 X1.2471 Y-4.3097 Z-0.01 R0.1 F4.
N4940 X1.2356
N4950 X1.2219
N4960 X1.2089
N4970 X1.1969
N4980 X1.1838
N4990 X1.1711
N5000 X1.1587
N5010 X1.1459
N5020 X1.1337
N5030 X1.1208
N5040 X1.1076
N5050 X1.0953
N5060 X1.0824
N5070 X1.0693
N5080 X1.0558
N5090 X1.044
N5100 X1.0306
N5110 X1.0174
N5120 X1.0054
N5130 X0.9922
N5140 X0.9797
N5150 X0.9672
N5160 X0.9543
N5170 X0.9423
N5180 X0.9291
N5190 X0.916
N5200 X0.9037
N5210 X0.891
N5220 X0.8777
N5230 X0.8661
N5240 X0.8537
N5250 X0.8391 Y-4.3112
N5260 Y-4.3241
N5270 X0.8381 Y-4.3368
N5280 Y-4.3494
N5290 Y-4.3624
N5300 X0.837 Y-4.3745
N5310 Y-4.3874
N5320 Y-4.4005
N5330 X0.8357 Y-4.4131
N5340 Y-4.426
N5350 Y-4.4391
N5360 X0.8347 Y-4.4492
N5370 Y-4.4607
N5380 Y-4.4743
N5390 X0.8334 Y-4.4875
N5400 Y-4.4997
N5410 Y-4.5128
N5420 X0.8324 Y-4.5251
N5430 Y-4.5379
N5440 Y-4.5509
N5450 X0.8312 Y-4.5629
N5460 Y-4.576
N5470 Y-4.589
N5480 X0.83 Y-4.6018
N5490 Y-4.6142
N5500 Y-4.6276
N5510 Y-4.6408
N5520 X0.8285 Y-4.6521
N5530 Y-4.6661
N5540 Y-4.6792
N5550 Y-4.6911
N5560 X0.8269 Y-4.7043
N5570 Y-4.717
N5580 Y-4.7296
N5590 Y-4.7419
N5600 Y-4.7543
N5610 X0.8248 Y-4.7669
N5620 Y-4.7805
N5630 Y-4.7933
N5640 Y-4.8059
N5650 Y-4.819
N5660 X0.8229 Y-4.8312
N5670 Y-4.8444
N5680 Y-4.8574
N5690 X0.8331 Y-4.8545
N5700 X0.8454 Y-4.8478
N5710 X0.8561 Y-4.844
N5720 X0.8687 Y-4.8478
N5730 X0.8712 Y-4.8614
N5740 Y-4.8728
N5750 Y-4.8856
N5760 X0.8672 Y-4.8964
N5770 X0.8652 Y-4.9084
N5780 X0.8611 Y-4.9197
N5790 X0.8571 Y-4.934
N5800 Y-4.9503
N5810 X0.8672 Y-4.9449
N5820 X0.8779 Y-4.9349
N5830 X0.8872 Y-4.9263
N5840 X0.8949 Y-4.9193
N5850 X0.9051 Y-4.9101
N5860 X0.9143 Y-4.901
N5870 X0.9222 Y-4.8928
N5880 X0.9319 Y-4.8842
N5890 X0.9413 Y-4.8756
N5900 X0.9504 Y-4.8668
N5910 X0.9599 Y-4.8579
N5920 X0.9695 Y-4.8489
N5930 X0.9786 Y-4.8407
N5940 X0.9875 Y-4.8323
N5950 X0.9972 Y-4.8235
N5960 X1.0063 Y-4.8152
N5970 X1.0162 Y-4.8062
N5980 X1.0251 Y-4.7976
N5990 X1.0345 Y-4.7894
N6000 X1.0443 Y-4.7796
N6010 X1.0529 Y-4.7719
N6020 X1.0632 Y-4.7626
N6030 X1.074 Y-4.7526
N6040 X1.0831 Y-4.7443
N6050 X1.091 Y-4.737
N6060 X1.1011 Y-4.7278
N6070 X1.1182 Y-4.711
N6080 X1.1102 Y-4.719
N6090 X1.1279 Y-4.7019
N6100 X1.1372 Y-4.6934
N6110 X1.1464 Y-4.6848
N6120 X1.1561 Y-4.6758
N6130 X1.1657 Y-4.667
N6140 X1.1745 Y-4.6587
N6150 X1.1839 Y-4.6501
N6160 X1.193 Y-4.6416
N6170 X1.2024 Y-4.633
N6180 X1.2119 Y-4.624
N6190 X1.2209 Y-4.6159
N6200 X1.2304 Y-4.6071
N6210 X1.2405 Y-4.5977
N6220 X1.2489 Y-4.5898
N6230 Y-4.5769
N6240 Y-4.5622
N6250 Y-4.5498
N6260 Y-4.5393
N6270 Y-4.5252
N6280 Y-4.5126
N6290 X1.2471 Y-4.5012
N6300 Y-4.4881
N6310 Y-4.4755
N6320 Y-4.4627
N6330 Y-4.4496
N6340 Y-4.4362
N6350 Y-4.4244
N6360 Y-4.4117
N6370 Y-4.3992
N6380 Y-4.3864
N6390 Y-4.373
N6400 Y-4.3611
N6410 Y-4.3341
N6420 Y-4.3477
N6430 Y-4.3224
N6440 G80
N6450 G0 Z0.5006
N6470 M5 M9

(DRILL2 2)
N6480 S10000 M3 M8
N6490 G0 X5.0306 Y-6.7995
N6500 G0 Z0.5006
N6520 G0 Z0.1006
N6530 G98 G81 X5.0306 Y-6.7995 Z-0.01 R0.1 F4.
N6540 X5.0191
N6550 X5.0054
N6560 X4.9924
N6570 X4.9804
N6580 X4.9673
N6590 X4.9546
N6600 X4.9422
N6610 X4.9294
N6620 X4.9172
N6630 X4.9043
N6640 X4.8911
N6650 X4.8788
N6660 X4.8659
N6670 X4.8528
N6680 X4.8393
N6690 X4.8275
N6700 X4.8141
N6710 X4.8009
N6720 X4.7889
N6730 X4.7757
N6740 X4.7633
N6750 X4.7507
N6760 X4.7378
N6770 X4.7258
N6780 X4.7126
N6790 X4.6996
N6800 X4.6872
N6810 X4.6745
N6820 X4.6612
N6830 X4.6496
N6840 X4.6372
N6850 X4.6226 Y-6.8009
N6860 Y-6.8139
N6870 X4.6216 Y-6.8266
N6880 Y-6.8392
N6890 Y-6.8521
N6900 X4.6205 Y-6.8642
N6910 Y-6.8771
N6920 Y-6.8903
N6930 X4.6192 Y-6.9029
N6940 Y-6.9157
N6950 Y-6.9288
N6960 X4.6182 Y-6.9389
N6970 Y-6.9504
N6980 Y-6.9641
N6990 X4.6169 Y-6.9773
N7000 Y-6.9894
N7010 Y-7.0025
N7020 X4.6159 Y-7.0148
N7030 Y-7.0277
N7040 Y-7.0407
N7050 X4.6148 Y-7.0527
N7060 Y-7.0657
N7070 Y-7.0788
N7080 X4.6135 Y-7.0915
N7090 Y-7.104
N7100 Y-7.1173
N7110 Y-7.1306
N7120 X4.612 Y-7.1418
N7130 Y-7.1559
N7140 Y-7.169
N7150 Y-7.1808
N7160 X4.6104 Y-7.1941
N7170 Y-7.2067
N7180 Y-7.2194
N7190 Y-7.2317
N7200 Y-7.244
N7210 X4.6083 Y-7.2567
N7220 Y-7.2702
N7230 Y-7.283
N7240 Y-7.2957
N7250 Y-7.3088
N7260 X4.6064 Y-7.3209
N7270 Y-7.3342
N7280 Y-7.3471
N7290 X4.6166 Y-7.3442
N7300 X4.6289 Y-7.3376
N7310 X4.6396 Y-7.3337
N7320 X4.6522 Y-7.3376
N7330 X4.6547 Y-7.3512
N7340 Y-7.3626
N7350 Y-7.3754
N7360 X4.6507 Y-7.3861
N7370 X4.6487 Y-7.3982
N7380 X4.6447 Y-7.4094
N7390 X4.6407 Y-7.4237
N7400 Y-7.4401
N7410 X4.6507 Y-7.4347
N7420 X4.6615 Y-7.4247
N7430 X4.6707 Y-7.416
N7440 X4.6784 Y-7.4091
N7450 X4.6886 Y-7.3999
N7460 X4.6978 Y-7.3908
N7470 X4.7057 Y-7.3826
N7480 X4.7154 Y-7.374
N7490 X4.7248 Y-7.3653
N7500 X4.7339 Y-7.3565
N7510 X4.7435 Y-7.3476
N7520 X4.753 Y-7.3387
N7530 X4.7621 Y-7.3305
N7540 X4.771 Y-7.322
N7550 X4.7808 Y-7.3132
N7560 X4.7898 Y-7.3049
N7570 X4.7997 Y-7.296
N7580 X4.8086 Y-7.2873
N7590 X4.8181 Y-7.2792
N7600 X4.8278 Y-7.2693
N7610 X4.8364 Y-7.2616
N7620 X4.8467 Y-7.2524
N7630 X4.8575 Y-7.2423
N7640 X4.8666 Y-7.234
N7650 X4.8745 Y-7.2268
N7660 X4.8846 Y-7.2175
N7670 X4.9017 Y-7.2007
N7680 X4.8937 Y-7.2087
N7690 X4.9115 Y-7.1916
N7700 X4.9207 Y-7.1832
N7710 X4.9299 Y-7.1745
N7720 X4.9397 Y-7.1656
N7730 X4.9492 Y-7.1568
N7740 X4.958 Y-7.1485
N7750 X4.9674 Y-7.1398
N7760 X4.9765 Y-7.1314
N7770 X4.9859 Y-7.1227
N7780 X4.9955 Y-7.1138
N7790 X5.0044 Y-7.1056
N7800 X5.0139 Y-7.0968
N7810 X5.024 Y-7.0874
N7820 X5.0324 Y-7.0796
N7830 Y-7.0666
N7840 Y-7.052
N7850 Y-7.0395
N7860 Y-7.029
N7870 Y-7.015
N7880 Y-7.0024
N7890 X5.0306 Y-6.991
N7900 Y-6.9779
N7910 Y-6.9652
N7920 Y-6.9524
N7930 Y-6.9393
N7940 Y-6.9259
N7950 Y-6.9142
N7960 Y-6.9014
N7970 Y-6.8889
N7980 Y-6.8761
N7990 Y-6.8627
N8000 Y-6.8509
N8010 Y-6.8239
N8020 Y-6.8374
N8030 Y-6.8122
N8040 G80
N8050 G0 Z0.5006
N8070 M5 M9

(DRILL2 2)
N8080 S10000 M3 M8
N8090 G0 X1.2464 Y-6.8029
N8100 G0 Z0.5006
N8120 G0 Z0.1006
N8130 G98 G81 X1.2464 Y-6.8029 Z-0.01 R0.1 F4.
N8140 X1.2348
N8150 X1.2211
N8160 X1.2081
N8170 X1.1961
N8180 X1.1831
N8190 X1.1704
N8200 X1.1579
N8210 X1.1451
N8220 X1.1329
N8230 X1.1201
N8240 X1.1069
N8250 X1.0945
N8260 X1.0816
N8270 X1.0686
N8280 X1.0551
N8290 X1.0433
N8300 X1.0298
N8310 X1.0166
N8320 X1.0047
N8330 X0.9915
N8340 X0.979
N8350 X0.9664
N8360 X0.9535
N8370 X0.9416
N8380 X0.9284
N8390 X0.9153
N8400 X0.9029
N8410 X0.8902
N8420 X0.877
N8430 X0.8654
N8440 X0.853
N8450 X0.8383 Y-6.8044
N8460 Y-6.8173
N8470 X0.8373 Y-6.83
N8480 Y-6.8426
N8490 Y-6.8556
N8500 X0.8362 Y-6.8677
N8510 Y-6.8805
N8520 Y-6.8937
N8530 X0.835 Y-6.9063
N8540 Y-6.9192
N8550 Y-6.9323
N8560 X0.834 Y-6.9424
N8570 Y-6.9538
N8580 Y-6.9675
N8590 X0.8327 Y-6.9807
N8600 Y-6.9929
N8610 Y-7.006
N8620 X0.8317 Y-7.0182
N8630 Y-7.0311
N8640 Y-7.0441
N8650 X0.8305 Y-7.0561
N8660 Y-7.0692
N8670 Y-7.0822
N8680 X0.8293 Y-7.095
N8690 Y-7.1074
N8700 Y-7.1208
N8710 Y-7.134
N8720 X0.8277 Y-7.1453
N8730 Y-7.1593
N8740 Y-7.1724
N8750 Y-7.1843
N8760 X0.8262 Y-7.1975
N8770 Y-7.2102
N8780 Y-7.2228
N8790 Y-7.2351
N8800 Y-7.2475
N8810 X0.824 Y-7.2601
N8820 Y-7.2737
N8830 Y-7.2865
N8840 Y-7.2991
N8850 Y-7.3122
N8860 X0.8222 Y-7.3244
N8870 Y-7.3376
N8880 Y-7.3506
N8890 X0.8324 Y-7.3476
N8900 X0.8447 Y-7.341
N8910 X0.8553 Y-7.3372
N8920 X0.868 Y-7.341
N8930 X0.8704 Y-7.3546
N8940 Y-7.366
N8950 Y-7.3788
N8960 X0.8664 Y-7.3896
N8970 X0.8644 Y-7.4016
N8980 X0.8604 Y-7.4128
N8990 X0.8564 Y-7.4272
N9000 Y-7.4435
N9010 X0.8664 Y-7.4381
N9020 X0.8772 Y-7.4281
N9030 X0.8865 Y-7.4195
N9040 X0.8942 Y-7.4125
N9050 X0.9043 Y-7.4033
N9060 X0.9136 Y-7.3942
N9070 X0.9214 Y-7.386
N9080 X0.9311 Y-7.3774
N9090 X0.9406 Y-7.3688
N9100 X0.9496 Y-7.36
N9110 X0.9592 Y-7.351
N9120 X0.9688 Y-7.3421
N9130 X0.9778 Y-7.3339
N9140 X0.9868 Y-7.3255
N9150 X0.9965 Y-7.3167
N9160 X1.0056 Y-7.3083
N9170 X1.0155 Y-7.2994
N9180 X1.0244 Y-7.2908
N9190 X1.0338 Y-7.2826
N9200 X1.0435 Y-7.2727
N9210 X1.0521 Y-7.265
N9220 X1.0625 Y-7.2558
N9230 X1.0733 Y-7.2458
N9240 X1.0823 Y-7.2374
N9250 X1.0902 Y-7.2302
N9260 X1.1004 Y-7.221
N9270 X1.1175 Y-7.2042
N9280 X1.1095 Y-7.2122
N9290 X1.1272 Y-7.1951
N9300 X1.1364 Y-7.1866
N9310 X1.1457 Y-7.178
N9320 X1.1554 Y-7.169
N9330 X1.165 Y-7.1602
N9340 X1.1737 Y-7.1519
N9350 X1.1831 Y-7.1433
N9360 X1.1922 Y-7.1348
N9370 X1.2016 Y-7.1262
N9380 X1.2112 Y-7.1172
N9390 X1.2201 Y-7.1091
N9400 X1.2297 Y-7.1003
N9410 X1.2397 Y-7.0909
N9420 X1.2482 Y-7.083
N9430 Y-7.0701
N9440 Y-7.0554
N9450 Y-7.0429
N9460 Y-7.0325
N9470 Y-7.0184
N9480 Y-7.0058
N9490 X1.2464 Y-6.9944
N9500 Y-6.9813
N9510 Y-6.9687
N9520 Y-6.9559
N9530 Y-6.9428
N9540 Y-6.9293
N9550 Y-6.9176
N9560 Y-6.9048
N9570 Y-6.8924
N9580 Y-6.8796
N9590 Y-6.8662
N9600 Y-6.8543
N9610 Y-6.8273
N9620 Y-6.8409
N9630 Y-6.8156
N9640 G80
N9650 G0 Z0.5006
N9670 M5 M9

(DRILL2 2)
N9680 S10000 M3 M8
N9690 G0 X5.0313 Y-9.3071
N9700 G0 Z0.5006
N9720 G0 Z0.1006
N9730 G98 G81 X5.0313 Y-9.3071 Z-0.01 R0.1 F4.
N9740 X5.0197
N9750 X5.006
N9760 X4.993
N9770 X4.981
N9780 X4.968
N9790 X4.9553
N9800 X4.9428
N9810 X4.93
N9820 X4.9178
N9830 X4.905
N9840 X4.8918
N9850 X4.8794
N9860 X4.8665
N9870 X4.8535
N9880 X4.84
N9890 X4.8282
N9900 X4.8147
N9910 X4.8015
N9920 X4.7896
N9930 X4.7764
N9940 X4.7639
N9950 X4.7513
N9960 X4.7384
N9970 X4.7265
N9980 X4.7133
N9990 X4.7002
N10000 X4.6878
N10010 X4.6751
N10020 X4.6619
N10030 X4.6503
N10040 X4.6379
N10050 X4.6232 Y-9.3086
N10060 Y-9.3215
N10070 X4.6222 Y-9.3342
N10080 Y-9.3468
N10090 Y-9.3598
N10100 X4.6211 Y-9.3719
N10110 Y-9.3847
N10120 Y-9.3979
N10130 X4.6199 Y-9.4105
N10140 Y-9.4234
N10150 Y-9.4364
N10160 X4.6189 Y-9.4465
N10170 Y-9.458
N10180 Y-9.4717
N10190 X4.6176 Y-9.4849
N10200 Y-9.4971
N10210 Y-9.5101
N10220 X4.6166 Y-9.5224
N10230 Y-9.5353
N10240 Y-9.5483
N10250 X4.6154 Y-9.5603
N10260 Y-9.5734
N10270 Y-9.5864
N10280 X4.6142 Y-9.5992
N10290 Y-9.6116
N10300 Y-9.625
N10310 Y-9.6382
N10320 X4.6126 Y-9.6495
N10330 Y-9.6635
N10340 Y-9.6766
N10350 Y-9.6885
N10360 X4.6111 Y-9.7017
N10370 Y-9.7144
N10380 Y-9.727
N10390 Y-9.7393
N10400 Y-9.7517
N10410 X4.6089 Y-9.7643
N10420 Y-9.7779
N10430 Y-9.7907
N10440 Y-9.8033
N10450 Y-9.8164
N10460 X4.6071 Y-9.8286
N10470 Y-9.8418
N10480 Y-9.8548
N10490 X4.6173 Y-9.8518
N10500 X4.6296 Y-9.8452
N10510 X4.6402 Y-9.8414
N10520 X4.6529 Y-9.8452
N10530 X4.6553 Y-9.8588
N10540 Y-9.8702
N10550 Y-9.883
N10560 X4.6513 Y-9.8938
N10570 X4.6493 Y-9.9058
N10580 X4.6453 Y-9.917
N10590 X4.6413 Y-9.9314
N10600 Y-9.9477
N10610 X4.6513 Y-9.9423
N10620 X4.6621 Y-9.9323
N10630 X4.6714 Y-9.9237
N10640 X4.6791 Y-9.9167
N10650 X4.6892 Y-9.9075
N10660 X4.6985 Y-9.8984
N10670 X4.7063 Y-9.8902
N10680 X4.716 Y-9.8816
N10690 X4.7255 Y-9.873
N10700 X4.7345 Y-9.8642
N10710 X4.7441 Y-9.8552
N10720 X4.7537 Y-9.8463
N10730 X4.7627 Y-9.8381
N10740 X4.7717 Y-9.8296
N10750 X4.7814 Y-9.8209
N10760 X4.7905 Y-9.8125
N10770 X4.8004 Y-9.8036
N10780 X4.8093 Y-9.795
N10790 X4.8187 Y-9.7868
N10800 X4.8284 Y-9.7769
N10810 X4.837 Y-9.7692
N10820 X4.8474 Y-9.76
N10830 X4.8582 Y-9.75
N10840 X4.8672 Y-9.7416
N10850 X4.8751 Y-9.7344
N10860 X4.8853 Y-9.7251
N10870 X4.9024 Y-9.7084
N10880 X4.8944 Y-9.7164
N10890 X4.9121 Y-9.6993
N10900 X4.9213 Y-9.6908
N10910 X4.9306 Y-9.6821
N10920 X4.9403 Y-9.6732
N10930 X4.9499 Y-9.6644
N10940 X4.9586 Y-9.6561
N10950 X4.968 Y-9.6475
N10960 X4.9771 Y-9.639
N10970 X4.9865 Y-9.6304
N10980 X4.9961 Y-9.6214
N10990 X5.005 Y-9.6133
N11000 X5.0146 Y-9.6045
N11010 X5.0246 Y-9.5951
N11020 X5.0331 Y-9.5872
N11030 Y-9.5743
N11040 Y-9.5596
N11050 Y-9.5471
N11060 Y-9.5367
N11070 Y-9.5226
N11080 Y-9.51
N11090 X5.0313 Y-9.4986
N11100 Y-9.4855
N11110 Y-9.4728
N11120 Y-9.4601
N11130 Y-9.447
N11140 Y-9.4335
N11150 Y-9.4218
N11160 Y-9.409
N11170 Y-9.3966
N11180 Y-9.3838
N11190 Y-9.3703
N11200 Y-9.3585
N11210 Y-9.3315
N11220 Y-9.3451
N11230 Y-9.3198
N11240 G80
N11250 G0 Z0.5006
N11270 M5 M9

(DRILL2 2)
N11280 S10000 M3 M8
N11290 G0 X1.2472 Y-9.3105
N11300 G0 Z0.5006
N11320 G0 Z0.1006
N11330 G98 G81 X1.2472 Y-9.3105 Z-0.01 R0.1 F4.
N11340 X1.2357
N11350 X1.222
N11360 X1.209
N11370 X1.197
N11380 X1.1839
N11390 X1.1712
N11400 X1.1587
N11410 X1.146
N11420 X1.1338
N11430 X1.1209
N11440 X1.1077
N11450 X1.0953
N11460 X1.0825
N11470 X1.0694
N11480 X1.0559
N11490 X1.0441
N11500 X1.0306
N11510 X1.0175
N11520 X1.0055
N11530 X0.9923
N11540 X0.9798
N11550 X0.9672
N11560 X0.9544
N11570 X0.9424
N11580 X0.9292
N11590 X0.9161
N11600 X0.9037
N11610 X0.8911
N11620 X0.8778
N11630 X0.8662
N11640 X0.8538
N11650 X0.8392 Y-9.3119
N11660 Y-9.3249
N11670 X0.8382 Y-9.3376
N11680 Y-9.3502
N11690 Y-9.3631
N11700 X0.8371 Y-9.3752
N11710 Y-9.3881
N11720 Y-9.4013
N11730 X0.8358 Y-9.4139
N11740 Y-9.4267
N11750 Y-9.4398
N11760 X0.8348 Y-9.4499
N11770 Y-9.4614
N11780 Y-9.4751
N11790 X0.8335 Y-9.4883
N11800 Y-9.5004
N11810 Y-9.5135
N11820 X0.8325 Y-9.5258
N11830 Y-9.5387
N11840 Y-9.5517
N11850 X0.8313 Y-9.5637
N11860 Y-9.5767
N11870 Y-9.5898
N11880 X0.8301 Y-9.6025
N11890 Y-9.615
N11900 Y-9.6283
N11910 Y-9.6416
N11920 X0.8286 Y-9.6528
N11930 Y-9.6669
N11940 Y-9.68
N11950 Y-9.6918
N11960 X0.827 Y-9.7051
N11970 Y-9.7177
N11980 Y-9.7304
N11990 Y-9.7427
N12000 Y-9.755
N12010 X0.8249 Y-9.7677
N12020 Y-9.7812
N12030 Y-9.794
N12040 Y-9.8067
N12050 Y-9.8198
N12060 X0.823 Y-9.8319
N12070 Y-9.8452
N12080 Y-9.8581
N12090 X0.8332 Y-9.8552
N12100 X0.8455 Y-9.8486
N12110 X0.8562 Y-9.8447
N12120 X0.8688 Y-9.8486
N12130 X0.8713 Y-9.8622
N12140 Y-9.8736
N12150 Y-9.8864
N12160 X0.8672 Y-9.8971
N12170 X0.8652 Y-9.9092
N12180 X0.8612 Y-9.9204
N12190 X0.8572 Y-9.9347
N12200 Y-9.9511
N12210 X0.8672 Y-9.9457
N12220 X0.878 Y-9.9357
N12230 X0.8873 Y-9.927
N12240 X0.895 Y-9.9201
N12250 X0.9052 Y-9.9109
N12260 X0.9144 Y-9.9018
N12270 X0.9223 Y-9.8936
N12280 X0.932 Y-9.885
N12290 X0.9414 Y-9.8763
N12300 X0.9505 Y-9.8675
N12310 X0.96 Y-9.8586
N12320 X0.9696 Y-9.8497
N12330 X0.9787 Y-9.8415
N12340 X0.9876 Y-9.833
N12350 X0.9973 Y-9.8242
N12360 X1.0064 Y-9.8159
N12370 X1.0163 Y-9.807
N12380 X1.0252 Y-9.7983
N12390 X1.0346 Y-9.7902
N12400 X1.0443 Y-9.7803
N12410 X1.053 Y-9.7726
N12420 X1.0633 Y-9.7634
N12430 X1.0741 Y-9.7533
N12440 X1.0832 Y-9.745
N12450 X1.091 Y-9.7378
N12460 X1.1012 Y-9.7285
N12470 X1.1183 Y-9.7117
N12480 X1.1103 Y-9.7197
N12490 X1.128 Y-9.7026
N12500 X1.1373 Y-9.6942
N12510 X1.1465 Y-9.6855
N12520 X1.1562 Y-9.6766
N12530 X1.1658 Y-9.6678
N12540 X1.1746 Y-9.6595
N12550 X1.184 Y-9.6508
N12560 X1.1931 Y-9.6424
N12570 X1.2025 Y-9.6337
N12580 X1.212 Y-9.6248
N12590 X1.221 Y-9.6166
N12600 X1.2305 Y-9.6078
N12610 X1.2405 Y-9.5984
N12620 X1.249 Y-9.5906
N12630 Y-9.5776
N12640 Y-9.563
N12650 Y-9.5505
N12660 Y-9.54
N12670 Y-9.526
N12680 Y-9.5134
N12690 X1.2472 Y-9.502
N12700 Y-9.4889
N12710 Y-9.4762
N12720 Y-9.4634
N12730 Y-9.4503
N12740 Y-9.4369
N12750 Y-9.4252
N12760 Y-9.4124
N12770 Y-9.3999
N12780 Y-9.3871
N12790 Y-9.3737
N12800 Y-9.3619
N12810 Y-9.3349
N12820 Y-9.3484
N12830 Y-9.3232
N12840 G80
N12850 G0 Z0.5006
N12870 M5 M9

N12880 G30
N12890 M30
%
