%
(*************************************)
(* Generated by wtopace for EntityX  *)
(* Date: 3/31/2016                   *)
(*************************************)
(1001)
(PROJECT5)
(T1  D=0.0039 CR=0. TAPER=118DEG - ZMIN=-0.01 - DRILL)
N10 G90 G54 G64 G50 G17 G40 G80 G94 G91.1 G49
N20 G20 (Inch)
N30 G30

(DRILL2)
N50 G30
N60 T1 G43 H1 M6
N70 S10000 M3 M8
N80 G54
N90 G0 X3.4695 Y-1.8056
N100 G0 Z0.5006
N120 G0 Z0.1006
N130 G98 G81 X3.4695 Y-1.8056 Z-0.01 R0.1 F4.
N140 X3.481
N150 X3.4947
N160 X3.5077
N170 X3.5197
N180 X3.5328
N190 X3.5455
N200 X3.5579
N210 X3.5707
N220 X3.5829
N230 X3.5958
N240 X3.609
N250 X3.6213
N260 X3.6342
N270 X3.6473
N280 X3.6608
N290 X3.6726
N300 X3.686
N310 X3.6992
N320 X3.7112
N330 X3.7244
N340 X3.7368
N350 X3.7494
N360 X3.7623
N370 X3.7743
N380 X3.7875
N390 X3.8005
N400 X3.8129
N410 X3.8256
N420 X3.8389
N430 X3.8505
N440 X3.8629
N450 X3.8775 Y-1.807
N460 Y-1.82
N470 X3.8785 Y-1.8327
N480 Y-1.8452
N490 Y-1.8582
N500 X3.8796 Y-1.8703
N510 Y-1.8832
N520 Y-1.8964
N530 X3.8809 Y-1.9089
N540 Y-1.9218
N550 Y-1.9349
N560 X3.8819 Y-1.945
N570 Y-1.9565
N580 Y-1.9702
N590 X3.8832 Y-1.9833
N600 Y-1.9955
N610 Y-2.0086
N620 X3.8842 Y-2.0209
N630 Y-2.0338
N640 Y-2.0467
N650 X3.8853 Y-2.0587
N660 Y-2.0718
N670 Y-2.0849
N680 X3.8866 Y-2.0976
N690 Y-2.1101
N700 Y-2.1234
N710 Y-2.1367
N720 X3.8881 Y-2.1479
N730 Y-2.162
N740 Y-2.1751
N750 Y-2.1869
N760 X3.8897 Y-2.2002
N770 Y-2.2128
N780 Y-2.2255
N790 Y-2.2378
N800 Y-2.2501
N810 X3.8918 Y-2.2628
N820 Y-2.2763
N830 Y-2.2891
N840 Y-2.3018
N850 Y-2.3149
N860 X3.8937 Y-2.327
N870 Y-2.3403
N880 Y-2.3532
N890 X3.8835 Y-2.3503
N900 X3.8712 Y-2.3437
N910 X3.8605 Y-2.3398
N920 X3.8479 Y-2.3437
N930 X3.8454 Y-2.3572
N940 Y-2.3686
N950 Y-2.3814
N960 X3.8494 Y-2.3922
N970 X3.8514 Y-2.4042
N980 X3.8554 Y-2.4155
N990 X3.8594 Y-2.4298
N1000 Y-2.4462
N1010 X3.8494 Y-2.4408
N1020 X3.8386 Y-2.4308
N1030 X3.8294 Y-2.4221
N1040 X3.8217 Y-2.4152
N1050 X3.8115 Y-2.4059
N1060 X3.8023 Y-2.3968
N1070 X3.7944 Y-2.3887
N1080 X3.7847 Y-2.38
N1090 X3.7753 Y-2.3714
N1100 X3.7662 Y-2.3626
N1110 X3.7566 Y-2.3537
N1120 X3.7471 Y-2.3448
N1130 X3.738 Y-2.3366
N1140 X3.7291 Y-2.3281
N1150 X3.7193 Y-2.3193
N1160 X3.7103 Y-2.311
N1170 X3.7004 Y-2.3021
N1180 X3.6915 Y-2.2934
N1190 X3.682 Y-2.2853
N1200 X3.6723 Y-2.2754
N1210 X3.6637 Y-2.2677
N1220 X3.6534 Y-2.2584
N1230 X3.6426 Y-2.2484
N1240 X3.6335 Y-2.2401
N1250 X3.6256 Y-2.2329
N1260 X3.6155 Y-2.2236
N1270 X3.5984 Y-2.2068
N1280 X3.6064 Y-2.2148
N1290 X3.5886 Y-2.1977
N1300 X3.5794 Y-2.1892
N1310 X3.5702 Y-2.1806
N1320 X3.5604 Y-2.1717
N1330 X3.5509 Y-2.1629
N1340 X3.5421 Y-2.1546
N1350 X3.5327 Y-2.1459
N1360 X3.5236 Y-2.1375
N1370 X3.5142 Y-2.1288
N1380 X3.5046 Y-2.1199
N1390 X3.4957 Y-2.1117
N1400 X3.4862 Y-2.1029
N1410 X3.4761 Y-2.0935
N1420 X3.4677 Y-2.0857
N1430 Y-2.0727
N1440 Y-2.0581
N1450 Y-2.0456
N1460 Y-2.0351
N1470 Y-2.0211
N1480 Y-2.0084
N1490 X3.4695 Y-1.997
N1500 Y-1.9839
N1510 Y-1.9713
N1520 Y-1.9585
N1530 Y-1.9454
N1540 Y-1.932
N1550 Y-1.9203
N1560 Y-1.9075
N1570 Y-1.895
N1580 Y-1.8822
N1590 Y-1.8688
N1600 Y-1.8569
N1610 Y-1.83
N1620 Y-1.8435
N1630 Y-1.8183
N1640 G80
N1650 G0 Z0.5006
N1670 M5 M9

(DRILL2)
N1680 S10000 M3 M8
N1690 G0 X7.2533 Y-1.8023
N1700 G0 Z0.5006
N1720 G0 Z0.1006
N1730 G98 G81 X7.2533 Y-1.8023 Z-0.01 R0.1 F4.
N1740 X7.2648
N1750 X7.2785
N1760 X7.2915
N1770 X7.3035
N1780 X7.3166
N1790 X7.3292
N1800 X7.3417
N1810 X7.3545
N1820 X7.3667
N1830 X7.3796
N1840 X7.3927
N1850 X7.4051
N1860 X7.418
N1870 X7.4311
N1880 X7.4445
N1890 X7.4563
N1900 X7.4698
N1910 X7.483
N1920 X7.495
N1930 X7.5081
N1940 X7.5206
N1950 X7.5332
N1960 X7.5461
N1970 X7.5581
N1980 X7.5713
N1990 X7.5843
N2000 X7.5967
N2010 X7.6094
N2020 X7.6227
N2030 X7.6343
N2040 X7.6466
N2050 X7.6613 Y-1.8037
N2060 Y-1.8167
N2070 X7.6623 Y-1.8293
N2080 Y-1.8419
N2090 Y-1.8549
N2100 X7.6634 Y-1.867
N2110 Y-1.8799
N2120 Y-1.893
N2130 X7.6647 Y-1.9056
N2140 Y-1.9185
N2150 Y-1.9316
N2160 X7.6657 Y-1.9417
N2170 Y-1.9532
N2180 Y-1.9668
N2190 X7.667 Y-1.98
N2200 Y-1.9922
N2210 Y-2.0053
N2220 X7.6679 Y-2.0176
N2230 Y-2.0304
N2240 Y-2.0434
N2250 X7.6691 Y-2.0554
N2260 Y-2.0685
N2270 Y-2.0816
N2280 X7.6704 Y-2.0943
N2290 Y-2.1067
N2300 Y-2.1201
N2310 Y-2.1334
N2320 X7.6719 Y-2.1446
N2330 Y-2.1586
N2340 Y-2.1717
N2350 Y-2.1836
N2360 X7.6734 Y-2.1969
N2370 Y-2.2095
N2380 Y-2.2221
N2390 Y-2.2345
N2400 Y-2.2468
N2410 X7.6756 Y-2.2594
N2420 Y-2.273
N2430 Y-2.2858
N2440 Y-2.2984
N2450 Y-2.3115
N2460 X7.6774 Y-2.3237
N2470 Y-2.337
N2480 Y-2.3499
N2490 X7.6673 Y-2.347
N2500 X7.6549 Y-2.3404
N2510 X7.6443 Y-2.3365
N2520 X7.6317 Y-2.3404
N2530 X7.6292 Y-2.3539
N2540 Y-2.3653
N2550 Y-2.3781
N2560 X7.6332 Y-2.3889
N2570 X7.6352 Y-2.4009
N2580 X7.6392 Y-2.4122
N2590 X7.6432 Y-2.4265
N2600 Y-2.4428
N2610 X7.6332 Y-2.4375
N2620 X7.6224 Y-2.4274
N2630 X7.6132 Y-2.4188
N2640 X7.6055 Y-2.4119
N2650 X7.5953 Y-2.4026
N2660 X7.5861 Y-2.3935
N2670 X7.5782 Y-2.3854
N2680 X7.5685 Y-2.3767
N2690 X7.5591 Y-2.3681
N2700 X7.55 Y-2.3593
N2710 X7.5404 Y-2.3504
N2720 X7.5309 Y-2.3414
N2730 X7.5218 Y-2.3333
N2740 X7.5128 Y-2.3248
N2750 X7.5031 Y-2.316
N2760 X7.494 Y-2.3077
N2770 X7.4842 Y-2.2987
N2780 X7.4752 Y-2.2901
N2790 X7.4658 Y-2.2819
N2800 X7.4561 Y-2.2721
N2810 X7.4475 Y-2.2644
N2820 X7.4372 Y-2.2551
N2830 X7.4264 Y-2.2451
N2840 X7.4173 Y-2.2368
N2850 X7.4094 Y-2.2295
N2860 X7.3992 Y-2.2203
N2870 X7.3821 Y-2.2035
N2880 X7.3902 Y-2.2115
N2890 X7.3724 Y-2.1944
N2900 X7.3632 Y-2.1859
N2910 X7.3539 Y-2.1773
N2920 X7.3442 Y-2.1683
N2930 X7.3347 Y-2.1596
N2940 X7.3259 Y-2.1512
N2950 X7.3165 Y-2.1426
N2960 X7.3074 Y-2.1341
N2970 X7.298 Y-2.1255
N2980 X7.2884 Y-2.1166
N2990 X7.2795 Y-2.1084
N3000 X7.2699 Y-2.0996
N3010 X7.2599 Y-2.0902
N3020 X7.2514 Y-2.0823
N3030 Y-2.0694
N3040 Y-2.0548
N3050 Y-2.0423
N3060 Y-2.0318
N3070 Y-2.0178
N3080 Y-2.0051
N3090 X7.2533 Y-1.9937
N3100 Y-1.9806
N3110 Y-1.968
N3120 Y-1.9552
N3130 Y-1.9421
N3140 Y-1.9287
N3150 Y-1.917
N3160 Y-1.9042
N3170 Y-1.8917
N3180 Y-1.8789
N3190 Y-1.8655
N3200 Y-1.8536
N3210 Y-1.8266
N3220 Y-1.8402
N3230 Y-1.8149
N3240 G80
N3250 G0 Z0.5006
N3270 M5 M9

(DRILL2)
N3280 S10000 M3 M8
N3290 G0 X3.4685 Y-4.3065
N3300 G0 Z0.5006
N3320 G0 Z0.1006
N3330 G98 G81 X3.4685 Y-4.3065 Z-0.01 R0.1 F4.
N3340 X3.48
N3350 X3.4938
N3360 X3.5068
N3370 X3.5187
N3380 X3.5318
N3390 X3.5445
N3400 X3.557
N3410 X3.5698
N3420 X3.5819
N3430 X3.5948
N3440 X3.608
N3450 X3.6204
N3460 X3.6333
N3470 X3.6463
N3480 X3.6598
N3490 X3.6716
N3500 X3.6851
N3510 X3.6982
N3520 X3.7102
N3530 X3.7234
N3540 X3.7359
N3550 X3.7485
N3560 X3.7614
N3570 X3.7733
N3580 X3.7865
N3590 X3.7996
N3600 X3.812
N3610 X3.8247
N3620 X3.8379
N3630 X3.8495
N3640 X3.8619
N3650 X3.8766 Y-4.3079
N3660 Y-4.3209
N3670 X3.8776 Y-4.3336
N3680 Y-4.3462
N3690 Y-4.3591
N3700 X3.8786 Y-4.3712
N3710 Y-4.3841
N3720 Y-4.3973
N3730 X3.8799 Y-4.4099
N3740 Y-4.4227
N3750 Y-4.4358
N3760 X3.8809 Y-4.4459
N3770 Y-4.4574
N3780 Y-4.4711
N3790 X3.8822 Y-4.4843
N3800 Y-4.4964
N3810 Y-4.5095
N3820 X3.8832 Y-4.5218
N3830 Y-4.5347
N3840 Y-4.5477
N3850 X3.8844 Y-4.5596
N3860 Y-4.5727
N3870 Y-4.5858
N3880 X3.8856 Y-4.5985
N3890 Y-4.611
N3900 Y-4.6243
N3910 Y-4.6376
N3920 X3.8872 Y-4.6488
N3930 Y-4.6629
N3940 Y-4.676
N3950 Y-4.6878
N3960 X3.8887 Y-4.7011
N3970 Y-4.7137
N3980 Y-4.7264
N3990 Y-4.7387
N4000 Y-4.751
N4010 X3.8909 Y-4.7637
N4020 Y-4.7772
N4030 Y-4.79
N4040 Y-4.8027
N4050 Y-4.8158
N4060 X3.8927 Y-4.8279
N4070 Y-4.8412
N4080 Y-4.8541
N4090 X3.8825 Y-4.8512
N4100 X3.8702 Y-4.8446
N4110 X3.8596 Y-4.8407
N4120 X3.8469 Y-4.8446
N4130 X3.8445 Y-4.8581
N4140 Y-4.8696
N4150 Y-4.8823
N4160 X3.8485 Y-4.8931
N4170 X3.8505 Y-4.9052
N4180 X3.8545 Y-4.9164
N4190 X3.8585 Y-4.9307
N4200 Y-4.9471
N4210 X3.8485 Y-4.9417
N4220 X3.8377 Y-4.9317
N4230 X3.8284 Y-4.923
N4240 X3.8207 Y-4.9161
N4250 X3.8106 Y-4.9069
N4260 X3.8013 Y-4.8978
N4270 X3.7935 Y-4.8896
N4280 X3.7837 Y-4.881
N4290 X3.7743 Y-4.8723
N4300 X3.7652 Y-4.8635
N4310 X3.7557 Y-4.8546
N4320 X3.7461 Y-4.8457
N4330 X3.737 Y-4.8375
N4340 X3.7281 Y-4.829
N4350 X3.7184 Y-4.8202
N4360 X3.7093 Y-4.8119
N4370 X3.6994 Y-4.803
N4380 X3.6905 Y-4.7943
N4390 X3.6811 Y-4.7862
N4400 X3.6714 Y-4.7763
N4410 X3.6628 Y-4.7686
N4420 X3.6524 Y-4.7594
N4430 X3.6416 Y-4.7493
N4440 X3.6325 Y-4.741
N4450 X3.6247 Y-4.7338
N4460 X3.6145 Y-4.7245
N4470 X3.5974 Y-4.7077
N4480 X3.6054 Y-4.7157
N4490 X3.5877 Y-4.6986
N4500 X3.5784 Y-4.6901
N4510 X3.5692 Y-4.6815
N4520 X3.5595 Y-4.6726
N4530 X3.5499 Y-4.6638
N4540 X3.5411 Y-4.6555
N4550 X3.5317 Y-4.6468
N4560 X3.5226 Y-4.6384
N4570 X3.5132 Y-4.6297
N4580 X3.5037 Y-4.6208
N4590 X3.4948 Y-4.6126
N4600 X3.4852 Y-4.6038
N4610 X3.4752 Y-4.5944
N4620 X3.4667 Y-4.5866
N4630 Y-4.5736
N4640 Y-4.559
N4650 Y-4.5465
N4660 Y-4.536
N4670 Y-4.522
N4680 Y-4.5094
N4690 X3.4685 Y-4.498
N4700 Y-4.4849
N4710 Y-4.4722
N4720 Y-4.4594
N4730 Y-4.4463
N4740 Y-4.4329
N4750 Y-4.4212
N4760 Y-4.4084
N4770 Y-4.3959
N4780 Y-4.3831
N4790 Y-4.3697
N4800 Y-4.3579
N4810 Y-4.3309
N4820 Y-4.3444
N4830 Y-4.3192
N4840 G80
N4850 G0 Z0.5006
N4870 M5 M9

(DRILL2)
N4880 S10000 M3 M8
N4890 G0 X7.2527 Y-4.3097
N4900 G0 Z0.5006
N4920 G0 Z0.1006
N4930 G98 G81 X7.2527 Y-4.3097 Z-0.01 R0.1 F4.
N4940 X7.2642
N4950 X7.2779
N4960 X7.2909
N4970 X7.3029
N4980 X7.3159
N4990 X7.3286
N5000 X7.3411
N5010 X7.3539
N5020 X7.3661
N5030 X7.379
N5040 X7.3921
N5050 X7.4045
N5060 X7.4174
N5070 X7.4305
N5080 X7.4439
N5090 X7.4557
N5100 X7.4692
N5110 X7.4824
N5120 X7.4944
N5130 X7.5075
N5140 X7.52
N5150 X7.5326
N5160 X7.5455
N5170 X7.5575
N5180 X7.5706
N5190 X7.5837
N5200 X7.5961
N5210 X7.6088
N5220 X7.6221
N5230 X7.6336
N5240 X7.646
N5250 X7.6607 Y-4.3111
N5260 Y-4.3241
N5270 X7.6617 Y-4.3368
N5280 Y-4.3494
N5290 Y-4.3623
N5300 X7.6628 Y-4.3744
N5310 Y-4.3873
N5320 Y-4.4005
N5330 X7.6641 Y-4.4131
N5340 Y-4.4259
N5350 Y-4.439
N5360 X7.6651 Y-4.4491
N5370 Y-4.4606
N5380 Y-4.4743
N5390 X7.6663 Y-4.4875
N5400 Y-4.4997
N5410 Y-4.5127
N5420 X7.6673 Y-4.525
N5430 Y-4.5379
N5440 Y-4.5509
N5450 X7.6685 Y-4.5629
N5460 Y-4.5759
N5470 Y-4.589
N5480 X7.6698 Y-4.6018
N5490 Y-4.6142
N5500 Y-4.6275
N5510 Y-4.6408
N5520 X7.6713 Y-4.6521
N5530 Y-4.6661
N5540 Y-4.6792
N5550 Y-4.691
N5560 X7.6728 Y-4.7043
N5570 Y-4.7169
N5580 Y-4.7296
N5590 Y-4.7419
N5600 Y-4.7542
N5610 X7.675 Y-4.7669
N5620 Y-4.7804
N5630 Y-4.7932
N5640 Y-4.8059
N5650 Y-4.819
N5660 X7.6768 Y-4.8311
N5670 Y-4.8444
N5680 Y-4.8574
N5690 X7.6667 Y-4.8544
N5700 X7.6543 Y-4.8478
N5710 X7.6437 Y-4.8439
N5720 X7.6311 Y-4.8478
N5730 X7.6286 Y-4.8614
N5740 Y-4.8728
N5750 Y-4.8856
N5760 X7.6326 Y-4.8963
N5770 X7.6346 Y-4.9084
N5780 X7.6386 Y-4.9196
N5790 X7.6426 Y-4.934
N5800 Y-4.9503
N5810 X7.6326 Y-4.9449
N5820 X7.6218 Y-4.9349
N5830 X7.6126 Y-4.9262
N5840 X7.6049 Y-4.9193
N5850 X7.5947 Y-4.9101
N5860 X7.5854 Y-4.901
N5870 X7.5776 Y-4.8928
N5880 X7.5679 Y-4.8842
N5890 X7.5585 Y-4.8755
N5900 X7.5494 Y-4.8668
N5910 X7.5398 Y-4.8578
N5920 X7.5303 Y-4.8489
N5930 X7.5212 Y-4.8407
N5940 X7.5122 Y-4.8322
N5950 X7.5025 Y-4.8234
N5960 X7.4934 Y-4.8151
N5970 X7.4836 Y-4.8062
N5980 X7.4746 Y-4.7975
N5990 X7.4652 Y-4.7894
N6000 X7.4555 Y-4.7795
N6010 X7.4469 Y-4.7718
N6020 X7.4366 Y-4.7626
N6030 X7.4258 Y-4.7525
N6040 X7.4167 Y-4.7442
N6050 X7.4088 Y-4.737
N6060 X7.3986 Y-4.7277
N6070 X7.3815 Y-4.7109
N6080 X7.3895 Y-4.7189
N6090 X7.3718 Y-4.7018
N6100 X7.3626 Y-4.6934
N6110 X7.3533 Y-4.6847
N6120 X7.3436 Y-4.6758
N6130 X7.3341 Y-4.667
N6140 X7.3253 Y-4.6587
N6150 X7.3159 Y-4.6501
N6160 X7.3068 Y-4.6416
N6170 X7.2974 Y-4.6329
N6180 X7.2878 Y-4.624
N6190 X7.2789 Y-4.6158
N6200 X7.2693 Y-4.607
N6210 X7.2593 Y-4.5976
N6220 X7.2508 Y-4.5898
N6230 Y-4.5768
N6240 Y-4.5622
N6250 Y-4.5497
N6260 Y-4.5392
N6270 Y-4.5252
N6280 Y-4.5126
N6290 X7.2527 Y-4.5012
N6300 Y-4.4881
N6310 Y-4.4754
N6320 Y-4.4626
N6330 Y-4.4495
N6340 Y-4.4361
N6350 Y-4.4244
N6360 Y-4.4116
N6370 Y-4.3991
N6380 Y-4.3863
N6390 Y-4.3729
N6400 Y-4.3611
N6410 Y-4.3341
N6420 Y-4.3477
N6430 Y-4.3224
N6440 G80
N6450 G0 Z0.5006
N6470 M5 M9

(DRILL2)
N6480 S10000 M3 M8
N6490 G0 X3.4692 Y-6.7994
N6500 G0 Z0.5006
N6520 G0 Z0.1006
N6530 G98 G81 X3.4692 Y-6.7994 Z-0.01 R0.1 F4.
N6540 X3.4807
N6550 X3.4944
N6560 X3.5074
N6570 X3.5194
N6580 X3.5324
N6590 X3.5451
N6600 X3.5576
N6610 X3.5704
N6620 X3.5826
N6630 X3.5954
N6640 X3.6086
N6650 X3.621
N6660 X3.6339
N6670 X3.647
N6680 X3.6604
N6690 X3.6722
N6700 X3.6857
N6710 X3.6989
N6720 X3.7109
N6730 X3.724
N6740 X3.7365
N6750 X3.7491
N6760 X3.762
N6770 X3.774
N6780 X3.7871
N6790 X3.8002
N6800 X3.8126
N6810 X3.8253
N6820 X3.8385
N6830 X3.8501
N6840 X3.8625
N6850 X3.8772 Y-6.8009
N6860 Y-6.8139
N6870 X3.8782 Y-6.8265
N6880 Y-6.8391
N6890 Y-6.8521
N6900 X3.8793 Y-6.8642
N6910 Y-6.8771
N6920 Y-6.8902
N6930 X3.8806 Y-6.9028
N6940 Y-6.9157
N6950 Y-6.9288
N6960 X3.8815 Y-6.9389
N6970 Y-6.9504
N6980 Y-6.964
N6990 X3.8828 Y-6.9772
N7000 Y-6.9894
N7010 Y-7.0025
N7020 X3.8838 Y-7.0148
N7030 Y-7.0276
N7040 Y-7.0406
N7050 X3.885 Y-7.0526
N7060 Y-7.0657
N7070 Y-7.0788
N7080 X3.8863 Y-7.0915
N7090 Y-7.1039
N7100 Y-7.1173
N7110 Y-7.1306
N7120 X3.8878 Y-7.1418
N7130 Y-7.1558
N7140 Y-7.1689
N7150 Y-7.1808
N7160 X3.8893 Y-7.1941
N7170 Y-7.2067
N7180 Y-7.2193
N7190 Y-7.2317
N7200 Y-7.244
N7210 X3.8915 Y-7.2566
N7220 Y-7.2702
N7230 Y-7.283
N7240 Y-7.2956
N7250 Y-7.3087
N7260 X3.8933 Y-7.3209
N7270 Y-7.3342
N7280 Y-7.3471
N7290 X3.8832 Y-7.3442
N7300 X3.8708 Y-7.3376
N7310 X3.8602 Y-7.3337
N7320 X3.8476 Y-7.3376
N7330 X3.8451 Y-7.3511
N7340 Y-7.3625
N7350 Y-7.3753
N7360 X3.8491 Y-7.3861
N7370 X3.8511 Y-7.3981
N7380 X3.8551 Y-7.4094
N7390 X3.8591 Y-7.4237
N7400 Y-7.44
N7410 X3.8491 Y-7.4347
N7420 X3.8383 Y-7.4246
N7430 X3.8291 Y-7.416
N7440 X3.8214 Y-7.4091
N7450 X3.8112 Y-7.3998
N7460 X3.8019 Y-7.3907
N7470 X3.7941 Y-7.3826
N7480 X3.7844 Y-7.3739
N7490 X3.775 Y-7.3653
N7500 X3.7659 Y-7.3565
N7510 X3.7563 Y-7.3476
N7520 X3.7468 Y-7.3386
N7530 X3.7377 Y-7.3305
N7540 X3.7287 Y-7.322
N7550 X3.719 Y-7.3132
N7560 X3.7099 Y-7.3049
N7570 X3.7001 Y-7.2959
N7580 X3.6911 Y-7.2873
N7590 X3.6817 Y-7.2791
N7600 X3.672 Y-7.2693
N7610 X3.6634 Y-7.2616
N7620 X3.653 Y-7.2523
N7630 X3.6423 Y-7.2423
N7640 X3.6332 Y-7.234
N7650 X3.6253 Y-7.2267
N7660 X3.6151 Y-7.2175
N7670 X3.598 Y-7.2007
N7680 X3.606 Y-7.2087
N7690 X3.5883 Y-7.1916
N7700 X3.5791 Y-7.1831
N7710 X3.5698 Y-7.1745
N7720 X3.5601 Y-7.1655
N7730 X3.5505 Y-7.1568
N7740 X3.5418 Y-7.1484
N7750 X3.5324 Y-7.1398
N7760 X3.5233 Y-7.1313
N7770 X3.5139 Y-7.1227
N7780 X3.5043 Y-7.1138
N7790 X3.4954 Y-7.1056
N7800 X3.4858 Y-7.0968
N7810 X3.4758 Y-7.0874
N7820 X3.4673 Y-7.0795
N7830 Y-7.0666
N7840 Y-7.052
N7850 Y-7.0395
N7860 Y-7.029
N7870 Y-7.015
N7880 Y-7.0023
N7890 X3.4692 Y-6.9909
N7900 Y-6.9778
N7910 Y-6.9652
N7920 Y-6.9524
N7930 Y-6.9393
N7940 Y-6.9259
N7950 Y-6.9142
N7960 Y-6.9014
N7970 Y-6.8889
N7980 Y-6.8761
N7990 Y-6.8627
N8000 Y-6.8508
N8010 Y-6.8238
N8020 Y-6.8374
N8030 Y-6.8121
N8040 G80
N8050 G0 Z0.5006
N8070 M5 M9

(DRILL2)
N8080 S10000 M3 M8
N8090 G0 X7.2534 Y-6.8029
N8100 G0 Z0.5006
N8120 G0 Z0.1006
N8130 G98 G81 X7.2534 Y-6.8029 Z-0.01 R0.1 F4.
N8140 X7.2649
N8150 X7.2786
N8160 X7.2916
N8170 X7.3036
N8180 X7.3167
N8190 X7.3294
N8200 X7.3419
N8210 X7.3546
N8220 X7.3668
N8230 X7.3797
N8240 X7.3929
N8250 X7.4053
N8260 X7.4181
N8270 X7.4312
N8280 X7.4447
N8290 X7.4565
N8300 X7.4699
N8310 X7.4831
N8320 X7.4951
N8330 X7.5083
N8340 X7.5208
N8350 X7.5333
N8360 X7.5462
N8370 X7.5582
N8380 X7.5714
N8390 X7.5845
N8400 X7.5968
N8410 X7.6095
N8420 X7.6228
N8430 X7.6344
N8440 X7.6468
N8450 X7.6614 Y-6.8043
N8460 Y-6.8173
N8470 X7.6624 Y-6.83
N8480 Y-6.8426
N8490 Y-6.8555
N8500 X7.6635 Y-6.8676
N8510 Y-6.8805
N8520 Y-6.8937
N8530 X7.6648 Y-6.9063
N8540 Y-6.9191
N8550 Y-6.9322
N8560 X7.6658 Y-6.9423
N8570 Y-6.9538
N8580 Y-6.9675
N8590 X7.6671 Y-6.9807
N8600 Y-6.9928
N8610 Y-7.0059
N8620 X7.6681 Y-7.0182
N8630 Y-7.0311
N8640 Y-7.0441
N8650 X7.6693 Y-7.056
N8660 Y-7.0691
N8670 Y-7.0822
N8680 X7.6705 Y-7.0949
N8690 Y-7.1074
N8700 Y-7.1207
N8710 Y-7.134
N8720 X7.672 Y-7.1452
N8730 Y-7.1593
N8740 Y-7.1724
N8750 Y-7.1842
N8760 X7.6736 Y-7.1975
N8770 Y-7.2101
N8780 Y-7.2228
N8790 Y-7.2351
N8800 Y-7.2474
N8810 X7.6757 Y-7.2601
N8820 Y-7.2736
N8830 Y-7.2864
N8840 Y-7.2991
N8850 Y-7.3122
N8860 X7.6776 Y-7.3243
N8870 Y-7.3376
N8880 Y-7.3505
N8890 X7.6674 Y-7.3476
N8900 X7.6551 Y-7.341
N8910 X7.6444 Y-7.3371
N8920 X7.6318 Y-7.341
N8930 X7.6293 Y-7.3545
N8940 Y-7.366
N8950 Y-7.3787
N8960 X7.6333 Y-7.3895
N8970 X7.6354 Y-7.4016
N8980 X7.6394 Y-7.4128
N8990 X7.6434 Y-7.4271
N9000 Y-7.4435
N9010 X7.6333 Y-7.4381
N9020 X7.6226 Y-7.4281
N9030 X7.6133 Y-7.4194
N9040 X7.6056 Y-7.4125
N9050 X7.5954 Y-7.4032
N9060 X7.5862 Y-7.3942
N9070 X7.5783 Y-7.386
N9080 X7.5686 Y-7.3774
N9090 X7.5592 Y-7.3687
N9100 X7.5501 Y-7.3599
N9110 X7.5406 Y-7.351
N9120 X7.531 Y-7.3421
N9130 X7.5219 Y-7.3339
N9140 X7.513 Y-7.3254
N9150 X7.5033 Y-7.3166
N9160 X7.4942 Y-7.3083
N9170 X7.4843 Y-7.2994
N9180 X7.4754 Y-7.2907
N9190 X7.466 Y-7.2826
N9200 X7.4563 Y-7.2727
N9210 X7.4476 Y-7.265
N9220 X7.4373 Y-7.2557
N9230 X7.4265 Y-7.2457
N9240 X7.4174 Y-7.2374
N9250 X7.4096 Y-7.2302
N9260 X7.3994 Y-7.2209
N9270 X7.3823 Y-7.2041
N9280 X7.3903 Y-7.2121
N9290 X7.3726 Y-7.195
N9300 X7.3633 Y-7.1865
N9310 X7.3541 Y-7.1779
N9320 X7.3444 Y-7.169
N9330 X7.3348 Y-7.1602
N9340 X7.326 Y-7.1519
N9350 X7.3166 Y-7.1432
N9360 X7.3075 Y-7.1348
N9370 X7.2981 Y-7.1261
N9380 X7.2886 Y-7.1172
N9390 X7.2796 Y-7.109
N9400 X7.2701 Y-7.1002
N9410 X7.2601 Y-7.0908
N9420 X7.2516 Y-7.083
N9430 Y-7.07
N9440 Y-7.0554
N9450 Y-7.0429
N9460 Y-7.0324
N9470 Y-7.0184
N9480 Y-7.0058
N9490 X7.2534 Y-6.9944
N9500 Y-6.9812
N9510 Y-6.9686
N9520 Y-6.9558
N9530 Y-6.9427
N9540 Y-6.9293
N9550 Y-6.9176
N9560 Y-6.9048
N9570 Y-6.8923
N9580 Y-6.8795
N9590 Y-6.8661
N9600 Y-6.8542
N9610 Y-6.8273
N9620 Y-6.8408
N9630 Y-6.8156
N9640 G80
N9650 G0 Z0.5006
N9670 M5 M9

(DRILL2)
N9680 S10000 M3 M8
N9690 G0 X3.4685 Y-9.3071
N9700 G0 Z0.5006
N9720 G0 Z0.1006
N9730 G98 G81 X3.4685 Y-9.3071 Z-0.01 R0.1 F4.
N9740 X3.48
N9750 X3.4937
N9760 X3.5067
N9770 X3.5187
N9780 X3.5318
N9790 X3.5445
N9800 X3.557
N9810 X3.5697
N9820 X3.5819
N9830 X3.5948
N9840 X3.608
N9850 X3.6204
N9860 X3.6332
N9870 X3.6463
N9880 X3.6598
N9890 X3.6716
N9900 X3.685
N9910 X3.6982
N9920 X3.7102
N9930 X3.7234
N9940 X3.7359
N9950 X3.7484
N9960 X3.7613
N9970 X3.7733
N9980 X3.7865
N9990 X3.7996
N10000 X3.8119
N10010 X3.8246
N10020 X3.8379
N10030 X3.8495
N10040 X3.8619
N10050 X3.8765 Y-9.3085
N10060 Y-9.3215
N10070 X3.8775 Y-9.3342
N10080 Y-9.3468
N10090 Y-9.3597
N10100 X3.8786 Y-9.3718
N10110 Y-9.3847
N10120 Y-9.3979
N10130 X3.8799 Y-9.4104
N10140 Y-9.4233
N10150 Y-9.4364
N10160 X3.8809 Y-9.4465
N10170 Y-9.458
N10180 Y-9.4717
N10190 X3.8822 Y-9.4848
N10200 Y-9.497
N10210 Y-9.5101
N10220 X3.8832 Y-9.5224
N10230 Y-9.5353
N10240 Y-9.5482
N10250 X3.8844 Y-9.5602
N10260 Y-9.5733
N10270 Y-9.5864
N10280 X3.8856 Y-9.5991
N10290 Y-9.6116
N10300 Y-9.6249
N10310 Y-9.6382
N10320 X3.8871 Y-9.6494
N10330 Y-9.6635
N10340 Y-9.6766
N10350 Y-9.6884
N10360 X3.8887 Y-9.7017
N10370 Y-9.7143
N10380 Y-9.727
N10390 Y-9.7393
N10400 Y-9.7516
N10410 X3.8908 Y-9.7643
N10420 Y-9.7778
N10430 Y-9.7906
N10440 Y-9.8033
N10450 Y-9.8164
N10460 X3.8927 Y-9.8285
N10470 Y-9.8418
N10480 Y-9.8547
N10490 X3.8825 Y-9.8518
N10500 X3.8702 Y-9.8452
N10510 X3.8595 Y-9.8413
N10520 X3.8469 Y-9.8452
N10530 X3.8444 Y-9.8587
N10540 Y-9.8701
N10550 Y-9.8829
N10560 X3.8484 Y-9.8937
N10570 X3.8505 Y-9.9057
N10580 X3.8545 Y-9.917
N10590 X3.8585 Y-9.9313
N10600 Y-9.9477
N10610 X3.8484 Y-9.9423
N10620 X3.8377 Y-9.9323
N10630 X3.8284 Y-9.9236
N10640 X3.8207 Y-9.9167
N10650 X3.8105 Y-9.9074
N10660 X3.8013 Y-9.8983
N10670 X3.7934 Y-9.8902
N10680 X3.7837 Y-9.8815
N10690 X3.7743 Y-9.8729
N10700 X3.7652 Y-9.8641
N10710 X3.7557 Y-9.8552
N10720 X3.7461 Y-9.8463
N10730 X3.737 Y-9.8381
N10740 X3.7281 Y-9.8296
N10750 X3.7184 Y-9.8208
N10760 X3.7093 Y-9.8125
N10770 X3.6994 Y-9.8036
N10780 X3.6905 Y-9.7949
N10790 X3.6811 Y-9.7868
N10800 X3.6714 Y-9.7769
N10810 X3.6627 Y-9.7692
N10820 X3.6524 Y-9.7599
N10830 X3.6416 Y-9.7499
N10840 X3.6325 Y-9.7416
N10850 X3.6247 Y-9.7344
N10860 X3.6145 Y-9.7251
N10870 X3.5974 Y-9.7083
N10880 X3.6054 Y-9.7163
N10890 X3.5877 Y-9.6992
N10900 X3.5784 Y-9.6907
N10910 X3.5692 Y-9.6821
N10920 X3.5595 Y-9.6732
N10930 X3.5499 Y-9.6644
N10940 X3.5411 Y-9.6561
N10950 X3.5317 Y-9.6474
N10960 X3.5226 Y-9.639
N10970 X3.5132 Y-9.6303
N10980 X3.5037 Y-9.6214
N10990 X3.4947 Y-9.6132
N11000 X3.4852 Y-9.6044
N11010 X3.4752 Y-9.595
N11020 X3.4667 Y-9.5872
N11030 Y-9.5742
N11040 Y-9.5596
N11050 Y-9.5471
N11060 Y-9.5366
N11070 Y-9.5226
N11080 Y-9.5099
N11090 X3.4685 Y-9.4985
N11100 Y-9.4854
N11110 Y-9.4728
N11120 Y-9.46
N11130 Y-9.4469
N11140 Y-9.4335
N11150 Y-9.4218
N11160 Y-9.409
N11170 Y-9.3965
N11180 Y-9.3837
N11190 Y-9.3703
N11200 Y-9.3584
N11210 Y-9.3315
N11220 Y-9.345
N11230 Y-9.3198
N11240 G80
N11250 G0 Z0.5006
N11270 M5 M9

(DRILL2)
N11280 S10000 M3 M8
N11290 G0 X7.2526 Y-9.3104
N11300 G0 Z0.5006
N11320 G0 Z0.1006
N11330 G98 G81 X7.2526 Y-9.3104 Z-0.01 R0.1 F4.
N11340 X7.2641
N11350 X7.2778
N11360 X7.2908
N11370 X7.3028
N11380 X7.3159
N11390 X7.3285
N11400 X7.341
N11410 X7.3538
N11420 X7.366
N11430 X7.3789
N11440 X7.392
N11450 X7.4044
N11460 X7.4173
N11470 X7.4304
N11480 X7.4439
N11490 X7.4556
N11500 X7.4691
N11510 X7.4823
N11520 X7.4943
N11530 X7.5075
N11540 X7.5199
N11550 X7.5325
N11560 X7.5454
N11570 X7.5574
N11580 X7.5706
N11590 X7.5836
N11600 X7.596
N11610 X7.6087
N11620 X7.622
N11630 X7.6336
N11640 X7.6459
N11650 X7.6606 Y-9.3119
N11660 Y-9.3249
N11670 X7.6616 Y-9.3375
N11680 Y-9.3501
N11690 Y-9.3631
N11700 X7.6627 Y-9.3752
N11710 Y-9.3881
N11720 Y-9.4012
N11730 X7.664 Y-9.4138
N11740 Y-9.4267
N11750 Y-9.4398
N11760 X7.665 Y-9.4499
N11770 Y-9.4614
N11780 Y-9.475
N11790 X7.6663 Y-9.4882
N11800 Y-9.5004
N11810 Y-9.5135
N11820 X7.6672 Y-9.5258
N11830 Y-9.5386
N11840 Y-9.5516
N11850 X7.6684 Y-9.5636
N11860 Y-9.5767
N11870 Y-9.5898
N11880 X7.6697 Y-9.6025
N11890 Y-9.6149
N11900 Y-9.6283
N11910 Y-9.6416
N11920 X7.6712 Y-9.6528
N11930 Y-9.6668
N11940 Y-9.6799
N11950 Y-9.6918
N11960 X7.6727 Y-9.7051
N11970 Y-9.7177
N11980 Y-9.7303
N11990 Y-9.7427
N12000 Y-9.755
N12010 X7.6749 Y-9.7676
N12020 Y-9.7812
N12030 Y-9.794
N12040 Y-9.8066
N12050 Y-9.8197
N12060 X7.6767 Y-9.8319
N12070 Y-9.8452
N12080 Y-9.8581
N12090 X7.6666 Y-9.8552
N12100 X7.6542 Y-9.8486
N12110 X7.6436 Y-9.8447
N12120 X7.631 Y-9.8486
N12130 X7.6285 Y-9.8621
N12140 Y-9.8735
N12150 Y-9.8863
N12160 X7.6325 Y-9.8971
N12170 X7.6345 Y-9.9091
N12180 X7.6385 Y-9.9204
N12190 X7.6425 Y-9.9347
N12200 Y-9.951
N12210 X7.6325 Y-9.9457
N12220 X7.6217 Y-9.9356
N12230 X7.6125 Y-9.927
N12240 X7.6048 Y-9.9201
N12250 X7.5946 Y-9.9108
N12260 X7.5854 Y-9.9017
N12270 X7.5775 Y-9.8936
N12280 X7.5678 Y-9.8849
N12290 X7.5584 Y-9.8763
N12300 X7.5493 Y-9.8675
N12310 X7.5397 Y-9.8586
N12320 X7.5302 Y-9.8496
N12330 X7.5211 Y-9.8415
N12340 X7.5121 Y-9.833
N12350 X7.5024 Y-9.8242
N12360 X7.4933 Y-9.8159
N12370 X7.4835 Y-9.8069
N12380 X7.4745 Y-9.7983
N12390 X7.4651 Y-9.7901
N12400 X7.4554 Y-9.7803
N12410 X7.4468 Y-9.7726
N12420 X7.4365 Y-9.7633
N12430 X7.4257 Y-9.7533
N12440 X7.4166 Y-9.745
N12450 X7.4087 Y-9.7377
N12460 X7.3985 Y-9.7285
N12470 X7.3814 Y-9.7117
N12480 X7.3895 Y-9.7197
N12490 X7.3717 Y-9.7026
N12500 X7.3625 Y-9.6941
N12510 X7.3532 Y-9.6855
N12520 X7.3435 Y-9.6765
N12530 X7.334 Y-9.6678
N12540 X7.3252 Y-9.6594
N12550 X7.3158 Y-9.6508
N12560 X7.3067 Y-9.6423
N12570 X7.2973 Y-9.6337
N12580 X7.2877 Y-9.6248
N12590 X7.2788 Y-9.6166
N12600 X7.2692 Y-9.6078
N12610 X7.2592 Y-9.5984
N12620 X7.2507 Y-9.5905
N12630 Y-9.5776
N12640 Y-9.563
N12650 Y-9.5505
N12660 Y-9.54
N12670 Y-9.526
N12680 Y-9.5133
N12690 X7.2526 Y-9.5019
N12700 Y-9.4888
N12710 Y-9.4762
N12720 Y-9.4634
N12730 Y-9.4503
N12740 Y-9.4369
N12750 Y-9.4252
N12760 Y-9.4124
N12770 Y-9.3999
N12780 Y-9.3871
N12790 Y-9.3737
N12800 Y-9.3618
N12810 Y-9.3348
N12820 Y-9.3484
N12830 Y-9.3231
N12840 G80
N12850 G0 Z0.5006
N12870 M5 M9

N12880 G30
N12890 M30
%
